(.../pcb-gcode-3.6.2.4/pcb-gcode.ulp)
(Copyright 2005 - 2012 by John Johnson)
(See readme.txt for licensing terms.)
(This file generated from the board:)
(/Volumes/S/puzzle base/3xbaseI2C.brd)
(Current profile is .../pcb-gcode-3.6.2.4/profiles/turbocnc.pp  )
(This file generated 19/12/2018 09:45)
(Settings from pcb-machine.h)
(spindle on time = 3.0000)
(spindle speed = 15000.0000)
(milling depth = -1.6000)
(tool change at 0.0000 0.0000 25.4000 )
(feed rate xy = F254.00 )
(feed rate z  = F127.00 )
(Z Axis Settings)
(  High     Up        Down     Drill)
(12.7000 	2.5400 	-0.0800 	-2.0000 )
(Settings from pcb-defaults.h)
(isolate min = 0.0254)
(isolate max = 0.3000)
(isolate step = 0.0300)
(Generated bottom outlines, bottom drill, )
(Unit of measure: mm)
(Metric Mode)
G21
(Absolute Coordinates)
G90
G97 S15000
G00 Z12.7000 
G00 X0.0000 Y0.0000 
M03
G04 P3.000000
G00 Z2.5400 
G00 X-1.2350 Y1.4700 
G01 Z-1.6000 F127.00 
G01 X-1.2350 Y34.2900 F254.00 
G00 Z2.5400 
G00 X-1.2350 Y36.8300 
G01 Z-1.6000 F127.00 
G01 X-1.2350 Y68.2800 F254.00 
G01 X-18.4150 Y68.2800 
G00 Z2.5400 
G00 X-20.9550 Y68.2800 
G01 Z-1.6000 F127.00 
G01 X-34.7250 Y68.2800 F254.00 
G01 X-34.7250 Y36.8300 
G00 Z2.5400 
G00 X-34.8900 Y36.8300 
G01 Z-1.6000 F127.00 
G01 X-34.8900 Y68.2800 F254.00 
G01 X-52.0700 Y68.2800 
G00 Z2.5400 
G00 X-54.6100 Y68.2800 
G01 Z-1.6000 F127.00 
G01 X-68.3800 Y68.2800 F254.00 
G01 X-68.3800 Y36.8300 
G00 Z2.5400 
G00 X-68.5450 Y36.8300 
G01 Z-1.6000 F127.00 
G01 X-68.5450 Y68.2800 F254.00 
G01 X-85.7250 Y68.2800 
G00 Z2.5400 
G00 X-88.2650 Y68.2800 
G01 Z-1.6000 F127.00 
G01 X-102.0350 Y68.2800 F254.00 
G01 X-102.0350 Y36.8300 
G00 Z2.5400 
G00 X-102.0350 Y34.2900 
G01 Z-1.6000 F127.00 
G01 X-102.0350 Y1.4700 F254.00 
G01 X-88.2650 Y1.4700 
G00 Z2.5400 
G00 X-85.8250 Y1.4700 
G01 Z-1.6000 F127.00 
G01 X-68.5450 Y1.4700 F254.00 
G01 X-68.5450 Y34.2900 
G00 Z2.5400 
G00 X-68.3800 Y34.2900 
G01 Z-1.6000 F127.00 
G01 X-68.3800 Y1.4700 F254.00 
G01 X-54.6100 Y1.4700 
G00 Z2.5400 
G00 X-52.1700 Y1.4700 
G01 Z-1.6000 F127.00 
G01 X-34.8900 Y1.4700 F254.00 
G01 X-34.8900 Y34.2900 
G00 Z2.5400 
G00 X-34.7250 Y34.2900 
G01 Z-1.6000 F127.00 
G01 X-34.7250 Y1.4700 F254.00 
G01 X-20.9550 Y1.4700 
G00 Z2.5400 
G00 X-18.5150 Y1.4700 
G01 Z-1.6000 F127.00 
G01 X-1.2350 Y1.4700 F254.00 
G00 Z12.7000 
M05
M02
