(.../pcb-gcode-3.6.2.4/pcb-gcode.ulp)
(Copyright 2005 - 2012 by John Johnson)
(See readme.txt for licensing terms.)
(This file generated from the board:)
(/Volumes/S/puzzle base/3xbaseI2C.brd)
(Current profile is .../pcb-gcode-3.6.2.4/profiles/turbocnc.pp  )
(This file generated 19/12/2018 09:45)
(Settings from pcb-machine.h)
(spindle on time = 3.0000)
(spindle speed = 20000.0000)
(tool change at 0.0000 0.0000 25.4000 )
(feed rate xy = F0.00  )
(feed rate z  = F508.00 )
(Z Axis Settings)
(  High     Up        Down     Drill)
(12.7000 	2.5400 	-0.0800 	-2.0000 )
(Settings from pcb-defaults.h)
(isolate min = 0.0254)
(isolate max = 0.3000)
(isolate step = 0.0300)
(Generated bottom outlines, bottom drill, )
(Unit of measure: mm)
( Tool|       Size       |  Min Sub |  Max Sub |   Count )
( T01 | 0.800mm 0.0315in | 0.0000in | 0.0000in |       0 )
( T02 | 0.914mm 0.0360in | 0.0000in | 0.0000in |       0 )
( T03 | 1.000mm 0.0394in | 0.0000in | 0.0000in |       0 )
( T04 | 1.016mm 0.0400in | 0.0000in | 0.0000in |       0 )
( T05 | 1.200mm 0.0472in | 0.0000in | 0.0000in |       0 )
( T06 | 3.200mm 0.1260in | 0.0000in | 0.0000in |       0 )
(Metric Mode)
G21
(Absolute Coordinates)
G90
G97 S20000
G00 Z12.7000 
G00 X0.0000 Y0.0000 
M03
G04 P3.000000
M05
G00 Z25.4000 
M06 T01  ; 0.8000 
G01 Z0.0000 F508.00 
M06 
G00 Z2.5400 
M03
G04 P3.000000
G00 X-16.6370 Y29.8450 
G01 Z-2.0000 F508.00 
G00 Z2.5400 
G00 X-20.9550 Y29.8450 
G01 Z-2.0000 F508.00 
G00 Z2.5400 
G00 X-50.2920 Y29.8450 
G01 Z-2.0000 F508.00 
G00 Z2.5400 
G00 X-54.6100 Y29.8450 
G01 Z-2.0000 F508.00 
G00 Z2.5400 
G00 X-83.9470 Y29.8450 
G01 Z-2.0000 F508.00 
G00 Z2.5400 
G00 X-88.2650 Y29.8450 
G01 Z-2.0000 F508.00 
G00 Z2.5400 
M05
G00 Z25.4000 
G00 X0.0000 Y0.0000 
M06 T02  ; 0.9144 
G01 Z0.0000 F508.00 
M06 
G00 Z2.5400 
M03
G04 P3.000000
G00 X-19.6850 Y36.3220 
G01 Z-2.0000 F508.00 
G00 Z2.5400 
G00 X-19.6850 Y38.8620 
G01 Z-2.0000 F508.00 
G00 Z2.5400 
G00 X-19.6850 Y41.4020 
G01 Z-2.0000 F508.00 
G00 Z2.5400 
G00 X-19.6850 Y43.9420 
G01 Z-2.0000 F508.00 
G00 Z2.5400 
G00 X-19.6850 Y46.4820 
G01 Z-2.0000 F508.00 
G00 Z2.5400 
G00 X-19.6850 Y49.0220 
G01 Z-2.0000 F508.00 
G00 Z2.5400 
G00 X-19.6850 Y51.5620 
G01 Z-2.0000 F508.00 
G00 Z2.5400 
G00 X-19.6850 Y54.1020 
G01 Z-2.0000 F508.00 
G00 Z2.5400 
G00 X-22.2250 Y54.1020 
G01 Z-2.0000 F508.00 
G00 Z2.5400 
G00 X-22.2250 Y51.5620 
G01 Z-2.0000 F508.00 
G00 Z2.5400 
G00 X-22.2250 Y49.0220 
G01 Z-2.0000 F508.00 
G00 Z2.5400 
G00 X-22.2250 Y46.4820 
G01 Z-2.0000 F508.00 
G00 Z2.5400 
G00 X-22.2250 Y43.9420 
G01 Z-2.0000 F508.00 
G00 Z2.5400 
G00 X-22.2250 Y41.4020 
G01 Z-2.0000 F508.00 
G00 Z2.5400 
G00 X-22.2250 Y38.8620 
G01 Z-2.0000 F508.00 
G00 Z2.5400 
G00 X-22.2250 Y36.3220 
G01 Z-2.0000 F508.00 
G00 Z2.5400 
G00 X-22.2250 Y56.6420 
G01 Z-2.0000 F508.00 
G00 Z2.5400 
G00 X-22.2250 Y59.1820 
G01 Z-2.0000 F508.00 
G00 Z2.5400 
G00 X-19.6850 Y59.1820 
G01 Z-2.0000 F508.00 
G00 Z2.5400 
G00 X-19.6850 Y56.6420 
G01 Z-2.0000 F508.00 
G00 Z2.5400 
G00 X-53.3400 Y56.6420 
G01 Z-2.0000 F508.00 
G00 Z2.5400 
G00 X-53.3400 Y59.1820 
G01 Z-2.0000 F508.00 
G00 Z2.5400 
G00 X-55.8800 Y59.1820 
G01 Z-2.0000 F508.00 
G00 Z2.5400 
G00 X-55.8800 Y56.6420 
G01 Z-2.0000 F508.00 
G00 Z2.5400 
G00 X-55.8800 Y54.1020 
G01 Z-2.0000 F508.00 
G00 Z2.5400 
G00 X-55.8800 Y51.5620 
G01 Z-2.0000 F508.00 
G00 Z2.5400 
G00 X-55.8800 Y49.0220 
G01 Z-2.0000 F508.00 
G00 Z2.5400 
G00 X-55.8800 Y46.4820 
G01 Z-2.0000 F508.00 
G00 Z2.5400 
G00 X-55.8800 Y43.9420 
G01 Z-2.0000 F508.00 
G00 Z2.5400 
G00 X-55.8800 Y41.4020 
G01 Z-2.0000 F508.00 
G00 Z2.5400 
G00 X-55.8800 Y38.8620 
G01 Z-2.0000 F508.00 
G00 Z2.5400 
G00 X-55.8800 Y36.3220 
G01 Z-2.0000 F508.00 
G00 Z2.5400 
G00 X-53.3400 Y36.3220 
G01 Z-2.0000 F508.00 
G00 Z2.5400 
G00 X-53.3400 Y38.8620 
G01 Z-2.0000 F508.00 
G00 Z2.5400 
G00 X-53.3400 Y41.4020 
G01 Z-2.0000 F508.00 
G00 Z2.5400 
G00 X-53.3400 Y43.9420 
G01 Z-2.0000 F508.00 
G00 Z2.5400 
G00 X-53.3400 Y46.4820 
G01 Z-2.0000 F508.00 
G00 Z2.5400 
G00 X-53.3400 Y49.0220 
G01 Z-2.0000 F508.00 
G00 Z2.5400 
G00 X-53.3400 Y51.5620 
G01 Z-2.0000 F508.00 
G00 Z2.5400 
G00 X-53.3400 Y54.1020 
G01 Z-2.0000 F508.00 
G00 Z2.5400 
G00 X-86.9950 Y54.1020 
G01 Z-2.0000 F508.00 
G00 Z2.5400 
G00 X-89.5350 Y54.1020 
G01 Z-2.0000 F508.00 
G00 Z2.5400 
G00 X-89.5350 Y51.5620 
G01 Z-2.0000 F508.00 
G00 Z2.5400 
G00 X-86.9950 Y51.5620 
G01 Z-2.0000 F508.00 
G00 Z2.5400 
G00 X-86.9950 Y49.0220 
G01 Z-2.0000 F508.00 
G00 Z2.5400 
G00 X-89.5350 Y49.0220 
G01 Z-2.0000 F508.00 
G00 Z2.5400 
G00 X-89.5350 Y46.4820 
G01 Z-2.0000 F508.00 
G00 Z2.5400 
G00 X-86.9950 Y46.4820 
G01 Z-2.0000 F508.00 
G00 Z2.5400 
G00 X-86.9950 Y43.9420 
G01 Z-2.0000 F508.00 
G00 Z2.5400 
G00 X-89.5350 Y43.9420 
G01 Z-2.0000 F508.00 
G00 Z2.5400 
G00 X-89.5350 Y41.4020 
G01 Z-2.0000 F508.00 
G00 Z2.5400 
G00 X-86.9950 Y41.4020 
G01 Z-2.0000 F508.00 
G00 Z2.5400 
G00 X-86.9950 Y38.8620 
G01 Z-2.0000 F508.00 
G00 Z2.5400 
G00 X-89.5350 Y38.8620 
G01 Z-2.0000 F508.00 
G00 Z2.5400 
G00 X-89.5350 Y36.3220 
G01 Z-2.0000 F508.00 
G00 Z2.5400 
G00 X-86.9950 Y36.3220 
G01 Z-2.0000 F508.00 
G00 Z2.5400 
G00 X-86.9950 Y56.6420 
G01 Z-2.0000 F508.00 
G00 Z2.5400 
G00 X-89.5350 Y56.6420 
G01 Z-2.0000 F508.00 
G00 Z2.5400 
G00 X-89.5350 Y59.1820 
G01 Z-2.0000 F508.00 
G00 Z2.5400 
G00 X-86.9950 Y59.1820 
G01 Z-2.0000 F508.00 
G00 Z2.5400 
M05
G00 Z25.4000 
G00 X0.0000 Y0.0000 
M06 T03  ; 1.0000 
G01 Z0.0000 F508.00 
M06 
G00 Z2.5400 
M03
G04 P3.000000
G00 X-9.6520 Y10.9220 
G01 Z-2.0000 F508.00 
G00 Z2.5400 
G00 X-9.6520 Y13.4620 
G01 Z-2.0000 F508.00 
G00 Z2.5400 
G00 X-9.6520 Y16.0020 
G01 Z-2.0000 F508.00 
G00 Z2.5400 
G00 X-12.1920 Y16.0020 
G01 Z-2.0000 F508.00 
G00 Z2.5400 
G00 X-12.1920 Y13.4620 
G01 Z-2.0000 F508.00 
G00 Z2.5400 
G00 X-12.1920 Y10.9220 
G01 Z-2.0000 F508.00 
G00 Z2.5400 
G00 X-12.1920 Y18.5420 
G01 Z-2.0000 F508.00 
G00 Z2.5400 
G00 X-12.1920 Y21.0820 
G01 Z-2.0000 F508.00 
G00 Z2.5400 
G00 X-12.1920 Y23.6220 
G01 Z-2.0000 F508.00 
G00 Z2.5400 
G00 X-12.1920 Y26.1620 
G01 Z-2.0000 F508.00 
G00 Z2.5400 
G00 X-9.6520 Y26.1620 
G01 Z-2.0000 F508.00 
G00 Z2.5400 
G00 X-9.6520 Y23.6220 
G01 Z-2.0000 F508.00 
G00 Z2.5400 
G00 X-9.6520 Y21.0820 
G01 Z-2.0000 F508.00 
G00 Z2.5400 
G00 X-9.6520 Y18.5420 
G01 Z-2.0000 F508.00 
G00 Z2.5400 
G00 X-9.6520 Y28.7020 
G01 Z-2.0000 F508.00 
G00 Z2.5400 
G00 X-9.6520 Y31.2420 
G01 Z-2.0000 F508.00 
G00 Z2.5400 
G00 X-9.6520 Y33.7820 
G01 Z-2.0000 F508.00 
G00 Z2.5400 
G00 X-12.1920 Y33.7820 
G01 Z-2.0000 F508.00 
G00 Z2.5400 
G00 X-12.1920 Y31.2420 
G01 Z-2.0000 F508.00 
G00 Z2.5400 
G00 X-12.1920 Y28.7020 
G01 Z-2.0000 F508.00 
G00 Z2.5400 
G00 X-12.1920 Y36.3220 
G01 Z-2.0000 F508.00 
G00 Z2.5400 
G00 X-12.1920 Y38.8620 
G01 Z-2.0000 F508.00 
G00 Z2.5400 
G00 X-12.1920 Y41.4020 
G01 Z-2.0000 F508.00 
G00 Z2.5400 
G00 X-12.1920 Y43.9420 
G01 Z-2.0000 F508.00 
G00 Z2.5400 
G00 X-12.1920 Y46.4820 
G01 Z-2.0000 F508.00 
G00 Z2.5400 
G00 X-12.1920 Y49.0220 
G01 Z-2.0000 F508.00 
G00 Z2.5400 
G00 X-12.1920 Y51.5620 
G01 Z-2.0000 F508.00 
G00 Z2.5400 
G00 X-12.1920 Y54.1020 
G01 Z-2.0000 F508.00 
G00 Z2.5400 
G00 X-9.6520 Y54.1020 
G01 Z-2.0000 F508.00 
G00 Z2.5400 
G00 X-9.6520 Y51.5620 
G01 Z-2.0000 F508.00 
G00 Z2.5400 
G00 X-9.6520 Y49.0220 
G01 Z-2.0000 F508.00 
G00 Z2.5400 
G00 X-9.6520 Y46.4820 
G01 Z-2.0000 F508.00 
G00 Z2.5400 
G00 X-9.6520 Y43.9420 
G01 Z-2.0000 F508.00 
G00 Z2.5400 
G00 X-9.6520 Y41.4020 
G01 Z-2.0000 F508.00 
G00 Z2.5400 
G00 X-9.6520 Y38.8620 
G01 Z-2.0000 F508.00 
G00 Z2.5400 
G00 X-9.6520 Y36.3220 
G01 Z-2.0000 F508.00 
G00 Z2.5400 
G00 X-9.6520 Y56.6420 
G01 Z-2.0000 F508.00 
G00 Z2.5400 
G00 X-9.6520 Y59.1820 
G01 Z-2.0000 F508.00 
G00 Z2.5400 
G00 X-12.1920 Y59.1820 
G01 Z-2.0000 F508.00 
G00 Z2.5400 
G00 X-12.1920 Y56.6420 
G01 Z-2.0000 F508.00 
G00 Z2.5400 
G00 X-43.3070 Y56.6420 
G01 Z-2.0000 F508.00 
G00 Z2.5400 
G00 X-43.3070 Y59.1820 
G01 Z-2.0000 F508.00 
G00 Z2.5400 
G00 X-45.8470 Y59.1820 
G01 Z-2.0000 F508.00 
G00 Z2.5400 
G00 X-45.8470 Y56.6420 
G01 Z-2.0000 F508.00 
G00 Z2.5400 
G00 X-45.8470 Y54.1020 
G01 Z-2.0000 F508.00 
G00 Z2.5400 
G00 X-45.8470 Y51.5620 
G01 Z-2.0000 F508.00 
G00 Z2.5400 
G00 X-45.8470 Y49.0220 
G01 Z-2.0000 F508.00 
G00 Z2.5400 
G00 X-45.8470 Y46.4820 
G01 Z-2.0000 F508.00 
G00 Z2.5400 
G00 X-45.8470 Y43.9420 
G01 Z-2.0000 F508.00 
G00 Z2.5400 
G00 X-45.8470 Y41.4020 
G01 Z-2.0000 F508.00 
G00 Z2.5400 
G00 X-45.8470 Y38.8620 
G01 Z-2.0000 F508.00 
G00 Z2.5400 
G00 X-45.8470 Y36.3220 
G01 Z-2.0000 F508.00 
G00 Z2.5400 
G00 X-43.3070 Y36.3220 
G01 Z-2.0000 F508.00 
G00 Z2.5400 
G00 X-43.3070 Y38.8620 
G01 Z-2.0000 F508.00 
G00 Z2.5400 
G00 X-43.3070 Y41.4020 
G01 Z-2.0000 F508.00 
G00 Z2.5400 
G00 X-43.3070 Y43.9420 
G01 Z-2.0000 F508.00 
G00 Z2.5400 
G00 X-43.3070 Y46.4820 
G01 Z-2.0000 F508.00 
G00 Z2.5400 
G00 X-43.3070 Y49.0220 
G01 Z-2.0000 F508.00 
G00 Z2.5400 
G00 X-43.3070 Y51.5620 
G01 Z-2.0000 F508.00 
G00 Z2.5400 
G00 X-43.3070 Y54.1020 
G01 Z-2.0000 F508.00 
G00 Z2.5400 
G00 X-43.3070 Y33.7820 
G01 Z-2.0000 F508.00 
G00 Z2.5400 
G00 X-43.3070 Y31.2420 
G01 Z-2.0000 F508.00 
G00 Z2.5400 
G00 X-43.3070 Y28.7020 
G01 Z-2.0000 F508.00 
G00 Z2.5400 
G00 X-45.8470 Y28.7020 
G01 Z-2.0000 F508.00 
G00 Z2.5400 
G00 X-45.8470 Y31.2420 
G01 Z-2.0000 F508.00 
G00 Z2.5400 
G00 X-45.8470 Y33.7820 
G01 Z-2.0000 F508.00 
G00 Z2.5400 
G00 X-45.8470 Y26.1620 
G01 Z-2.0000 F508.00 
G00 Z2.5400 
G00 X-45.8470 Y23.6220 
G01 Z-2.0000 F508.00 
G00 Z2.5400 
G00 X-45.8470 Y21.0820 
G01 Z-2.0000 F508.00 
G00 Z2.5400 
G00 X-45.8470 Y18.5420 
G01 Z-2.0000 F508.00 
G00 Z2.5400 
G00 X-43.3070 Y18.5420 
G01 Z-2.0000 F508.00 
G00 Z2.5400 
G00 X-43.3070 Y21.0820 
G01 Z-2.0000 F508.00 
G00 Z2.5400 
G00 X-43.3070 Y23.6220 
G01 Z-2.0000 F508.00 
G00 Z2.5400 
G00 X-43.3070 Y26.1620 
G01 Z-2.0000 F508.00 
G00 Z2.5400 
G00 X-43.3070 Y16.0020 
G01 Z-2.0000 F508.00 
G00 Z2.5400 
G00 X-43.3070 Y13.4620 
G01 Z-2.0000 F508.00 
G00 Z2.5400 
G00 X-43.3070 Y10.9220 
G01 Z-2.0000 F508.00 
G00 Z2.5400 
G00 X-45.8470 Y10.9220 
G01 Z-2.0000 F508.00 
G00 Z2.5400 
G00 X-45.8470 Y13.4620 
G01 Z-2.0000 F508.00 
G00 Z2.5400 
G00 X-45.8470 Y16.0020 
G01 Z-2.0000 F508.00 
G00 Z2.5400 
G00 X-76.9620 Y16.0020 
G01 Z-2.0000 F508.00 
G00 Z2.5400 
G00 X-79.5020 Y16.0020 
G01 Z-2.0000 F508.00 
G00 Z2.5400 
G00 X-79.5020 Y13.4620 
G01 Z-2.0000 F508.00 
G00 Z2.5400 
G00 X-76.9620 Y13.4620 
G01 Z-2.0000 F508.00 
G00 Z2.5400 
G00 X-76.9620 Y10.9220 
G01 Z-2.0000 F508.00 
G00 Z2.5400 
G00 X-79.5020 Y10.9220 
G01 Z-2.0000 F508.00 
G00 Z2.5400 
G00 X-79.5020 Y18.5420 
G01 Z-2.0000 F508.00 
G00 Z2.5400 
G00 X-76.9620 Y18.5420 
G01 Z-2.0000 F508.00 
G00 Z2.5400 
G00 X-76.9620 Y21.0820 
G01 Z-2.0000 F508.00 
G00 Z2.5400 
G00 X-79.5020 Y21.0820 
G01 Z-2.0000 F508.00 
G00 Z2.5400 
G00 X-79.5020 Y23.6220 
G01 Z-2.0000 F508.00 
G00 Z2.5400 
G00 X-76.9620 Y23.6220 
G01 Z-2.0000 F508.00 
G00 Z2.5400 
G00 X-76.9620 Y26.1620 
G01 Z-2.0000 F508.00 
G00 Z2.5400 
G00 X-79.5020 Y26.1620 
G01 Z-2.0000 F508.00 
G00 Z2.5400 
G00 X-79.5020 Y28.7020 
G01 Z-2.0000 F508.00 
G00 Z2.5400 
G00 X-76.9620 Y28.7020 
G01 Z-2.0000 F508.00 
G00 Z2.5400 
G00 X-76.9620 Y31.2420 
G01 Z-2.0000 F508.00 
G00 Z2.5400 
G00 X-79.5020 Y31.2420 
G01 Z-2.0000 F508.00 
G00 Z2.5400 
G00 X-79.5020 Y33.7820 
G01 Z-2.0000 F508.00 
G00 Z2.5400 
G00 X-76.9620 Y33.7820 
G01 Z-2.0000 F508.00 
G00 Z2.5400 
G00 X-76.9620 Y36.3220 
G01 Z-2.0000 F508.00 
G00 Z2.5400 
G00 X-79.5020 Y36.3220 
G01 Z-2.0000 F508.00 
G00 Z2.5400 
G00 X-79.5020 Y38.8620 
G01 Z-2.0000 F508.00 
G00 Z2.5400 
G00 X-76.9620 Y38.8620 
G01 Z-2.0000 F508.00 
G00 Z2.5400 
G00 X-76.9620 Y41.4020 
G01 Z-2.0000 F508.00 
G00 Z2.5400 
G00 X-79.5020 Y41.4020 
G01 Z-2.0000 F508.00 
G00 Z2.5400 
G00 X-79.5020 Y43.9420 
G01 Z-2.0000 F508.00 
G00 Z2.5400 
G00 X-76.9620 Y43.9420 
G01 Z-2.0000 F508.00 
G00 Z2.5400 
G00 X-76.9620 Y46.4820 
G01 Z-2.0000 F508.00 
G00 Z2.5400 
G00 X-79.5020 Y46.4820 
G01 Z-2.0000 F508.00 
G00 Z2.5400 
G00 X-79.5020 Y49.0220 
G01 Z-2.0000 F508.00 
G00 Z2.5400 
G00 X-76.9620 Y49.0220 
G01 Z-2.0000 F508.00 
G00 Z2.5400 
G00 X-76.9620 Y51.5620 
G01 Z-2.0000 F508.00 
G00 Z2.5400 
G00 X-79.5020 Y51.5620 
G01 Z-2.0000 F508.00 
G00 Z2.5400 
G00 X-79.5020 Y54.1020 
G01 Z-2.0000 F508.00 
G00 Z2.5400 
G00 X-76.9620 Y54.1020 
G01 Z-2.0000 F508.00 
G00 Z2.5400 
G00 X-76.9620 Y56.6420 
G01 Z-2.0000 F508.00 
G00 Z2.5400 
G00 X-79.5020 Y56.6420 
G01 Z-2.0000 F508.00 
G00 Z2.5400 
G00 X-79.5020 Y59.1820 
G01 Z-2.0000 F508.00 
G00 Z2.5400 
G00 X-76.9620 Y59.1820 
G01 Z-2.0000 F508.00 
G00 Z2.5400 
M05
G00 Z25.4000 
G00 X0.0000 Y0.0000 
M06 T04  ; 1.0160 
G01 Z0.0000 F508.00 
M06 
G00 Z2.5400 
M03
G04 P3.000000
G00 X-26.5430 Y12.7000 
G01 Z-2.0000 F508.00 
G00 Z2.5400 
G00 X-26.5430 Y15.2400 
G01 Z-2.0000 F508.00 
G00 Z2.5400 
G00 X-26.5430 Y17.7800 
G01 Z-2.0000 F508.00 
G00 Z2.5400 
G00 X-26.5430 Y20.3200 
G01 Z-2.0000 F508.00 
G00 Z2.5400 
G00 X-60.1980 Y20.3200 
G01 Z-2.0000 F508.00 
G00 Z2.5400 
G00 X-60.1980 Y17.7800 
G01 Z-2.0000 F508.00 
G00 Z2.5400 
G00 X-60.1980 Y15.2400 
G01 Z-2.0000 F508.00 
G00 Z2.5400 
G00 X-60.1980 Y12.7000 
G01 Z-2.0000 F508.00 
G00 Z2.5400 
G00 X-93.8530 Y12.7000 
G01 Z-2.0000 F508.00 
G00 Z2.5400 
G00 X-93.8530 Y15.2400 
G01 Z-2.0000 F508.00 
G00 Z2.5400 
G00 X-93.8530 Y17.7800 
G01 Z-2.0000 F508.00 
G00 Z2.5400 
G00 X-93.8530 Y20.3200 
G01 Z-2.0000 F508.00 
G00 Z2.5400 
M05
G00 Z25.4000 
G00 X0.0000 Y0.0000 
M06 T05  ; 1.2000 
G01 Z0.0000 F508.00 
M06 
G00 Z2.5400 
M03
G04 P3.000000
G00 X-29.8450 Y24.7650 
G01 Z-2.0000 F508.00 
G00 Z2.5400 
G00 X-29.8450 Y27.3050 
G01 Z-2.0000 F508.00 
G00 Z2.5400 
G00 X-29.8450 Y29.8450 
G01 Z-2.0000 F508.00 
G00 Z2.5400 
G00 X-63.5000 Y29.8450 
G01 Z-2.0000 F508.00 
G00 Z2.5400 
G00 X-63.5000 Y27.3050 
G01 Z-2.0000 F508.00 
G00 Z2.5400 
G00 X-63.5000 Y24.7650 
G01 Z-2.0000 F508.00 
G00 Z2.5400 
G00 X-97.1550 Y24.7650 
G01 Z-2.0000 F508.00 
G00 Z2.5400 
G00 X-97.1550 Y27.3050 
G01 Z-2.0000 F508.00 
G00 Z2.5400 
G00 X-97.1550 Y29.8450 
G01 Z-2.0000 F508.00 
G00 Z2.5400 
M05
G00 Z25.4000 
G00 X0.0000 Y0.0000 
M06 T06  ; 3.2000 
G01 Z0.0000 F508.00 
M06 
G00 Z2.5400 
M03
G04 P3.000000
G00 X-5.8420 Y6.0960 
G01 Z-2.0000 F508.00 
G00 Z2.5400 
G00 X-39.4970 Y6.0960 
G01 Z-2.0000 F508.00 
G00 Z2.5400 
G00 X-73.1520 Y6.0960 
G01 Z-2.0000 F508.00 
G00 Z2.5400 
G00 X-73.1520 Y64.1350 
G01 Z-2.0000 F508.00 
G00 Z2.5400 
G00 X-39.4970 Y64.1350 
G01 Z-2.0000 F508.00 
G00 Z2.5400 
G00 X-5.8420 Y64.1350 
G01 Z-2.0000 F508.00 
G00 Z2.5400 
T01 
G00 Z12.7000 
M05
M02
