(.../pcb-gcode-3.6.2.4/pcb-gcode.ulp)
(Copyright 2005 - 2012 by John Johnson)
(See readme.txt for licensing terms.)
(This file generated from the board:)
(/Volumes/S/puzzle base/3xbaseI2C.brd)
(Current profile is .../pcb-gcode-3.6.2.4/profiles/turbocnc.pp  )
(This file generated 19/12/2018 09:28)
(Settings from pcb-machine.h)
(spindle on time = 3.0000)
(  Tool Size)
(0.1000 )
(spindle speed = 30000.0000)
(tool change at 0.0000 0.0000 25.4000 )
(feed rate xy = F254.00 )
(feed rate z  = F254.00 )
(Z Axis Settings)
(  High     Up        Down     Drill)
(12.7000 	2.5400 	-0.0800 	-2.0000 )
(Settings from pcb-defaults.h)
(isolate min = 0.0254)
(isolate max = 0.3000)
(isolate step = 0.0300)
(Generated bottom outlines, bottom drill, )
(Unit of measure: mm)
(Metric Mode)
G21
(Absolute Coordinates)
G90
G97 S30000
G00 Z12.7000 
G00 X0.0000 Y0.0000 
M03
G04 P3.000000
G00 Z2.5400 
G00 X-3.9076 Y3.5750 
G01 Z-0.0800 F254.00 
G01 X-3.3210 Y4.1616 F254.00 
G01 X-2.9063 Y4.8800 
G01 X-2.6916 Y5.6812 
G01 X-2.6916 Y6.5108 
G01 X-2.9063 Y7.3120 
G01 X-3.3210 Y8.0304 
G01 X-3.9076 Y8.6170 
G01 X-4.6260 Y9.0317 
G01 X-5.4272 Y9.2464 
G01 X-6.2568 Y9.2464 
G01 X-7.0580 Y9.0317 
G01 X-7.7764 Y8.6170 
G01 X-8.3630 Y8.0304 
G01 X-8.7777 Y7.3120 
G01 X-8.9924 Y6.5108 
G01 X-8.9924 Y5.6812 
G01 X-8.7777 Y4.8800 
G01 X-8.3630 Y4.1616 
G01 X-7.7764 Y3.5750 
G01 X-7.0580 Y3.1603 
G01 X-6.2568 Y2.9456 
G01 X-5.4272 Y2.9456 
G01 X-4.6260 Y3.1603 
G01 X-3.9076 Y3.5750 
G00 Z2.5400 
G00 X-4.1053 Y3.6484 
G01 Z-0.0800 F254.00 
G01 X-4.3903 Y3.4693 F254.00 
G01 X-4.6935 Y3.3233 
G01 X-5.0112 Y3.2122 
G01 X-5.3393 Y3.1373 
G01 X-5.6737 Y3.0996 
G01 X-6.0103 Y3.0996 
G01 X-6.3447 Y3.1373 
G01 X-6.6728 Y3.2122 
G01 X-6.9905 Y3.3233 
G01 X-7.2937 Y3.4693 
G01 X-7.5787 Y3.6484 
G01 X-7.8418 Y3.8582 
G01 X-8.0798 Y4.0962 
G01 X-8.2896 Y4.3593 
G01 X-8.4687 Y4.6443 
G01 X-8.6147 Y4.9475 
G01 X-8.7258 Y5.2652 
G01 X-8.8007 Y5.5933 
G01 X-8.8384 Y5.9277 
G01 X-8.8384 Y6.2643 
G01 X-8.8007 Y6.5987 
G01 X-8.7258 Y6.9268 
G01 X-8.6147 Y7.2445 
G01 X-8.4687 Y7.5477 
G01 X-8.2896 Y7.8327 
G01 X-8.0798 Y8.0958 
G01 X-7.8418 Y8.3338 
G01 X-7.5787 Y8.5436 
G01 X-7.2937 Y8.7226 
G01 X-6.9905 Y8.8687 
G01 X-6.6728 Y8.9798 
G01 X-6.3447 Y9.0547 
G01 X-6.0103 Y9.0924 
G01 X-5.6737 Y9.0924 
G01 X-5.3393 Y9.0547 
G01 X-5.0112 Y8.9798 
G01 X-4.6935 Y8.8687 
G01 X-4.3903 Y8.7226 
G01 X-4.1053 Y8.5436 
G01 X-3.8422 Y8.3338 
G01 X-3.6042 Y8.0958 
G01 X-3.3944 Y7.8327 
G01 X-3.2153 Y7.5477 
G01 X-3.0693 Y7.2445 
G01 X-2.9582 Y6.9268 
G01 X-2.8833 Y6.5987 
G01 X-2.8456 Y6.2643 
G01 X-2.8456 Y5.9277 
G01 X-2.8833 Y5.5933 
G01 X-2.9582 Y5.2652 
G01 X-3.0693 Y4.9475 
G01 X-3.2153 Y4.6443 
G01 X-3.3944 Y4.3593 
G01 X-3.6042 Y4.0962 
G01 X-3.8422 Y3.8582 
G01 X-4.1053 Y3.6484 
G00 Z2.5400 
G00 X-9.2447 Y9.9386 
G01 Z-0.0800 F254.00 
G01 X-8.6686 Y10.5147 F254.00 
G01 X-8.6686 Y11.3293 
G01 X-9.2447 Y11.9054 
G01 X-10.0593 Y11.9054 
G01 X-10.6354 Y11.3293 
G01 X-10.6354 Y10.5146 
G01 X-10.0593 Y9.9386 
G01 X-9.2447 Y9.9386 
G00 Z2.5400 
G00 X-9.3085 Y10.0926 
G01 Z-0.0800 F254.00 
G01 X-9.9955 Y10.0926 F254.00 
G01 X-10.4814 Y10.5785 
G01 X-10.4814 Y11.2655 
G01 X-9.9955 Y11.7514 
G01 X-9.3085 Y11.7514 
G01 X-8.8226 Y11.2655 
G01 X-8.8226 Y10.5785 
G01 X-9.3085 Y10.0926 
G00 Z2.5400 
G00 X-11.2086 Y10.5147 
G01 Z-0.0800 F254.00 
G01 X-11.2086 Y11.3293 F254.00 
G01 X-11.7847 Y11.9054 
G01 X-12.5993 Y11.9054 
G01 X-13.1754 Y11.3293 
G01 X-13.1754 Y10.5147 
G01 X-12.5993 Y9.9386 
G01 X-11.7847 Y9.9386 
G01 X-11.2086 Y10.5147 
G00 Z2.5400 
G00 X-11.3626 Y10.5785 
G01 Z-0.0800 F254.00 
G01 X-11.8484 Y10.0926 F254.00 
G01 X-12.5355 Y10.0926 
G01 X-13.0214 Y10.5785 
G01 X-13.0214 Y11.2655 
G01 X-12.5355 Y11.7514 
G01 X-11.8484 Y11.7514 
G01 X-11.3626 Y11.2655 
G01 X-11.3626 Y10.5785 
G00 Z2.5400 
G00 X-11.7847 Y12.4786 
G01 Z-0.0800 F254.00 
G01 X-11.2086 Y13.0547 F254.00 
G01 X-11.2086 Y13.8693 
G01 X-11.7847 Y14.4454 
G01 X-12.5993 Y14.4454 
G01 X-13.1754 Y13.8693 
G01 X-13.1754 Y13.1066 
G01 X-13.1869 Y13.0789 
G01 X-13.2081 Y13.0577 
G01 X-14.0107 Y12.2551 
G01 X-14.0384 Y12.2436 
G01 X-15.1715 Y12.2436 
G01 X-15.1992 Y12.2551 
G01 X-15.2205 Y12.2763 
G01 X-15.2319 Y12.3040 
G01 X-15.2319 Y12.3340 
G01 X-15.2205 Y12.3617 
G01 X-15.1992 Y12.3829 
G01 X-12.5751 Y15.0071 
G01 X-12.5474 Y15.0186 
G01 X-11.7847 Y15.0186 
G01 X-11.2086 Y15.5947 
G01 X-11.2086 Y16.4093 
G01 X-11.7847 Y16.9854 
G01 X-12.5993 Y16.9854 
G01 X-13.1754 Y16.4093 
G01 X-13.1754 Y15.6466 
G01 X-13.1869 Y15.6189 
G01 X-13.2081 Y15.5977 
G01 X-15.6617 Y13.1441 
G01 X-15.6894 Y13.1326 
G01 X-19.1920 Y13.1326 
G01 X-19.2197 Y13.1441 
G01 X-19.2409 Y13.1653 
G01 X-19.2524 Y13.1930 
G01 X-19.2524 Y13.7312 
G01 X-19.2409 Y13.7589 
G01 X-19.2197 Y13.7801 
G01 X-19.1920 Y13.7916 
G01 X-18.8400 Y13.7916 
G01 X-18.7056 Y13.9260 
G01 X-18.7056 Y15.4160 
G01 X-18.8466 Y15.5571 
G01 X-18.8648 Y15.5753 
G01 X-18.8678 Y15.5783 
G01 X-18.8793 Y15.6060 
G01 X-18.8793 Y15.6360 
G01 X-18.8678 Y15.6637 
G01 X-18.8466 Y15.6849 
G01 X-18.7056 Y15.8260 
G01 X-18.7056 Y16.1001 
G01 X-18.7056 Y16.1151 
G01 X-18.7056 Y16.1300 
G01 X-18.6998 Y16.1439 
G01 X-18.6941 Y16.1577 
G01 X-18.6843 Y16.1675 
G01 X-18.6729 Y16.1789 
G01 X-18.6605 Y16.1841 
G01 X-18.6452 Y16.1904 
G01 X-18.6314 Y16.1904 
G01 X-18.6152 Y16.1904 
G01 X-18.3255 Y16.1901 
G01 X-18.3118 Y16.1901 
G01 X-18.2979 Y16.1844 
G01 X-18.2841 Y16.1787 
G01 X-18.2742 Y16.1688 
G01 X-18.2629 Y16.1575 
G01 X-18.2577 Y16.1450 
G01 X-18.2514 Y16.1297 
G01 X-18.2514 Y16.1146 
G01 X-18.2514 Y15.8260 
G01 X-18.1170 Y15.6916 
G01 X-16.4270 Y15.6916 
G01 X-16.2926 Y15.8260 
G01 X-16.2926 Y17.3160 
G01 X-16.4270 Y17.4504 
G01 X-16.7790 Y17.4504 
G01 X-16.8067 Y17.4619 
G01 X-16.8279 Y17.4831 
G01 X-16.8394 Y17.5108 
G01 X-16.8394 Y21.7692 
G01 X-17.0928 Y22.0226 
G01 X-20.4620 Y22.0226 
G01 X-20.4897 Y22.0341 
G01 X-20.5109 Y22.0553 
G01 X-20.5224 Y22.0830 
G01 X-20.5224 Y28.9520 
G01 X-20.5109 Y28.9797 
G01 X-20.4897 Y29.0009 
G01 X-20.4620 Y29.0124 
G01 X-20.2568 Y29.0124 
G01 X-20.1224 Y29.1468 
G01 X-20.1224 Y30.5432 
G01 X-20.2568 Y30.6776 
G01 X-21.6532 Y30.6776 
G01 X-21.7876 Y30.5432 
G01 X-21.7876 Y30.3380 
G01 X-21.7991 Y30.3103 
G01 X-21.8203 Y30.2891 
G01 X-21.8480 Y30.2776 
G01 X-26.4920 Y30.2776 
G01 X-26.5197 Y30.2891 
G01 X-26.5409 Y30.3103 
G01 X-26.5524 Y30.3380 
G01 X-26.5524 Y35.2822 
G01 X-26.5409 Y35.3099 
G01 X-26.5197 Y35.3311 
G01 X-26.4920 Y35.3426 
G01 X-26.2400 Y35.3426 
G01 X-26.0989 Y35.4836 
G01 X-26.0807 Y35.5018 
G01 X-26.0777 Y35.5048 
G01 X-26.0500 Y35.5163 
G01 X-26.0200 Y35.5163 
G01 X-25.9923 Y35.5048 
G01 X-25.9711 Y35.4836 
G01 X-25.8300 Y35.3426 
G01 X-24.3400 Y35.3426 
G01 X-24.2056 Y35.4770 
G01 X-24.2056 Y35.8290 
G01 X-24.1941 Y35.8567 
G01 X-24.1729 Y35.8779 
G01 X-24.1452 Y35.8894 
G01 X-23.1388 Y35.8894 
G01 X-23.1111 Y35.8779 
G01 X-23.0899 Y35.8567 
G01 X-22.6146 Y35.3814 
G01 X-21.8354 Y35.3814 
G01 X-21.2844 Y35.9324 
G01 X-21.2844 Y36.7116 
G01 X-21.8354 Y37.2626 
G01 X-22.6146 Y37.2626 
G01 X-23.1111 Y36.7661 
G01 X-23.1388 Y36.7546 
G01 X-24.1452 Y36.7546 
G01 X-24.1729 Y36.7661 
G01 X-24.1941 Y36.7873 
G01 X-24.2056 Y36.8150 
G01 X-24.2056 Y37.1670 
G01 X-24.3400 Y37.3014 
G01 X-25.8300 Y37.3014 
G01 X-25.9923 Y37.1392 
G01 X-26.0200 Y37.1277 
G01 X-26.0500 Y37.1277 
G01 X-26.0777 Y37.1392 
G01 X-26.0989 Y37.1604 
G01 X-26.2400 Y37.3014 
G01 X-26.4920 Y37.3014 
G01 X-26.5197 Y37.3129 
G01 X-26.5409 Y37.3341 
G01 X-26.5524 Y37.3618 
G01 X-26.5524 Y37.8222 
G01 X-26.5409 Y37.8499 
G01 X-26.5197 Y37.8711 
G01 X-26.4920 Y37.8826 
G01 X-26.2400 Y37.8826 
G01 X-26.0989 Y38.0236 
G01 X-26.0807 Y38.0418 
G01 X-26.0777 Y38.0448 
G01 X-26.0500 Y38.0563 
G01 X-26.0200 Y38.0563 
G01 X-25.9923 Y38.0448 
G01 X-25.9711 Y38.0236 
G01 X-25.8300 Y37.8826 
G01 X-24.3400 Y37.8826 
G01 X-24.2056 Y38.0170 
G01 X-24.2056 Y38.3690 
G01 X-24.1941 Y38.3967 
G01 X-24.1729 Y38.4179 
G01 X-24.1452 Y38.4294 
G01 X-23.1388 Y38.4294 
G01 X-23.1111 Y38.4179 
G01 X-23.0899 Y38.3967 
G01 X-22.6146 Y37.9214 
G01 X-21.8354 Y37.9214 
G01 X-21.2844 Y38.4724 
G01 X-21.2844 Y39.2516 
G01 X-21.8354 Y39.8026 
G01 X-22.6146 Y39.8026 
G01 X-23.1111 Y39.3061 
G01 X-23.1388 Y39.2946 
G01 X-24.1452 Y39.2946 
G01 X-24.1729 Y39.3061 
G01 X-24.1941 Y39.3273 
G01 X-24.2056 Y39.3550 
G01 X-24.2056 Y39.7070 
G01 X-24.3400 Y39.8414 
G01 X-25.8300 Y39.8414 
G01 X-25.9923 Y39.6792 
G01 X-26.0200 Y39.6677 
G01 X-26.0500 Y39.6677 
G01 X-26.0777 Y39.6792 
G01 X-26.0989 Y39.7004 
G01 X-26.2400 Y39.8414 
G01 X-26.4920 Y39.8414 
G01 X-26.5197 Y39.8529 
G01 X-26.5409 Y39.8741 
G01 X-26.5524 Y39.9018 
G01 X-26.5524 Y40.3622 
G01 X-26.5409 Y40.3899 
G01 X-26.5197 Y40.4111 
G01 X-26.4920 Y40.4226 
G01 X-26.2400 Y40.4226 
G01 X-26.0989 Y40.5636 
G01 X-26.0777 Y40.5848 
G01 X-26.0500 Y40.5963 
G01 X-26.0200 Y40.5963 
G01 X-25.9923 Y40.5848 
G01 X-25.8300 Y40.4226 
G01 X-24.3400 Y40.4226 
G01 X-24.2056 Y40.5570 
G01 X-24.2056 Y40.9090 
G01 X-24.1941 Y40.9367 
G01 X-24.1729 Y40.9579 
G01 X-24.1452 Y40.9694 
G01 X-23.1388 Y40.9694 
G01 X-23.1111 Y40.9579 
G01 X-23.0899 Y40.9367 
G01 X-22.6146 Y40.4614 
G01 X-21.8354 Y40.4614 
G01 X-21.2844 Y41.0124 
G01 X-21.2844 Y41.7916 
G01 X-21.8354 Y42.3426 
G01 X-22.6146 Y42.3426 
G01 X-23.1111 Y41.8461 
G01 X-23.1388 Y41.8346 
G01 X-24.1452 Y41.8346 
G01 X-24.1729 Y41.8461 
G01 X-24.1941 Y41.8673 
G01 X-24.2056 Y41.8950 
G01 X-24.2056 Y42.2470 
G01 X-24.3400 Y42.3814 
G01 X-25.8300 Y42.3814 
G01 X-25.9923 Y42.2192 
G01 X-26.0200 Y42.2077 
G01 X-26.0500 Y42.2077 
G01 X-26.0777 Y42.2192 
G01 X-26.0989 Y42.2404 
G01 X-26.2400 Y42.3814 
G01 X-26.4920 Y42.3814 
G01 X-26.5197 Y42.3929 
G01 X-26.5409 Y42.4141 
G01 X-26.5524 Y42.4418 
G01 X-26.5524 Y42.9022 
G01 X-26.5409 Y42.9299 
G01 X-26.5197 Y42.9511 
G01 X-26.4920 Y42.9626 
G01 X-26.2400 Y42.9626 
G01 X-26.0989 Y43.1036 
G01 X-26.0807 Y43.1218 
G01 X-26.0777 Y43.1248 
G01 X-26.0500 Y43.1363 
G01 X-26.0200 Y43.1363 
G01 X-25.9923 Y43.1248 
G01 X-25.9711 Y43.1036 
G01 X-25.8300 Y42.9626 
G01 X-24.3400 Y42.9626 
G01 X-24.2056 Y43.0970 
G01 X-24.2056 Y43.4490 
G01 X-24.1941 Y43.4767 
G01 X-24.1729 Y43.4979 
G01 X-24.1452 Y43.5094 
G01 X-23.1388 Y43.5094 
G01 X-23.1111 Y43.4979 
G01 X-23.0899 Y43.4767 
G01 X-22.6146 Y43.0014 
G01 X-21.8354 Y43.0014 
G01 X-21.2844 Y43.5524 
G01 X-21.2844 Y44.3316 
G01 X-21.8354 Y44.8826 
G01 X-22.6146 Y44.8826 
G01 X-23.0899 Y44.4073 
G01 X-23.1030 Y44.3942 
G01 X-23.1111 Y44.3861 
G01 X-23.1388 Y44.3746 
G01 X-24.1452 Y44.3746 
G01 X-24.1729 Y44.3861 
G01 X-24.1941 Y44.4073 
G01 X-24.2056 Y44.4350 
G01 X-24.2056 Y44.7870 
G01 X-24.3400 Y44.9214 
G01 X-25.8300 Y44.9214 
G01 X-25.9923 Y44.7592 
G01 X-26.0200 Y44.7477 
G01 X-26.0500 Y44.7477 
G01 X-26.0777 Y44.7592 
G01 X-26.0989 Y44.7804 
G01 X-26.2400 Y44.9214 
G01 X-26.4920 Y44.9214 
G01 X-26.5197 Y44.9329 
G01 X-26.5409 Y44.9541 
G01 X-26.5524 Y44.9818 
G01 X-26.5524 Y45.4422 
G01 X-26.5409 Y45.4699 
G01 X-26.5197 Y45.4911 
G01 X-26.4920 Y45.5026 
G01 X-26.2400 Y45.5026 
G01 X-26.0989 Y45.6436 
G01 X-26.0807 Y45.6618 
G01 X-26.0777 Y45.6648 
G01 X-26.0500 Y45.6763 
G01 X-26.0200 Y45.6763 
G01 X-25.9923 Y45.6648 
G01 X-25.9711 Y45.6436 
G01 X-25.8300 Y45.5026 
G01 X-24.3400 Y45.5026 
G01 X-24.2056 Y45.6370 
G01 X-24.2056 Y45.9890 
G01 X-24.1941 Y46.0167 
G01 X-24.1729 Y46.0379 
G01 X-24.1452 Y46.0494 
G01 X-23.1388 Y46.0494 
G01 X-23.1111 Y46.0379 
G01 X-23.0899 Y46.0167 
G01 X-22.6146 Y45.5414 
G01 X-21.8354 Y45.5414 
G01 X-21.2844 Y46.0924 
G01 X-21.2844 Y46.8716 
G01 X-21.8354 Y47.4226 
G01 X-22.6146 Y47.4226 
G01 X-23.0899 Y46.9473 
G01 X-23.1030 Y46.9342 
G01 X-23.1111 Y46.9261 
G01 X-23.1388 Y46.9146 
G01 X-24.1452 Y46.9146 
G01 X-24.1729 Y46.9261 
G01 X-24.1941 Y46.9473 
G01 X-24.2056 Y46.9750 
G01 X-24.2056 Y47.3270 
G01 X-24.3400 Y47.4614 
G01 X-25.8300 Y47.4614 
G01 X-25.9923 Y47.2992 
G01 X-26.0200 Y47.2877 
G01 X-26.0500 Y47.2877 
G01 X-26.0777 Y47.2992 
G01 X-26.0989 Y47.3204 
G01 X-26.2400 Y47.4614 
G01 X-26.4920 Y47.4614 
G01 X-26.5197 Y47.4729 
G01 X-26.5409 Y47.4941 
G01 X-26.5524 Y47.5218 
G01 X-26.5524 Y47.9822 
G01 X-26.5409 Y48.0099 
G01 X-26.5197 Y48.0311 
G01 X-26.4920 Y48.0426 
G01 X-26.2400 Y48.0426 
G01 X-26.0989 Y48.1836 
G01 X-26.0807 Y48.2018 
G01 X-26.0777 Y48.2048 
G01 X-26.0500 Y48.2163 
G01 X-26.0200 Y48.2163 
G01 X-25.9923 Y48.2048 
G01 X-25.9711 Y48.1836 
G01 X-25.8300 Y48.0426 
G01 X-24.3400 Y48.0426 
G01 X-24.2056 Y48.1770 
G01 X-24.2056 Y48.5290 
G01 X-24.1941 Y48.5567 
G01 X-24.1729 Y48.5779 
G01 X-24.1452 Y48.5894 
G01 X-23.1388 Y48.5894 
G01 X-23.1111 Y48.5779 
G01 X-23.0899 Y48.5567 
G01 X-22.6146 Y48.0814 
G01 X-21.8354 Y48.0814 
G01 X-21.2844 Y48.6324 
G01 X-21.2844 Y49.4116 
G01 X-21.8354 Y49.9626 
G01 X-22.6146 Y49.9626 
G01 X-23.0899 Y49.4873 
G01 X-23.1030 Y49.4742 
G01 X-23.1111 Y49.4661 
G01 X-23.1388 Y49.4546 
G01 X-24.1452 Y49.4546 
G01 X-24.1729 Y49.4661 
G01 X-24.1941 Y49.4873 
G01 X-24.2056 Y49.5150 
G01 X-24.2056 Y49.8670 
G01 X-24.3400 Y50.0014 
G01 X-25.8300 Y50.0014 
G01 X-25.9923 Y49.8392 
G01 X-26.0200 Y49.8277 
G01 X-26.0500 Y49.8277 
G01 X-26.0777 Y49.8392 
G01 X-26.0989 Y49.8604 
G01 X-26.2400 Y50.0014 
G01 X-26.4920 Y50.0014 
G01 X-26.5197 Y50.0129 
G01 X-26.5409 Y50.0341 
G01 X-26.5524 Y50.0618 
G01 X-26.5524 Y50.5222 
G01 X-26.5409 Y50.5499 
G01 X-26.5197 Y50.5711 
G01 X-26.4920 Y50.5826 
G01 X-26.2400 Y50.5826 
G01 X-26.0989 Y50.7236 
G01 X-26.0807 Y50.7418 
G01 X-26.0777 Y50.7448 
G01 X-26.0500 Y50.7563 
G01 X-26.0200 Y50.7563 
G01 X-25.9923 Y50.7448 
G01 X-25.9711 Y50.7236 
G01 X-25.8300 Y50.5826 
G01 X-24.3400 Y50.5826 
G01 X-24.2056 Y50.7170 
G01 X-24.2056 Y51.0690 
G01 X-24.1941 Y51.0967 
G01 X-24.1729 Y51.1179 
G01 X-24.1452 Y51.1294 
G01 X-23.1388 Y51.1294 
G01 X-23.1111 Y51.1179 
G01 X-23.0899 Y51.0967 
G01 X-22.6146 Y50.6214 
G01 X-21.8354 Y50.6214 
G01 X-21.2844 Y51.1724 
G01 X-21.2844 Y51.9516 
G01 X-21.8354 Y52.5026 
G01 X-22.6146 Y52.5026 
G01 X-23.0899 Y52.0273 
G01 X-23.1030 Y52.0142 
G01 X-23.1111 Y52.0061 
G01 X-23.1388 Y51.9946 
G01 X-24.1452 Y51.9946 
G01 X-24.1729 Y52.0061 
G01 X-24.1941 Y52.0273 
G01 X-24.2056 Y52.0550 
G01 X-24.2056 Y52.4070 
G01 X-24.3400 Y52.5414 
G01 X-25.8300 Y52.5414 
G01 X-25.9923 Y52.3792 
G01 X-26.0200 Y52.3677 
G01 X-26.0500 Y52.3677 
G01 X-26.0777 Y52.3792 
G01 X-26.0989 Y52.4004 
G01 X-26.2400 Y52.5414 
G01 X-26.4920 Y52.5414 
G01 X-26.5197 Y52.5529 
G01 X-26.5409 Y52.5741 
G01 X-26.5524 Y52.6018 
G01 X-26.5524 Y53.0622 
G01 X-26.5409 Y53.0899 
G01 X-26.5197 Y53.1111 
G01 X-26.4920 Y53.1226 
G01 X-26.2400 Y53.1226 
G01 X-26.0989 Y53.2636 
G01 X-26.0807 Y53.2818 
G01 X-26.0777 Y53.2848 
G01 X-26.0500 Y53.2963 
G01 X-26.0200 Y53.2963 
G01 X-25.9923 Y53.2848 
G01 X-25.9711 Y53.2636 
G01 X-25.8300 Y53.1226 
G01 X-24.3400 Y53.1226 
G01 X-24.2056 Y53.2570 
G01 X-24.2056 Y53.6090 
G01 X-24.1941 Y53.6367 
G01 X-24.1729 Y53.6579 
G01 X-24.1452 Y53.6694 
G01 X-23.1388 Y53.6694 
G01 X-23.1111 Y53.6579 
G01 X-23.0899 Y53.6367 
G01 X-22.6146 Y53.1614 
G01 X-21.8354 Y53.1614 
G01 X-21.2844 Y53.7124 
G01 X-21.2844 Y54.4916 
G01 X-21.8354 Y55.0426 
G01 X-22.6146 Y55.0426 
G01 X-23.1111 Y54.5461 
G01 X-23.1388 Y54.5346 
G01 X-24.1452 Y54.5346 
G01 X-24.1729 Y54.5461 
G01 X-24.1941 Y54.5673 
G01 X-24.2056 Y54.5950 
G01 X-24.2056 Y54.9470 
G01 X-24.3400 Y55.0814 
G01 X-25.8300 Y55.0814 
G01 X-25.9923 Y54.9192 
G01 X-26.0200 Y54.9077 
G01 X-26.0500 Y54.9077 
G01 X-26.0777 Y54.9192 
G01 X-26.0989 Y54.9404 
G01 X-26.2400 Y55.0814 
G01 X-27.7300 Y55.0814 
G01 X-27.8644 Y54.9470 
G01 X-27.8644 Y54.5950 
G01 X-27.8759 Y54.5673 
G01 X-27.8971 Y54.5461 
G01 X-27.9248 Y54.5346 
G01 X-30.6830 Y54.5346 
G01 X-30.7107 Y54.5461 
G01 X-30.7319 Y54.5673 
G01 X-30.7434 Y54.5950 
G01 X-30.7434 Y55.6952 
G01 X-30.7319 Y55.7229 
G01 X-30.7107 Y55.7441 
G01 X-30.6830 Y55.7556 
G01 X-29.6310 Y55.7556 
G01 X-29.4966 Y55.8900 
G01 X-29.4966 Y56.1490 
G01 X-29.4851 Y56.1767 
G01 X-29.4639 Y56.1979 
G01 X-29.4362 Y56.2094 
G01 X-27.9248 Y56.2094 
G01 X-27.8971 Y56.1979 
G01 X-27.8759 Y56.1767 
G01 X-27.8644 Y56.1490 
G01 X-27.8644 Y55.7970 
G01 X-27.7300 Y55.6626 
G01 X-26.2400 Y55.6626 
G01 X-26.0777 Y55.8248 
G01 X-26.0500 Y55.8363 
G01 X-26.0200 Y55.8363 
G01 X-25.9923 Y55.8248 
G01 X-25.9711 Y55.8036 
G01 X-25.8300 Y55.6626 
G01 X-24.3400 Y55.6626 
G01 X-24.2056 Y55.7970 
G01 X-24.2056 Y56.1490 
G01 X-24.1941 Y56.1767 
G01 X-24.1729 Y56.1979 
G01 X-24.1452 Y56.2094 
G01 X-23.1388 Y56.2094 
G01 X-23.1111 Y56.1979 
G01 X-23.0899 Y56.1767 
G01 X-22.6146 Y55.7014 
G01 X-21.8354 Y55.7014 
G01 X-21.2844 Y56.2524 
G01 X-21.2844 Y57.0316 
G01 X-21.8354 Y57.5826 
G01 X-22.6146 Y57.5826 
G01 X-23.1111 Y57.0861 
G01 X-23.1388 Y57.0746 
G01 X-23.1688 Y57.0746 
G01 X-24.1452 Y57.0746 
G01 X-24.1729 Y57.0861 
G01 X-24.1941 Y57.1073 
G01 X-24.2056 Y57.1350 
G01 X-24.2056 Y57.4870 
G01 X-24.3400 Y57.6214 
G01 X-25.8300 Y57.6214 
G01 X-25.9711 Y57.4804 
G01 X-25.9893 Y57.4622 
G01 X-25.9923 Y57.4592 
G01 X-26.0200 Y57.4477 
G01 X-26.0500 Y57.4477 
G01 X-26.0777 Y57.4592 
G01 X-26.0989 Y57.4804 
G01 X-26.2400 Y57.6214 
G01 X-27.7300 Y57.6214 
G01 X-27.8644 Y57.4870 
G01 X-27.8644 Y57.1350 
G01 X-27.8759 Y57.1073 
G01 X-27.8971 Y57.0861 
G01 X-27.9248 Y57.0746 
G01 X-29.4362 Y57.0746 
G01 X-29.4639 Y57.0861 
G01 X-29.4851 Y57.1073 
G01 X-29.4966 Y57.1350 
G01 X-29.4966 Y57.4800 
G01 X-29.6310 Y57.6144 
G01 X-30.6830 Y57.6144 
G01 X-30.7107 Y57.6259 
G01 X-30.7319 Y57.6471 
G01 X-30.7434 Y57.6748 
G01 X-30.7434 Y57.8952 
G01 X-30.7319 Y57.9229 
G01 X-30.7107 Y57.9441 
G01 X-30.6830 Y57.9556 
G01 X-30.5810 Y57.9556 
G01 X-30.4466 Y58.0900 
G01 X-30.4466 Y59.6800 
G01 X-30.5810 Y59.8144 
G01 X-31.7710 Y59.8144 
G01 X-31.9054 Y59.6800 
G01 X-31.9054 Y58.0900 
G01 X-31.7710 Y57.9556 
G01 X-31.6690 Y57.9556 
G01 X-31.6413 Y57.9441 
G01 X-31.6201 Y57.9229 
G01 X-31.6086 Y57.8952 
G01 X-31.6086 Y53.9228 
G01 X-31.3552 Y53.6694 
G01 X-27.9248 Y53.6694 
G01 X-27.8971 Y53.6579 
G01 X-27.8759 Y53.6367 
G01 X-27.8644 Y53.6090 
G01 X-27.8644 Y53.2570 
G01 X-27.7300 Y53.1226 
G01 X-27.4780 Y53.1226 
G01 X-27.4503 Y53.1111 
G01 X-27.4291 Y53.0899 
G01 X-27.4176 Y53.0622 
G01 X-27.4176 Y52.6018 
G01 X-27.4291 Y52.5741 
G01 X-27.4503 Y52.5529 
G01 X-27.4780 Y52.5414 
G01 X-27.7300 Y52.5414 
G01 X-27.8644 Y52.4070 
G01 X-27.8644 Y50.7170 
G01 X-27.7300 Y50.5826 
G01 X-27.4780 Y50.5826 
G01 X-27.4503 Y50.5711 
G01 X-27.4291 Y50.5499 
G01 X-27.4176 Y50.5222 
G01 X-27.4176 Y50.0618 
G01 X-27.4291 Y50.0341 
G01 X-27.4503 Y50.0129 
G01 X-27.4780 Y50.0014 
G01 X-27.7300 Y50.0014 
G01 X-27.8644 Y49.8670 
G01 X-27.8644 Y48.1770 
G01 X-27.7300 Y48.0426 
G01 X-27.4780 Y48.0426 
G01 X-27.4503 Y48.0311 
G01 X-27.4291 Y48.0099 
G01 X-27.4176 Y47.9822 
G01 X-27.4176 Y47.5218 
G01 X-27.4291 Y47.4941 
G01 X-27.4503 Y47.4729 
G01 X-27.4780 Y47.4614 
G01 X-27.7300 Y47.4614 
G01 X-27.8644 Y47.3270 
G01 X-27.8644 Y45.6370 
G01 X-27.7300 Y45.5026 
G01 X-27.4780 Y45.5026 
G01 X-27.4503 Y45.4911 
G01 X-27.4291 Y45.4699 
G01 X-27.4176 Y45.4422 
G01 X-27.4176 Y44.9818 
G01 X-27.4291 Y44.9541 
G01 X-27.4503 Y44.9329 
G01 X-27.4780 Y44.9214 
G01 X-27.7300 Y44.9214 
G01 X-27.8644 Y44.7870 
G01 X-27.8644 Y43.0970 
G01 X-27.7300 Y42.9626 
G01 X-27.4780 Y42.9626 
G01 X-27.4503 Y42.9511 
G01 X-27.4291 Y42.9299 
G01 X-27.4176 Y42.9022 
G01 X-27.4176 Y42.4418 
G01 X-27.4291 Y42.4141 
G01 X-27.4503 Y42.3929 
G01 X-27.4780 Y42.3814 
G01 X-27.7300 Y42.3814 
G01 X-27.8644 Y42.2470 
G01 X-27.8644 Y40.5570 
G01 X-27.7300 Y40.4226 
G01 X-27.4780 Y40.4226 
G01 X-27.4503 Y40.4111 
G01 X-27.4291 Y40.3899 
G01 X-27.4176 Y40.3622 
G01 X-27.4176 Y39.9018 
G01 X-27.4291 Y39.8741 
G01 X-27.4503 Y39.8529 
G01 X-27.4780 Y39.8414 
G01 X-27.7300 Y39.8414 
G01 X-27.8644 Y39.7070 
G01 X-27.8644 Y38.0170 
G01 X-27.7300 Y37.8826 
G01 X-27.4780 Y37.8826 
G01 X-27.4503 Y37.8711 
G01 X-27.4291 Y37.8499 
G01 X-27.4176 Y37.8222 
G01 X-27.4176 Y37.3618 
G01 X-27.4291 Y37.3341 
G01 X-27.4503 Y37.3129 
G01 X-27.4780 Y37.3014 
G01 X-27.7300 Y37.3014 
G01 X-27.8644 Y37.1670 
G01 X-27.8644 Y36.8150 
G01 X-27.8759 Y36.7873 
G01 X-27.8971 Y36.7661 
G01 X-27.9248 Y36.7546 
G01 X-28.0822 Y36.7546 
G01 X-28.1099 Y36.7661 
G01 X-28.1311 Y36.7873 
G01 X-28.1426 Y36.8150 
G01 X-28.1426 Y37.1670 
G01 X-28.2770 Y37.3014 
G01 X-29.7670 Y37.3014 
G01 X-29.9014 Y37.1670 
G01 X-29.9014 Y35.4770 
G01 X-29.7670 Y35.3426 
G01 X-28.2770 Y35.3426 
G01 X-28.1426 Y35.4770 
G01 X-28.1426 Y35.8290 
G01 X-28.1311 Y35.8567 
G01 X-28.1099 Y35.8779 
G01 X-28.0822 Y35.8894 
G01 X-27.9248 Y35.8894 
G01 X-27.8971 Y35.8779 
G01 X-27.8759 Y35.8567 
G01 X-27.8644 Y35.8290 
G01 X-27.8644 Y35.4770 
G01 X-27.7300 Y35.3426 
G01 X-27.4780 Y35.3426 
G01 X-27.4503 Y35.3311 
G01 X-27.4291 Y35.3099 
G01 X-27.4176 Y35.2822 
G01 X-27.4176 Y30.3380 
G01 X-27.4291 Y30.3103 
G01 X-27.4503 Y30.2891 
G01 X-27.4780 Y30.2776 
G01 X-27.8663 Y30.2776 
G01 X-27.8941 Y30.2891 
G01 X-27.9153 Y30.3103 
G01 X-27.9168 Y30.3139 
G01 X-27.9875 Y30.4848 
G01 X-28.3052 Y30.8025 
G01 X-28.7203 Y30.9744 
G01 X-30.9697 Y30.9744 
G01 X-31.3848 Y30.8025 
G01 X-31.7025 Y30.4848 
G01 X-31.8744 Y30.0697 
G01 X-31.8744 Y29.6203 
G01 X-31.7025 Y29.2052 
G01 X-31.3848 Y28.8875 
G01 X-30.9697 Y28.7156 
G01 X-28.7203 Y28.7156 
G01 X-28.3052 Y28.8875 
G01 X-27.9875 Y29.2052 
G01 X-27.9153 Y29.3797 
G01 X-27.8941 Y29.4009 
G01 X-27.8663 Y29.4124 
G01 X-21.8480 Y29.4124 
G01 X-21.8203 Y29.4009 
G01 X-21.7991 Y29.3797 
G01 X-21.7876 Y29.3520 
G01 X-21.7876 Y29.1468 
G01 X-21.6532 Y29.0124 
G01 X-21.4480 Y29.0124 
G01 X-21.4203 Y29.0009 
G01 X-21.3991 Y28.9797 
G01 X-21.3876 Y28.9520 
G01 X-21.3876 Y21.4108 
G01 X-21.1342 Y21.1574 
G01 X-17.7650 Y21.1574 
G01 X-17.7373 Y21.1459 
G01 X-17.7161 Y21.1247 
G01 X-17.7046 Y21.0970 
G01 X-17.7046 Y17.5108 
G01 X-17.7161 Y17.4831 
G01 X-17.7373 Y17.4619 
G01 X-17.7650 Y17.4504 
G01 X-18.1170 Y17.4504 
G01 X-18.2514 Y17.3160 
G01 X-18.2514 Y17.0441 
G01 X-18.2514 Y17.0292 
G01 X-18.2514 Y17.0142 
G01 X-18.2572 Y17.0003 
G01 X-18.2629 Y16.9865 
G01 X-18.2727 Y16.9767 
G01 X-18.2841 Y16.9653 
G01 X-18.2965 Y16.9601 
G01 X-18.3118 Y16.9538 
G01 X-18.3256 Y16.9538 
G01 X-18.3418 Y16.9538 
G01 X-18.6315 Y16.9541 
G01 X-18.6452 Y16.9541 
G01 X-18.6591 Y16.9598 
G01 X-18.6729 Y16.9655 
G01 X-18.6828 Y16.9754 
G01 X-18.6941 Y16.9867 
G01 X-18.6993 Y16.9992 
G01 X-18.7056 Y17.0145 
G01 X-18.7056 Y17.0296 
G01 X-18.7056 Y17.3160 
G01 X-18.8400 Y17.4504 
G01 X-20.5300 Y17.4504 
G01 X-20.6644 Y17.3160 
G01 X-20.6644 Y17.0463 
G01 X-20.6644 Y17.0314 
G01 X-20.6644 Y17.0164 
G01 X-20.6702 Y17.0025 
G01 X-20.6759 Y16.9887 
G01 X-20.6857 Y16.9789 
G01 X-20.6971 Y16.9675 
G01 X-20.7095 Y16.9623 
G01 X-20.7248 Y16.9560 
G01 X-20.7385 Y16.9560 
G01 X-20.7548 Y16.9560 
G01 X-22.5449 Y16.9576 
G01 X-22.5584 Y16.9576 
G01 X-22.7193 Y16.9578 
G01 X-22.7331 Y16.9578 
G01 X-22.7493 Y16.9578 
G01 X-22.8910 Y16.9580 
G01 X-22.9930 Y16.8560 
G01 X-23.0032 Y16.8458 
G01 X-23.0142 Y16.8348 
G01 X-23.1148 Y16.7344 
G01 X-23.1148 Y16.5896 
G01 X-23.1148 Y16.5758 
G01 X-23.1148 Y16.5597 
G01 X-23.1150 Y16.4022 
G01 X-23.1148 Y15.2498 
G01 X-23.1263 Y15.2221 
G01 X-23.1475 Y15.2009 
G01 X-23.1752 Y15.1894 
G01 X-23.2908 Y15.1894 
G01 X-23.3185 Y15.2009 
G01 X-23.3397 Y15.2221 
G01 X-23.3512 Y15.2498 
G01 X-23.3512 Y15.3981 
G01 X-23.5748 Y15.6218 
G01 X-24.8307 Y15.6218 
G01 X-24.8584 Y15.6333 
G01 X-24.8796 Y15.6545 
G01 X-24.9405 Y15.8016 
G01 X-25.2194 Y16.0805 
G01 X-25.5838 Y16.2314 
G01 X-27.5022 Y16.2314 
G01 X-27.8666 Y16.0805 
G01 X-28.1455 Y15.8016 
G01 X-28.2064 Y15.6545 
G01 X-28.2276 Y15.6333 
G01 X-28.2553 Y15.6218 
G01 X-28.6662 Y15.6218 
G01 X-28.6939 Y15.6333 
G01 X-28.7151 Y15.6545 
G01 X-28.7266 Y15.6822 
G01 X-28.7266 Y15.9854 
G01 X-28.9726 Y16.2314 
G01 X-30.4627 Y16.2314 
G01 X-30.4776 Y16.2314 
G01 X-30.4921 Y16.2314 
G01 X-30.5837 Y16.2333 
G01 X-30.6480 Y16.1689 
G01 X-30.6586 Y16.1583 
G01 X-30.6687 Y16.1482 
G01 X-30.7348 Y16.0848 
G01 X-30.7348 Y15.9939 
G01 X-30.7348 Y15.9790 
G01 X-30.7348 Y15.9646 
G01 X-30.7357 Y15.9303 
G01 X-30.1308 Y15.3255 
G01 X-30.1024 Y15.2971 
G01 X-30.0871 Y15.2600 
G01 X-30.0871 Y15.2199 
G01 X-30.1024 Y15.1829 
G01 X-30.7357 Y14.5497 
G01 X-30.7351 Y14.5161 
G01 X-30.7348 Y14.5010 
G01 X-30.7346 Y14.4868 
G01 X-30.7348 Y14.3952 
G01 X-30.6694 Y14.3321 
G01 X-30.6587 Y14.3217 
G01 X-30.6483 Y14.3117 
G01 X-30.5837 Y14.2467 
G01 X-30.4927 Y14.2483 
G01 X-30.4776 Y14.2486 
G01 X-30.4634 Y14.2488 
G01 X-28.9726 Y14.2486 
G01 X-28.7266 Y14.4946 
G01 X-28.7266 Y14.7978 
G01 X-28.7151 Y14.8255 
G01 X-28.6939 Y14.8467 
G01 X-28.6662 Y14.8582 
G01 X-28.2553 Y14.8582 
G01 X-28.2276 Y14.8467 
G01 X-28.2064 Y14.8255 
G01 X-28.1455 Y14.6784 
G01 X-27.8666 Y14.3995 
G01 X-27.5022 Y14.2486 
G01 X-25.5838 Y14.2486 
G01 X-25.2194 Y14.3995 
G01 X-24.9405 Y14.6784 
G01 X-24.8796 Y14.8255 
G01 X-24.8584 Y14.8467 
G01 X-24.8307 Y14.8582 
G01 X-24.1752 Y14.8582 
G01 X-24.1475 Y14.8467 
G01 X-24.1263 Y14.8255 
G01 X-24.1148 Y14.7978 
G01 X-24.1148 Y14.2890 
G01 X-24.1124 Y14.2833 
G01 X-24.1124 Y14.2683 
G01 X-24.1124 Y14.2533 
G01 X-24.1124 Y13.8650 
G01 X-23.9780 Y13.7306 
G01 X-23.6752 Y13.7306 
G01 X-23.6475 Y13.7191 
G01 X-23.6263 Y13.6979 
G01 X-23.6148 Y13.6702 
G01 X-23.6148 Y13.1422 
G01 X-23.6263 Y13.1145 
G01 X-23.6475 Y13.0933 
G01 X-23.6752 Y13.0818 
G01 X-24.8307 Y13.0818 
G01 X-24.8584 Y13.0933 
G01 X-24.8796 Y13.1145 
G01 X-24.9405 Y13.2616 
G01 X-25.2194 Y13.5405 
G01 X-25.5838 Y13.6914 
G01 X-27.5022 Y13.6914 
G01 X-27.8666 Y13.5405 
G01 X-28.1455 Y13.2616 
G01 X-28.2064 Y13.1145 
G01 X-28.2276 Y13.0933 
G01 X-28.2553 Y13.0818 
G01 X-28.6662 Y13.0818 
G01 X-28.6939 Y13.0933 
G01 X-28.7151 Y13.1145 
G01 X-28.7266 Y13.1422 
G01 X-28.7266 Y13.4454 
G01 X-28.9726 Y13.6914 
G01 X-30.4627 Y13.6914 
G01 X-30.4776 Y13.6914 
G01 X-30.4921 Y13.6914 
G01 X-30.4968 Y13.6918 
G01 X-30.5837 Y13.6933 
G01 X-30.6383 Y13.6386 
G01 X-30.6481 Y13.6289 
G01 X-30.6587 Y13.6183 
G01 X-30.6688 Y13.6082 
G01 X-30.7348 Y13.5448 
G01 X-30.7348 Y13.4538 
G01 X-30.7348 Y13.4390 
G01 X-30.7348 Y13.4245 
G01 X-30.7357 Y13.3903 
G01 X-30.1308 Y12.7855 
G01 X-30.1024 Y12.7571 
G01 X-30.0871 Y12.7201 
G01 X-30.0871 Y12.6799 
G01 X-30.1024 Y12.6429 
G01 X-30.7357 Y12.0097 
G01 X-30.7351 Y11.9761 
G01 X-30.7348 Y11.9610 
G01 X-30.7346 Y11.9468 
G01 X-30.7348 Y11.8552 
G01 X-30.6694 Y11.7921 
G01 X-30.6595 Y11.7826 
G01 X-30.6483 Y11.7717 
G01 X-30.6383 Y11.7614 
G01 X-30.5837 Y11.7067 
G01 X-30.4927 Y11.7083 
G01 X-30.4776 Y11.7086 
G01 X-30.4634 Y11.7088 
G01 X-28.9726 Y11.7086 
G01 X-28.7266 Y11.9546 
G01 X-28.7266 Y12.2578 
G01 X-28.7151 Y12.2855 
G01 X-28.6939 Y12.3067 
G01 X-28.6662 Y12.3182 
G01 X-28.2553 Y12.3182 
G01 X-28.2276 Y12.3067 
G01 X-28.2064 Y12.2855 
G01 X-28.1455 Y12.1384 
G01 X-27.8666 Y11.8595 
G01 X-27.5022 Y11.7086 
G01 X-25.5838 Y11.7086 
G01 X-25.2194 Y11.8595 
G01 X-24.9405 Y12.1384 
G01 X-24.8796 Y12.2855 
G01 X-24.8584 Y12.3067 
G01 X-24.8307 Y12.3182 
G01 X-23.1752 Y12.3182 
G01 X-23.1475 Y12.3067 
G01 X-23.1263 Y12.2855 
G01 X-23.1148 Y12.2578 
G01 X-23.1148 Y9.8748 
G01 X-22.8911 Y9.6512 
G01 X-22.8448 Y9.6512 
G01 X-22.8171 Y9.6397 
G01 X-22.7959 Y9.6185 
G01 X-22.7844 Y9.5908 
G01 X-22.7844 Y9.1880 
G01 X-22.6500 Y9.0536 
G01 X-21.1600 Y9.0536 
G01 X-20.9977 Y9.2158 
G01 X-20.9700 Y9.2273 
G01 X-20.9400 Y9.2273 
G01 X-20.9123 Y9.2158 
G01 X-20.8911 Y9.1946 
G01 X-20.7500 Y9.0536 
G01 X-19.2600 Y9.0536 
G01 X-19.1256 Y9.1880 
G01 X-19.1256 Y10.8780 
G01 X-19.2600 Y11.0124 
G01 X-19.4460 Y11.0124 
G01 X-19.4737 Y11.0239 
G01 X-19.4949 Y11.0451 
G01 X-19.5064 Y11.0728 
G01 X-19.5064 Y11.3180 
G01 X-19.4949 Y11.3457 
G01 X-19.4737 Y11.3669 
G01 X-19.4460 Y11.3784 
G01 X-13.6638 Y11.3784 
G01 X-12.5751 Y12.4671 
G01 X-12.5474 Y12.4786 
G01 X-11.7847 Y12.4786 
G00 Z2.5400 
G00 X-11.8484 Y12.6326 
G01 Z-0.0800 F254.00 
G01 X-12.5355 Y12.6326 F254.00 
G01 X-12.5815 Y12.6785 
G01 X-13.6719 Y11.5881 
G01 X-13.7355 Y11.5514 
G01 X-13.8063 Y11.5324 
G01 X-19.6604 Y11.5324 
G01 X-19.6604 Y10.8584 
G01 X-19.3400 Y10.8584 
G01 X-19.3123 Y10.8469 
G01 X-19.2911 Y10.8257 
G01 X-19.2796 Y10.7980 
G01 X-19.2796 Y9.2680 
G01 X-19.2911 Y9.2403 
G01 X-19.3123 Y9.2191 
G01 X-19.3400 Y9.2076 
G01 X-20.6700 Y9.2076 
G01 X-20.6977 Y9.2191 
G01 X-20.7189 Y9.2403 
G01 X-20.7304 Y9.2680 
G01 X-20.7304 Y10.7980 
G01 X-20.7189 Y10.8257 
G01 X-20.6977 Y10.8469 
G01 X-20.6700 Y10.8584 
G01 X-20.2176 Y10.8584 
G01 X-20.2176 Y11.5832 
G01 X-22.2783 Y11.5832 
G01 X-22.3620 Y11.6179 
G01 X-22.4261 Y11.6820 
G01 X-22.4608 Y11.7657 
G01 X-22.4608 Y14.5053 
G01 X-22.4584 Y14.5111 
G01 X-22.4584 Y14.9750 
G01 X-22.4469 Y15.0027 
G01 X-22.4257 Y15.0239 
G01 X-22.3980 Y15.0354 
G01 X-22.0680 Y15.0354 
G01 X-22.0403 Y15.0239 
G01 X-22.0191 Y15.0027 
G01 X-22.0076 Y14.9750 
G01 X-22.0076 Y14.5111 
G01 X-22.0052 Y14.5053 
G01 X-22.0052 Y12.0388 
G01 X-20.1016 Y12.0388 
G01 X-20.0465 Y12.0706 
G01 X-19.9757 Y12.0896 
G01 X-13.9584 Y12.0896 
G01 X-12.9755 Y13.0725 
G01 X-13.0214 Y13.1184 
G01 X-13.0214 Y13.8055 
G01 X-12.5355 Y14.2914 
G01 X-11.8484 Y14.2914 
G01 X-11.3626 Y13.8055 
G01 X-11.3626 Y13.1184 
G01 X-11.8484 Y12.6326 
G00 Z2.5400 
G00 X-10.6354 Y13.0547 
G01 Z-0.0800 F254.00 
G01 X-10.0593 Y12.4786 F254.00 
G01 X-9.2447 Y12.4786 
G01 X-8.6686 Y13.0547 
G01 X-8.6686 Y13.8693 
G01 X-9.2447 Y14.4454 
G01 X-10.0593 Y14.4454 
G01 X-10.6354 Y13.8693 
G01 X-10.6354 Y13.0547 
G00 Z2.5400 
G00 X-10.4814 Y13.1184 
G01 Z-0.0800 F254.00 
G01 X-10.4814 Y13.8055 F254.00 
G01 X-9.9955 Y14.2914 
G01 X-9.3085 Y14.2914 
G01 X-8.8226 Y13.8055 
G01 X-8.8226 Y13.1184 
G01 X-9.3085 Y12.6326 
G01 X-9.9955 Y12.6326 
G01 X-10.4814 Y13.1184 
G00 Z2.5400 
G00 X-11.3626 Y15.6585 
G01 Z-0.0800 F254.00 
G01 X-11.8484 Y15.1726 F254.00 
G01 X-12.5355 Y15.1726 
G01 X-12.5815 Y15.2185 
G01 X-15.3229 Y12.4771 
G01 X-15.3865 Y12.4404 
G01 X-15.4573 Y12.4214 
G01 X-19.7217 Y12.4214 
G01 X-19.7925 Y12.4404 
G01 X-19.8561 Y12.4771 
G01 X-19.9079 Y12.5289 
G01 X-19.9446 Y12.5925 
G01 X-19.9636 Y12.6633 
G01 X-19.9636 Y13.9456 
G01 X-20.4500 Y13.9456 
G01 X-20.4777 Y13.9571 
G01 X-20.4989 Y13.9783 
G01 X-20.5104 Y14.0060 
G01 X-20.5104 Y14.4432 
G01 X-21.5052 Y14.4432 
G01 X-21.5052 Y14.4147 
G01 X-21.5076 Y14.4089 
G01 X-21.5076 Y13.9450 
G01 X-21.5191 Y13.9173 
G01 X-21.5403 Y13.8961 
G01 X-21.5680 Y13.8846 
G01 X-21.8980 Y13.8846 
G01 X-21.9257 Y13.8961 
G01 X-21.9469 Y13.9173 
G01 X-21.9584 Y13.9450 
G01 X-21.9584 Y14.4089 
G01 X-21.9608 Y14.4147 
G01 X-21.9608 Y14.7163 
G01 X-21.9584 Y14.7221 
G01 X-21.9584 Y14.9750 
G01 X-21.9469 Y15.0027 
G01 X-21.9257 Y15.0239 
G01 X-21.8980 Y15.0354 
G01 X-21.5680 Y15.0354 
G01 X-21.5403 Y15.0239 
G01 X-21.5191 Y15.0027 
G01 X-21.5076 Y14.9750 
G01 X-21.5076 Y14.8988 
G01 X-20.5104 Y14.8988 
G01 X-20.5104 Y15.3360 
G01 X-20.4989 Y15.3637 
G01 X-20.4777 Y15.3849 
G01 X-20.4500 Y15.3964 
G01 X-18.9200 Y15.3964 
G01 X-18.8923 Y15.3849 
G01 X-18.8711 Y15.3637 
G01 X-18.8596 Y15.3360 
G01 X-18.8596 Y14.0060 
G01 X-18.8711 Y13.9783 
G01 X-18.8923 Y13.9571 
G01 X-18.9200 Y13.9456 
G01 X-19.4064 Y13.9456 
G01 X-19.4064 Y12.9786 
G01 X-15.6094 Y12.9786 
G01 X-12.9755 Y15.6125 
G01 X-13.0214 Y15.6585 
G01 X-13.0214 Y16.3455 
G01 X-12.5355 Y16.8314 
G01 X-11.8484 Y16.8314 
G01 X-11.3626 Y16.3455 
G01 X-11.3626 Y15.6585 
G00 Z2.5400 
G00 X-11.7847 Y17.5586 
G01 Z-0.0800 F254.00 
G01 X-11.2086 Y18.1347 F254.00 
G01 X-11.2086 Y18.9493 
G01 X-11.7847 Y19.5254 
G01 X-12.5993 Y19.5254 
G01 X-13.1754 Y18.9493 
G01 X-13.1754 Y18.1347 
G01 X-12.5993 Y17.5586 
G01 X-11.7847 Y17.5586 
G00 Z2.5400 
G00 X-11.8484 Y17.7126 
G01 Z-0.0800 F254.00 
G01 X-12.5355 Y17.7126 F254.00 
G01 X-13.0214 Y18.1985 
G01 X-13.0214 Y18.8855 
G01 X-12.5355 Y19.3714 
G01 X-11.8484 Y19.3714 
G01 X-11.3626 Y18.8855 
G01 X-11.3626 Y18.1985 
G01 X-11.8484 Y17.7126 
G00 Z2.5400 
G00 X-10.6354 Y18.1347 
G01 Z-0.0800 F254.00 
G01 X-10.0593 Y17.5586 F254.00 
G01 X-9.2447 Y17.5586 
G01 X-8.6686 Y18.1347 
G01 X-8.6686 Y18.9493 
G01 X-9.2447 Y19.5254 
G01 X-10.0593 Y19.5254 
G01 X-10.6354 Y18.9493 
G01 X-10.6354 Y18.1347 
G00 Z2.5400 
G00 X-10.4814 Y18.1985 
G01 Z-0.0800 F254.00 
G01 X-10.4814 Y18.8855 F254.00 
G01 X-9.9955 Y19.3714 
G01 X-9.3085 Y19.3714 
G01 X-8.8226 Y18.8855 
G01 X-8.8226 Y18.1985 
G01 X-9.3085 Y17.7126 
G01 X-9.9955 Y17.7126 
G01 X-10.4814 Y18.1985 
G00 Z2.5400 
G00 X-10.0593 Y20.0986 
G01 Z-0.0800 F254.00 
G01 X-9.2447 Y20.0986 F254.00 
G01 X-8.6686 Y20.6747 
G01 X-8.6686 Y21.4893 
G01 X-9.2447 Y22.0654 
G01 X-10.0593 Y22.0654 
G01 X-10.6354 Y21.4893 
G01 X-10.6354 Y20.6747 
G01 X-10.0593 Y20.0986 
G00 Z2.5400 
G00 X-9.9955 Y20.2526 
G01 Z-0.0800 F254.00 
G01 X-10.4814 Y20.7385 F254.00 
G01 X-10.4814 Y21.4255 
G01 X-9.9955 Y21.9114 
G01 X-9.3085 Y21.9114 
G01 X-8.8226 Y21.4255 
G01 X-8.8226 Y20.7385 
G01 X-9.3085 Y20.2526 
G01 X-9.9955 Y20.2526 
G00 Z2.5400 
G00 X-10.0593 Y22.6386 
G01 Z-0.0800 F254.00 
G01 X-9.2447 Y22.6386 F254.00 
G01 X-8.6686 Y23.2146 
G01 X-8.6686 Y24.0293 
G01 X-9.2447 Y24.6054 
G01 X-10.0593 Y24.6054 
G01 X-10.6354 Y24.0293 
G01 X-10.6354 Y23.2146 
G01 X-10.0593 Y22.6386 
G00 Z2.5400 
G00 X-9.9955 Y22.7926 
G01 Z-0.0800 F254.00 
G01 X-10.4814 Y23.2784 F254.00 
G01 X-10.4814 Y23.9655 
G01 X-9.9955 Y24.4514 
G01 X-9.3085 Y24.4514 
G01 X-8.8226 Y23.9655 
G01 X-8.8226 Y23.2784 
G01 X-9.3085 Y22.7926 
G01 X-9.9955 Y22.7926 
G00 Z2.5400 
G00 X-11.2086 Y23.2147 
G01 Z-0.0800 F254.00 
G01 X-11.2086 Y24.0293 F254.00 
G01 X-11.7847 Y24.6054 
G01 X-12.5993 Y24.6054 
G01 X-13.1174 Y24.0873 
G01 X-13.1298 Y24.0749 
G01 X-13.1387 Y24.0661 
G01 X-13.1664 Y24.0546 
G01 X-18.5570 Y24.0546 
G01 X-18.5847 Y24.0661 
G01 X-18.6059 Y24.0873 
G01 X-18.6174 Y24.1150 
G01 X-18.6174 Y25.6690 
G01 X-18.6059 Y25.6967 
G01 X-18.5847 Y25.7179 
G01 X-18.5570 Y25.7294 
G01 X-13.1664 Y25.7294 
G01 X-13.1387 Y25.7179 
G01 X-13.1174 Y25.6967 
G01 X-12.5993 Y25.1786 
G01 X-11.7847 Y25.1786 
G01 X-11.2086 Y25.7547 
G01 X-11.2086 Y26.5693 
G01 X-11.7847 Y27.1454 
G01 X-12.5993 Y27.1454 
G01 X-13.1174 Y26.6273 
G01 X-13.1298 Y26.6149 
G01 X-13.1387 Y26.6061 
G01 X-13.1664 Y26.5946 
G01 X-17.9220 Y26.5946 
G01 X-17.9497 Y26.6061 
G01 X-17.9709 Y26.6273 
G01 X-17.9824 Y26.6550 
G01 X-17.9824 Y28.2090 
G01 X-17.9709 Y28.2367 
G01 X-17.9497 Y28.2579 
G01 X-17.9220 Y28.2694 
G01 X-13.1664 Y28.2694 
G01 X-13.1387 Y28.2579 
G01 X-13.1174 Y28.2367 
G01 X-12.5993 Y27.7186 
G01 X-11.7847 Y27.7186 
G01 X-11.2086 Y28.2947 
G01 X-11.2086 Y29.1093 
G01 X-11.7847 Y29.6854 
G01 X-12.5993 Y29.6854 
G01 X-13.1174 Y29.1673 
G01 X-13.1298 Y29.1549 
G01 X-13.1387 Y29.1461 
G01 X-13.1664 Y29.1346 
G01 X-15.7440 Y29.1346 
G01 X-15.7717 Y29.1461 
G01 X-15.7929 Y29.1673 
G01 X-15.8044 Y29.1950 
G01 X-15.8044 Y30.5432 
G01 X-15.9312 Y30.6701 
G01 X-15.9496 Y30.6885 
G01 X-15.9524 Y30.6913 
G01 X-15.9639 Y30.7190 
G01 X-15.9639 Y30.7490 
G01 X-15.9524 Y30.7767 
G01 X-15.9312 Y30.7979 
G01 X-15.9035 Y30.8094 
G01 X-13.1664 Y30.8094 
G01 X-13.1387 Y30.7979 
G01 X-13.1175 Y30.7767 
G01 X-12.5993 Y30.2586 
G01 X-11.7847 Y30.2586 
G01 X-11.2086 Y30.8347 
G01 X-11.2086 Y31.6493 
G01 X-11.7847 Y32.2254 
G01 X-12.5993 Y32.2254 
G01 X-13.1387 Y31.6861 
G01 X-13.1664 Y31.6746 
G01 X-16.8162 Y31.6746 
G01 X-17.0696 Y31.4212 
G01 X-17.0696 Y30.7380 
G01 X-17.0811 Y30.7103 
G01 X-17.1023 Y30.6891 
G01 X-17.1300 Y30.6776 
G01 X-17.2870 Y30.6776 
G01 X-17.3147 Y30.6891 
G01 X-17.3359 Y30.7103 
G01 X-17.3474 Y30.7380 
G01 X-17.3474 Y33.2890 
G01 X-17.3359 Y33.3167 
G01 X-17.3147 Y33.3379 
G01 X-17.2870 Y33.3494 
G01 X-13.1664 Y33.3494 
G01 X-13.1387 Y33.3379 
G01 X-13.1174 Y33.3167 
G01 X-12.5993 Y32.7986 
G01 X-11.7847 Y32.7986 
G01 X-11.2086 Y33.3747 
G01 X-11.2086 Y34.1893 
G01 X-11.7847 Y34.7654 
G01 X-12.5993 Y34.7654 
G01 X-13.1174 Y34.2473 
G01 X-13.1298 Y34.2349 
G01 X-13.1387 Y34.2261 
G01 X-13.1664 Y34.2146 
G01 X-16.6520 Y34.2146 
G01 X-16.6797 Y34.2261 
G01 X-16.7009 Y34.2473 
G01 X-16.7124 Y34.2750 
G01 X-16.7124 Y35.8290 
G01 X-16.7009 Y35.8567 
G01 X-16.6797 Y35.8779 
G01 X-16.6520 Y35.8894 
G01 X-13.1664 Y35.8894 
G01 X-13.1387 Y35.8779 
G01 X-13.1174 Y35.8567 
G01 X-12.5993 Y35.3386 
G01 X-11.7846 Y35.3386 
G01 X-11.2086 Y35.9147 
G01 X-11.2086 Y36.7293 
G01 X-11.7847 Y37.3054 
G01 X-12.5993 Y37.3054 
G01 X-13.1174 Y36.7873 
G01 X-13.1298 Y36.7749 
G01 X-13.1387 Y36.7661 
G01 X-13.1664 Y36.7546 
G01 X-16.0170 Y36.7546 
G01 X-16.0447 Y36.7661 
G01 X-16.0659 Y36.7873 
G01 X-16.0774 Y36.8150 
G01 X-16.0774 Y38.3690 
G01 X-16.0659 Y38.3967 
G01 X-16.0447 Y38.4179 
G01 X-16.0170 Y38.4294 
G01 X-13.1664 Y38.4294 
G01 X-13.1387 Y38.4179 
G01 X-13.1174 Y38.3967 
G01 X-12.5993 Y37.8786 
G01 X-11.7847 Y37.8786 
G01 X-11.2086 Y38.4547 
G01 X-11.2086 Y39.2693 
G01 X-11.7847 Y39.8454 
G01 X-12.5993 Y39.8454 
G01 X-13.1174 Y39.3273 
G01 X-13.1298 Y39.3149 
G01 X-13.1387 Y39.3061 
G01 X-13.1664 Y39.2946 
G01 X-15.3820 Y39.2946 
G01 X-15.4097 Y39.3061 
G01 X-15.4309 Y39.3273 
G01 X-15.4424 Y39.3550 
G01 X-15.4424 Y45.9890 
G01 X-15.4309 Y46.0167 
G01 X-15.4097 Y46.0379 
G01 X-15.3820 Y46.0494 
G01 X-13.1664 Y46.0494 
G01 X-13.1387 Y46.0379 
G01 X-13.1175 Y46.0167 
G01 X-12.5993 Y45.4986 
G01 X-11.7847 Y45.4986 
G01 X-11.2086 Y46.0747 
G01 X-11.2086 Y46.8893 
G01 X-11.7847 Y47.4654 
G01 X-12.5993 Y47.4654 
G01 X-13.1387 Y46.9261 
G01 X-13.1664 Y46.9146 
G01 X-14.7470 Y46.9146 
G01 X-14.7747 Y46.9261 
G01 X-14.7959 Y46.9473 
G01 X-14.8074 Y46.9750 
G01 X-14.8074 Y51.0690 
G01 X-14.7959 Y51.0967 
G01 X-14.7747 Y51.1179 
G01 X-14.7470 Y51.1294 
G01 X-13.1664 Y51.1294 
G01 X-13.1387 Y51.1179 
G01 X-13.1175 Y51.0967 
G01 X-12.5993 Y50.5786 
G01 X-11.7847 Y50.5786 
G01 X-11.2086 Y51.1547 
G01 X-11.2086 Y51.9693 
G01 X-11.7847 Y52.5454 
G01 X-12.5993 Y52.5454 
G01 X-13.1387 Y52.0061 
G01 X-13.1664 Y51.9946 
G01 X-13.1964 Y51.9946 
G01 X-14.1120 Y51.9946 
G01 X-14.1397 Y52.0061 
G01 X-14.1609 Y52.0273 
G01 X-14.1724 Y52.0550 
G01 X-14.1724 Y54.2812 
G01 X-14.4258 Y54.5346 
G01 X-18.7711 Y54.5346 
G01 X-18.7989 Y54.5461 
G01 X-18.8201 Y54.5673 
G01 X-19.2954 Y55.0426 
G01 X-20.0746 Y55.0426 
G01 X-20.6256 Y54.4916 
G01 X-20.6256 Y53.7124 
G01 X-20.0746 Y53.1614 
G01 X-19.2954 Y53.1614 
G01 X-18.7989 Y53.6579 
G01 X-18.7711 Y53.6694 
G01 X-15.0980 Y53.6694 
G01 X-15.0703 Y53.6579 
G01 X-15.0491 Y53.6367 
G01 X-15.0376 Y53.6090 
G01 X-15.0376 Y52.0550 
G01 X-15.0491 Y52.0273 
G01 X-15.0703 Y52.0061 
G01 X-15.0980 Y51.9946 
G01 X-18.7711 Y51.9946 
G01 X-18.7989 Y52.0061 
G01 X-18.8201 Y52.0273 
G01 X-19.2954 Y52.5026 
G01 X-20.0746 Y52.5026 
G01 X-20.6256 Y51.9516 
G01 X-20.6256 Y51.1724 
G01 X-20.0746 Y50.6214 
G01 X-19.2954 Y50.6214 
G01 X-18.8201 Y51.0967 
G01 X-18.8070 Y51.1097 
G01 X-18.7989 Y51.1179 
G01 X-18.7711 Y51.1294 
G01 X-15.7330 Y51.1294 
G01 X-15.7053 Y51.1179 
G01 X-15.6841 Y51.0967 
G01 X-15.6726 Y51.0690 
G01 X-15.6726 Y49.5150 
G01 X-15.6841 Y49.4873 
G01 X-15.7053 Y49.4661 
G01 X-15.7330 Y49.4546 
G01 X-18.7711 Y49.4546 
G01 X-18.7989 Y49.4661 
G01 X-18.8201 Y49.4873 
G01 X-19.2954 Y49.9626 
G01 X-20.0746 Y49.9626 
G01 X-20.6256 Y49.4116 
G01 X-20.6256 Y48.6324 
G01 X-20.0746 Y48.0814 
G01 X-19.2954 Y48.0814 
G01 X-18.8201 Y48.5567 
G01 X-18.8070 Y48.5697 
G01 X-18.7989 Y48.5779 
G01 X-18.7711 Y48.5894 
G01 X-16.3680 Y48.5894 
G01 X-16.3403 Y48.5779 
G01 X-16.3191 Y48.5567 
G01 X-16.3076 Y48.5290 
G01 X-16.3076 Y46.9750 
G01 X-16.3191 Y46.9473 
G01 X-16.3403 Y46.9261 
G01 X-16.3680 Y46.9146 
G01 X-18.7711 Y46.9146 
G01 X-18.7989 Y46.9261 
G01 X-18.8201 Y46.9473 
G01 X-19.2954 Y47.4226 
G01 X-20.0746 Y47.4226 
G01 X-20.6256 Y46.8716 
G01 X-20.6256 Y46.0924 
G01 X-20.0746 Y45.5414 
G01 X-19.2954 Y45.5414 
G01 X-18.8201 Y46.0167 
G01 X-18.8070 Y46.0297 
G01 X-18.7989 Y46.0379 
G01 X-18.7711 Y46.0494 
G01 X-17.0030 Y46.0494 
G01 X-16.9753 Y46.0379 
G01 X-16.9541 Y46.0167 
G01 X-16.9426 Y45.9890 
G01 X-16.9426 Y44.4350 
G01 X-16.9541 Y44.4073 
G01 X-16.9753 Y44.3861 
G01 X-17.0030 Y44.3746 
G01 X-18.7711 Y44.3746 
G01 X-18.7989 Y44.3861 
G01 X-18.8201 Y44.4073 
G01 X-19.2954 Y44.8826 
G01 X-20.0746 Y44.8826 
G01 X-20.6256 Y44.3316 
G01 X-20.6256 Y43.5524 
G01 X-20.0746 Y43.0014 
G01 X-19.2954 Y43.0014 
G01 X-18.8201 Y43.4767 
G01 X-18.8070 Y43.4897 
G01 X-18.7989 Y43.4979 
G01 X-18.7711 Y43.5094 
G01 X-17.6380 Y43.5094 
G01 X-17.6103 Y43.4979 
G01 X-17.5891 Y43.4767 
G01 X-17.5776 Y43.4490 
G01 X-17.5776 Y41.8950 
G01 X-17.5891 Y41.8673 
G01 X-17.6103 Y41.8461 
G01 X-17.6380 Y41.8346 
G01 X-18.7711 Y41.8346 
G01 X-18.7989 Y41.8461 
G01 X-18.8201 Y41.8673 
G01 X-19.2954 Y42.3426 
G01 X-20.0746 Y42.3426 
G01 X-20.6256 Y41.7916 
G01 X-20.6256 Y41.0124 
G01 X-20.0746 Y40.4614 
G01 X-19.2954 Y40.4614 
G01 X-18.8201 Y40.9367 
G01 X-18.8070 Y40.9497 
G01 X-18.7989 Y40.9579 
G01 X-18.7711 Y40.9694 
G01 X-18.2730 Y40.9694 
G01 X-18.2453 Y40.9579 
G01 X-18.2241 Y40.9367 
G01 X-18.2126 Y40.9090 
G01 X-18.2126 Y39.3550 
G01 X-18.2241 Y39.3273 
G01 X-18.2453 Y39.3061 
G01 X-18.2730 Y39.2946 
G01 X-18.7711 Y39.2946 
G01 X-18.7989 Y39.3061 
G01 X-18.8201 Y39.3273 
G01 X-19.2954 Y39.8026 
G01 X-20.0746 Y39.8026 
G01 X-20.6256 Y39.2516 
G01 X-20.6256 Y38.4724 
G01 X-20.0746 Y37.9214 
G01 X-19.2954 Y37.9214 
G01 X-18.9869 Y38.2298 
G01 X-18.9713 Y38.2455 
G01 X-18.9657 Y38.2510 
G01 X-18.9380 Y38.2625 
G01 X-18.9080 Y38.2625 
G01 X-18.8803 Y38.2510 
G01 X-18.8591 Y38.2298 
G01 X-18.8476 Y38.2021 
G01 X-18.8476 Y36.9819 
G01 X-18.8591 Y36.9542 
G01 X-18.8803 Y36.9330 
G01 X-18.9080 Y36.9215 
G01 X-18.9380 Y36.9215 
G01 X-18.9657 Y36.9330 
G01 X-18.9869 Y36.9542 
G01 X-19.2954 Y37.2626 
G01 X-20.0746 Y37.2626 
G01 X-20.6256 Y36.7116 
G01 X-20.6256 Y35.9324 
G01 X-20.0746 Y35.3814 
G01 X-19.5430 Y35.3814 
G01 X-19.5153 Y35.3699 
G01 X-19.4941 Y35.3487 
G01 X-19.4826 Y35.3210 
G01 X-19.4826 Y23.4428 
G01 X-19.2292 Y23.1894 
G01 X-13.1664 Y23.1894 
G01 X-13.1387 Y23.1779 
G01 X-13.1174 Y23.1567 
G01 X-12.5993 Y22.6386 
G01 X-11.7847 Y22.6386 
G01 X-11.2086 Y23.2147 
G00 Z2.5400 
G00 X-11.3626 Y23.2784 
G01 Z-0.0800 F254.00 
G01 X-11.8484 Y22.7926 F254.00 
G01 X-12.5355 Y22.7926 
G01 X-13.0214 Y23.2784 
G01 X-13.0214 Y23.3434 
G01 X-19.0867 Y23.3434 
G01 X-19.1575 Y23.3624 
G01 X-19.2211 Y23.3991 
G01 X-19.2729 Y23.4509 
G01 X-19.3096 Y23.5145 
G01 X-19.3286 Y23.5853 
G01 X-19.3286 Y35.5660 
G01 X-19.3592 Y35.5354 
G01 X-20.0108 Y35.5354 
G01 X-20.4716 Y35.9962 
G01 X-20.4716 Y36.6478 
G01 X-20.0108 Y37.1086 
G01 X-19.3592 Y37.1086 
G01 X-18.8984 Y36.6478 
G01 X-18.8984 Y36.5562 
G01 X-18.8789 Y36.5449 
G01 X-18.8271 Y36.4931 
G01 X-18.7904 Y36.4295 
G01 X-18.7714 Y36.3587 
G01 X-18.7714 Y23.9006 
G01 X-13.0214 Y23.9006 
G01 X-13.0214 Y23.9655 
G01 X-12.5355 Y24.4514 
G01 X-11.8484 Y24.4514 
G01 X-11.3626 Y23.9655 
G01 X-11.3626 Y23.2784 
G00 Z2.5400 
G00 X-11.3626 Y25.8184 
G01 Z-0.0800 F254.00 
G01 X-11.8484 Y25.3326 F254.00 
G01 X-12.5355 Y25.3326 
G01 X-13.0214 Y25.8184 
G01 X-13.0214 Y25.8834 
G01 X-18.4517 Y25.8834 
G01 X-18.5225 Y25.9024 
G01 X-18.5861 Y25.9391 
G01 X-18.6379 Y25.9909 
G01 X-18.6746 Y26.0545 
G01 X-18.6936 Y26.1253 
G01 X-18.6936 Y38.5834 
G01 X-18.8984 Y38.5834 
G01 X-18.8984 Y38.5362 
G01 X-19.3592 Y38.0754 
G01 X-20.0108 Y38.0754 
G01 X-20.4716 Y38.5362 
G01 X-20.4716 Y39.1878 
G01 X-20.0108 Y39.6486 
G01 X-19.3592 Y39.6486 
G01 X-18.8984 Y39.1878 
G01 X-18.8984 Y39.1406 
G01 X-18.3783 Y39.1406 
G01 X-18.3075 Y39.1216 
G01 X-18.2439 Y39.0849 
G01 X-18.1921 Y39.0331 
G01 X-18.1554 Y38.9695 
G01 X-18.1364 Y38.8987 
G01 X-18.1364 Y26.4406 
G01 X-13.0214 Y26.4406 
G01 X-13.0214 Y26.5055 
G01 X-12.5355 Y26.9914 
G01 X-11.8484 Y26.9914 
G01 X-11.3626 Y26.5055 
G01 X-11.3626 Y25.8184 
G00 Z2.5400 
G00 X-11.3626 Y28.3585 
G01 Z-0.0800 F254.00 
G01 X-11.8484 Y27.8726 F254.00 
G01 X-12.5355 Y27.8726 
G01 X-13.0214 Y28.3585 
G01 X-13.0214 Y28.4234 
G01 X-17.8167 Y28.4234 
G01 X-17.8875 Y28.4424 
G01 X-17.9511 Y28.4791 
G01 X-18.0029 Y28.5309 
G01 X-18.0396 Y28.5945 
G01 X-18.0586 Y28.6653 
G01 X-18.0586 Y41.1234 
G01 X-18.8984 Y41.1234 
G01 X-18.8984 Y41.0762 
G01 X-19.3592 Y40.6154 
G01 X-20.0108 Y40.6154 
G01 X-20.4716 Y41.0762 
G01 X-20.4716 Y41.7278 
G01 X-20.0108 Y42.1886 
G01 X-19.3592 Y42.1886 
G01 X-18.8984 Y41.7278 
G01 X-18.8984 Y41.6806 
G01 X-17.7433 Y41.6806 
G01 X-17.6725 Y41.6616 
G01 X-17.6089 Y41.6249 
G01 X-17.5571 Y41.5731 
G01 X-17.5204 Y41.5095 
G01 X-17.5014 Y41.4387 
G01 X-17.5014 Y28.9806 
G01 X-13.0214 Y28.9806 
G01 X-13.0214 Y29.0455 
G01 X-12.5355 Y29.5314 
G01 X-11.8484 Y29.5314 
G01 X-11.3626 Y29.0455 
G01 X-11.3626 Y28.3585 
G00 Z2.5400 
G00 X-10.6354 Y28.2947 
G01 Z-0.0800 F254.00 
G01 X-10.0593 Y27.7186 F254.00 
G01 X-9.2447 Y27.7186 
G01 X-8.6686 Y28.2947 
G01 X-8.6686 Y29.1093 
G01 X-9.2447 Y29.6854 
G01 X-10.0593 Y29.6854 
G01 X-10.6354 Y29.1093 
G01 X-10.6354 Y28.2947 
G00 Z2.5400 
G00 X-10.4814 Y28.3585 
G01 Z-0.0800 F254.00 
G01 X-10.4814 Y29.0455 F254.00 
G01 X-9.9955 Y29.5314 
G01 X-9.3085 Y29.5314 
G01 X-8.8226 Y29.0455 
G01 X-8.8226 Y28.3585 
G01 X-9.3085 Y27.8726 
G01 X-9.9955 Y27.8726 
G01 X-10.4814 Y28.3585 
G00 Z2.5400 
G00 X-10.0593 Y30.2586 
G01 Z-0.0800 F254.00 
G01 X-9.2447 Y30.2586 F254.00 
G01 X-8.6686 Y30.8347 
G01 X-8.6686 Y31.6493 
G01 X-9.2447 Y32.2254 
G01 X-10.0593 Y32.2254 
G01 X-10.6354 Y31.6493 
G01 X-10.6354 Y30.8347 
G01 X-10.0593 Y30.2586 
G00 Z2.5400 
G00 X-9.9955 Y30.4126 
G01 Z-0.0800 F254.00 
G01 X-10.4814 Y30.8985 F254.00 
G01 X-10.4814 Y31.5855 
G01 X-9.9955 Y32.0714 
G01 X-9.3085 Y32.0714 
G01 X-8.8226 Y31.5855 
G01 X-8.8226 Y30.8985 
G01 X-9.3085 Y30.4126 
G01 X-9.9955 Y30.4126 
G00 Z2.5400 
G00 X-11.3626 Y30.8985 
G01 Z-0.0800 F254.00 
G01 X-11.8484 Y30.4126 F254.00 
G01 X-12.5355 Y30.4126 
G01 X-13.0214 Y30.8985 
G01 X-13.0214 Y30.9634 
G01 X-16.3584 Y30.9634 
G01 X-16.3584 Y30.5236 
G01 X-16.0188 Y30.5236 
G01 X-15.9911 Y30.5121 
G01 X-15.9699 Y30.4909 
G01 X-15.9584 Y30.4632 
G01 X-15.9584 Y29.2268 
G01 X-15.9699 Y29.1991 
G01 X-15.9911 Y29.1779 
G01 X-16.0188 Y29.1664 
G01 X-17.2552 Y29.1664 
G01 X-17.2829 Y29.1779 
G01 X-17.3041 Y29.1991 
G01 X-17.3156 Y29.2268 
G01 X-17.3156 Y30.4632 
G01 X-17.3041 Y30.4909 
G01 X-17.2829 Y30.5121 
G01 X-17.2552 Y30.5236 
G01 X-16.9156 Y30.5236 
G01 X-16.9156 Y31.2787 
G01 X-16.8966 Y31.3495 
G01 X-16.8599 Y31.4131 
G01 X-16.8081 Y31.4649 
G01 X-16.7445 Y31.5016 
G01 X-16.6737 Y31.5206 
G01 X-13.0214 Y31.5206 
G01 X-13.0214 Y31.5855 
G01 X-12.5355 Y32.0714 
G01 X-11.8484 Y32.0714 
G01 X-11.3626 Y31.5855 
G01 X-11.3626 Y30.8985 
G00 Z2.5400 
G00 X-11.3626 Y33.4385 
G01 Z-0.0800 F254.00 
G01 X-11.8484 Y32.9526 F254.00 
G01 X-12.5355 Y32.9526 
G01 X-13.0214 Y33.4385 
G01 X-13.0214 Y33.5034 
G01 X-17.1817 Y33.5034 
G01 X-17.2525 Y33.5224 
G01 X-17.3161 Y33.5591 
G01 X-17.3679 Y33.6109 
G01 X-17.4046 Y33.6745 
G01 X-17.4236 Y33.7453 
G01 X-17.4236 Y43.6634 
G01 X-18.8984 Y43.6634 
G01 X-18.8984 Y43.6162 
G01 X-19.3592 Y43.1554 
G01 X-20.0108 Y43.1554 
G01 X-20.4716 Y43.6162 
G01 X-20.4716 Y44.2678 
G01 X-20.0108 Y44.7286 
G01 X-19.3592 Y44.7286 
G01 X-18.8984 Y44.2678 
G01 X-18.8984 Y44.2206 
G01 X-17.1083 Y44.2206 
G01 X-17.0375 Y44.2016 
G01 X-16.9739 Y44.1649 
G01 X-16.9221 Y44.1131 
G01 X-16.8854 Y44.0495 
G01 X-16.8664 Y43.9787 
G01 X-16.8664 Y34.0606 
G01 X-13.0214 Y34.0606 
G01 X-13.0214 Y34.1255 
G01 X-12.5355 Y34.6114 
G01 X-11.8484 Y34.6114 
G01 X-11.3626 Y34.1255 
G01 X-11.3626 Y33.4385 
G00 Z2.5400 
G00 X-11.3626 Y35.9785 
G01 Z-0.0800 F254.00 
G01 X-11.8484 Y35.4926 F254.00 
G01 X-12.5355 Y35.4926 
G01 X-13.0214 Y35.9785 
G01 X-13.0214 Y36.0434 
G01 X-16.5467 Y36.0434 
G01 X-16.6175 Y36.0624 
G01 X-16.6811 Y36.0991 
G01 X-16.7329 Y36.1509 
G01 X-16.7696 Y36.2145 
G01 X-16.7886 Y36.2853 
G01 X-16.7886 Y46.2034 
G01 X-18.8984 Y46.2034 
G01 X-18.8984 Y46.1562 
G01 X-19.3592 Y45.6954 
G01 X-20.0108 Y45.6954 
G01 X-20.4716 Y46.1562 
G01 X-20.4716 Y46.8078 
G01 X-20.0108 Y47.2686 
G01 X-19.3592 Y47.2686 
G01 X-18.8984 Y46.8078 
G01 X-18.8984 Y46.7606 
G01 X-16.4733 Y46.7606 
G01 X-16.4025 Y46.7416 
G01 X-16.3389 Y46.7049 
G01 X-16.2871 Y46.6531 
G01 X-16.2504 Y46.5895 
G01 X-16.2314 Y46.5187 
G01 X-16.2314 Y36.6006 
G01 X-13.0214 Y36.6006 
G01 X-13.0214 Y36.6655 
G01 X-12.5355 Y37.1514 
G01 X-11.8484 Y37.1514 
G01 X-11.3626 Y36.6655 
G01 X-11.3626 Y35.9785 
G00 Z2.5400 
G00 X-10.6354 Y35.9147 
G01 Z-0.0800 F254.00 
G01 X-10.0593 Y35.3386 F254.00 
G01 X-9.2447 Y35.3386 
G01 X-8.6686 Y35.9147 
G01 X-8.6686 Y36.7293 
G01 X-9.2447 Y37.3054 
G01 X-10.0593 Y37.3054 
G01 X-10.6354 Y36.7293 
G01 X-10.6354 Y35.9147 
G00 Z2.5400 
G00 X-10.4814 Y35.9785 
G01 Z-0.0800 F254.00 
G01 X-10.4814 Y36.6655 F254.00 
G01 X-9.9955 Y37.1514 
G01 X-9.3085 Y37.1514 
G01 X-8.8226 Y36.6655 
G01 X-8.8226 Y35.9785 
G01 X-9.3085 Y35.4926 
G01 X-9.9955 Y35.4926 
G01 X-10.4814 Y35.9785 
G00 Z2.5400 
G00 X-10.0593 Y37.8786 
G01 Z-0.0800 F254.00 
G01 X-9.2447 Y37.8786 F254.00 
G01 X-8.6686 Y38.4547 
G01 X-8.6686 Y39.2693 
G01 X-9.2447 Y39.8454 
G01 X-10.0593 Y39.8454 
G01 X-10.6354 Y39.2693 
G01 X-10.6354 Y38.4547 
G01 X-10.0593 Y37.8786 
G00 Z2.5400 
G00 X-9.9955 Y38.0326 
G01 Z-0.0800 F254.00 
G01 X-10.4814 Y38.5185 F254.00 
G01 X-10.4814 Y39.2055 
G01 X-9.9955 Y39.6914 
G01 X-9.3085 Y39.6914 
G01 X-8.8226 Y39.2055 
G01 X-8.8226 Y38.5185 
G01 X-9.3085 Y38.0326 
G01 X-9.9955 Y38.0326 
G00 Z2.5400 
G00 X-11.3626 Y38.5185 
G01 Z-0.0800 F254.00 
G01 X-11.8484 Y38.0326 F254.00 
G01 X-12.5355 Y38.0326 
G01 X-13.0214 Y38.5185 
G01 X-13.0214 Y38.5834 
G01 X-15.9117 Y38.5834 
G01 X-15.9825 Y38.6024 
G01 X-16.0461 Y38.6391 
G01 X-16.0979 Y38.6909 
G01 X-16.1346 Y38.7545 
G01 X-16.1536 Y38.8253 
G01 X-16.1536 Y48.7434 
G01 X-18.8984 Y48.7434 
G01 X-18.8984 Y48.6962 
G01 X-19.3592 Y48.2354 
G01 X-20.0108 Y48.2354 
G01 X-20.4716 Y48.6962 
G01 X-20.4716 Y49.3478 
G01 X-20.0108 Y49.8086 
G01 X-19.3592 Y49.8086 
G01 X-18.8984 Y49.3478 
G01 X-18.8984 Y49.3006 
G01 X-15.8383 Y49.3006 
G01 X-15.7675 Y49.2816 
G01 X-15.7039 Y49.2449 
G01 X-15.6521 Y49.1931 
G01 X-15.6154 Y49.1295 
G01 X-15.5964 Y49.0587 
G01 X-15.5964 Y39.1406 
G01 X-13.0214 Y39.1406 
G01 X-13.0214 Y39.2055 
G01 X-12.5355 Y39.6914 
G01 X-11.8484 Y39.6914 
G01 X-11.3626 Y39.2055 
G01 X-11.3626 Y38.5185 
G00 Z2.5400 
G00 X-10.6354 Y40.9947 
G01 Z-0.0800 F254.00 
G01 X-10.0593 Y40.4186 F254.00 
G01 X-9.2447 Y40.4186 
G01 X-8.6686 Y40.9947 
G01 X-8.6686 Y41.8093 
G01 X-9.2447 Y42.3854 
G01 X-10.0593 Y42.3854 
G01 X-10.6354 Y41.8093 
G01 X-10.6354 Y40.9947 
G00 Z2.5400 
G00 X-10.4814 Y41.0585 
G01 Z-0.0800 F254.00 
G01 X-10.4814 Y41.7455 F254.00 
G01 X-9.9955 Y42.2314 
G01 X-9.3085 Y42.2314 
G01 X-8.8226 Y41.7455 
G01 X-8.8226 Y41.0585 
G01 X-9.3085 Y40.5726 
G01 X-9.9955 Y40.5726 
G01 X-10.4814 Y41.0585 
G00 Z2.5400 
G00 X-10.0593 Y42.9586 
G01 Z-0.0800 F254.00 
G01 X-9.2447 Y42.9586 F254.00 
G01 X-8.6686 Y43.5347 
G01 X-8.6686 Y44.3493 
G01 X-9.2447 Y44.9254 
G01 X-10.0593 Y44.9254 
G01 X-10.6354 Y44.3493 
G01 X-10.6354 Y43.5347 
G01 X-10.0593 Y42.9586 
G00 Z2.5400 
G00 X-9.9955 Y43.1126 
G01 Z-0.0800 F254.00 
G01 X-10.4814 Y43.5984 F254.00 
G01 X-10.4814 Y44.2855 
G01 X-9.9955 Y44.7714 
G01 X-9.3085 Y44.7714 
G01 X-8.8226 Y44.2855 
G01 X-8.8226 Y43.5984 
G01 X-9.3085 Y43.1126 
G01 X-9.9955 Y43.1126 
G00 Z2.5400 
G00 X-11.2086 Y43.5347 
G01 Z-0.0800 F254.00 
G01 X-11.2086 Y44.3493 F254.00 
G01 X-11.7847 Y44.9254 
G01 X-12.5993 Y44.9254 
G01 X-13.1754 Y44.3493 
G01 X-13.1754 Y43.5347 
G01 X-12.5993 Y42.9586 
G01 X-11.7847 Y42.9586 
G01 X-11.2086 Y43.5347 
G00 Z2.5400 
G00 X-11.3626 Y43.5984 
G01 Z-0.0800 F254.00 
G01 X-11.8484 Y43.1126 F254.00 
G01 X-12.5355 Y43.1126 
G01 X-13.0214 Y43.5984 
G01 X-13.0214 Y44.2855 
G01 X-12.5355 Y44.7714 
G01 X-11.8484 Y44.7714 
G01 X-11.3626 Y44.2855 
G01 X-11.3626 Y43.5984 
G00 Z2.5400 
G00 X-11.3626 Y46.1384 
G01 Z-0.0800 F254.00 
G01 X-11.8484 Y45.6526 F254.00 
G01 X-12.5355 Y45.6526 
G01 X-13.0214 Y46.1384 
G01 X-13.0214 Y46.2034 
G01 X-15.2767 Y46.2034 
G01 X-15.3475 Y46.2224 
G01 X-15.4111 Y46.2591 
G01 X-15.4629 Y46.3109 
G01 X-15.4996 Y46.3745 
G01 X-15.5186 Y46.4453 
G01 X-15.5186 Y51.2834 
G01 X-18.8984 Y51.2834 
G01 X-18.8984 Y51.2362 
G01 X-19.3592 Y50.7754 
G01 X-20.0108 Y50.7754 
G01 X-20.4716 Y51.2362 
G01 X-20.4716 Y51.8878 
G01 X-20.0108 Y52.3486 
G01 X-19.3592 Y52.3486 
G01 X-18.8984 Y51.8878 
G01 X-18.8984 Y51.8406 
G01 X-15.2033 Y51.8406 
G01 X-15.1325 Y51.8216 
G01 X-15.0689 Y51.7849 
G01 X-15.0171 Y51.7331 
G01 X-14.9804 Y51.6695 
G01 X-14.9614 Y51.5987 
G01 X-14.9614 Y46.7606 
G01 X-13.0214 Y46.7606 
G01 X-13.0214 Y46.8255 
G01 X-12.5355 Y47.3114 
G01 X-11.8484 Y47.3114 
G01 X-11.3626 Y46.8255 
G01 X-11.3626 Y46.1384 
G00 Z2.5400 
G00 X-11.7847 Y48.0386 
G01 Z-0.0800 F254.00 
G01 X-11.2086 Y48.6147 F254.00 
G01 X-11.2086 Y49.4293 
G01 X-11.7847 Y50.0054 
G01 X-12.5993 Y50.0054 
G01 X-13.1754 Y49.4293 
G01 X-13.1754 Y48.6147 
G01 X-12.5993 Y48.0386 
G01 X-11.7847 Y48.0386 
G00 Z2.5400 
G00 X-11.8484 Y48.1926 
G01 Z-0.0800 F254.00 
G01 X-12.5355 Y48.1926 F254.00 
G01 X-13.0214 Y48.6784 
G01 X-13.0214 Y49.3655 
G01 X-12.5355 Y49.8514 
G01 X-11.8484 Y49.8514 
G01 X-11.3626 Y49.3655 
G01 X-11.3626 Y48.6784 
G01 X-11.8484 Y48.1926 
G00 Z2.5400 
G00 X-10.6354 Y48.6146 
G01 Z-0.0800 F254.00 
G01 X-10.0593 Y48.0386 F254.00 
G01 X-9.2447 Y48.0386 
G01 X-8.6686 Y48.6146 
G01 X-8.6686 Y49.4293 
G01 X-9.2447 Y50.0054 
G01 X-10.0593 Y50.0054 
G01 X-10.6354 Y49.4293 
G01 X-10.6354 Y48.6146 
G00 Z2.5400 
G00 X-10.4814 Y48.6784 
G01 Z-0.0800 F254.00 
G01 X-10.4814 Y49.3655 F254.00 
G01 X-9.9955 Y49.8514 
G01 X-9.3085 Y49.8514 
G01 X-8.8226 Y49.3655 
G01 X-8.8226 Y48.6784 
G01 X-9.3085 Y48.1926 
G01 X-9.9955 Y48.1926 
G01 X-10.4814 Y48.6784 
G00 Z2.5400 
G00 X-11.3626 Y51.2184 
G01 Z-0.0800 F254.00 
G01 X-11.8484 Y50.7326 F254.00 
G01 X-12.5355 Y50.7326 
G01 X-13.0214 Y51.2184 
G01 X-13.0214 Y51.2834 
G01 X-14.6417 Y51.2834 
G01 X-14.7125 Y51.3024 
G01 X-14.7761 Y51.3391 
G01 X-14.8279 Y51.3909 
G01 X-14.8646 Y51.4545 
G01 X-14.8836 Y51.5253 
G01 X-14.8836 Y53.8234 
G01 X-18.8984 Y53.8234 
G01 X-18.8984 Y53.7762 
G01 X-19.3592 Y53.3154 
G01 X-20.0108 Y53.3154 
G01 X-20.4716 Y53.7762 
G01 X-20.4716 Y54.4278 
G01 X-20.0108 Y54.8886 
G01 X-19.3592 Y54.8886 
G01 X-18.8984 Y54.4278 
G01 X-18.8984 Y54.3806 
G01 X-14.5683 Y54.3806 
G01 X-14.4975 Y54.3616 
G01 X-14.4339 Y54.3249 
G01 X-14.3821 Y54.2731 
G01 X-14.3454 Y54.2095 
G01 X-14.3264 Y54.1387 
G01 X-14.3264 Y51.8406 
G01 X-13.0214 Y51.8406 
G01 X-13.0214 Y51.9055 
G01 X-12.5355 Y52.3914 
G01 X-11.8484 Y52.3914 
G01 X-11.3626 Y51.9055 
G01 X-11.3626 Y51.2184 
G00 Z2.5400 
G00 X-11.7846 Y53.1186 
G01 Z-0.0800 F254.00 
G01 X-11.2086 Y53.6947 F254.00 
G01 X-11.2086 Y54.5093 
G01 X-11.7847 Y55.0854 
G01 X-12.5993 Y55.0854 
G01 X-13.1754 Y54.5093 
G01 X-13.1754 Y53.6947 
G01 X-12.5993 Y53.1186 
G01 X-11.7846 Y53.1186 
G00 Z2.5400 
G00 X-11.8484 Y53.2726 
G01 Z-0.0800 F254.00 
G01 X-12.5355 Y53.2726 F254.00 
G01 X-13.0214 Y53.7585 
G01 X-13.0214 Y54.4455 
G01 X-12.5355 Y54.9314 
G01 X-11.8484 Y54.9314 
G01 X-11.3626 Y54.4455 
G01 X-11.3626 Y53.7585 
G01 X-11.8484 Y53.2726 
G00 Z2.5400 
G00 X-10.6354 Y53.6947 
G01 Z-0.0800 F254.00 
G01 X-10.0593 Y53.1186 F254.00 
G01 X-9.2447 Y53.1186 
G01 X-8.6686 Y53.6947 
G01 X-8.6686 Y54.5093 
G01 X-9.2447 Y55.0854 
G01 X-10.0593 Y55.0854 
G01 X-10.6354 Y54.5093 
G01 X-10.6354 Y53.6947 
G00 Z2.5400 
G00 X-10.4814 Y53.7585 
G01 Z-0.0800 F254.00 
G01 X-10.4814 Y54.4455 F254.00 
G01 X-9.9955 Y54.9314 
G01 X-9.3085 Y54.9314 
G01 X-8.8226 Y54.4455 
G01 X-8.8226 Y53.7585 
G01 X-9.3085 Y53.2726 
G01 X-9.9955 Y53.2726 
G01 X-10.4814 Y53.7585 
G00 Z2.5400 
G00 X-10.0593 Y55.6586 
G01 Z-0.0800 F254.00 
G01 X-9.2447 Y55.6586 F254.00 
G01 X-8.6686 Y56.2347 
G01 X-8.6686 Y57.0493 
G01 X-9.2447 Y57.6254 
G01 X-10.0593 Y57.6254 
G01 X-10.6354 Y57.0493 
G01 X-10.6354 Y56.2347 
G01 X-10.0593 Y55.6586 
G00 Z2.5400 
G00 X-9.9955 Y55.8126 
G01 Z-0.0800 F254.00 
G01 X-10.4814 Y56.2985 F254.00 
G01 X-10.4814 Y56.9855 
G01 X-9.9955 Y57.4714 
G01 X-9.3085 Y57.4714 
G01 X-8.8226 Y56.9855 
G01 X-8.8226 Y56.2985 
G01 X-9.3085 Y55.8126 
G01 X-9.9955 Y55.8126 
G00 Z2.5400 
G00 X-11.2086 Y56.2347 
G01 Z-0.0800 F254.00 
G01 X-11.2086 Y57.0493 F254.00 
G01 X-11.7847 Y57.6254 
G01 X-12.5993 Y57.6254 
G01 X-13.1387 Y57.0861 
G01 X-13.1664 Y57.0746 
G01 X-13.1964 Y57.0746 
G01 X-16.6520 Y57.0746 
G01 X-16.6797 Y57.0861 
G01 X-16.7009 Y57.1073 
G01 X-16.7124 Y57.1350 
G01 X-16.7124 Y61.7742 
G01 X-16.9658 Y62.0276 
G01 X-24.1452 Y62.0276 
G01 X-24.1729 Y62.0391 
G01 X-24.1941 Y62.0603 
G01 X-24.2056 Y62.0880 
G01 X-24.2056 Y62.4400 
G01 X-24.3400 Y62.5744 
G01 X-25.8300 Y62.5744 
G01 X-25.9711 Y62.4334 
G01 X-25.9893 Y62.4152 
G01 X-25.9923 Y62.4122 
G01 X-26.0200 Y62.4007 
G01 X-26.0500 Y62.4007 
G01 X-26.0777 Y62.4122 
G01 X-26.0989 Y62.4334 
G01 X-26.2400 Y62.5744 
G01 X-27.7300 Y62.5744 
G01 X-27.8644 Y62.4400 
G01 X-27.8644 Y62.0880 
G01 X-27.8759 Y62.0603 
G01 X-27.8971 Y62.0391 
G01 X-27.9248 Y62.0276 
G01 X-28.2092 Y62.0276 
G01 X-28.2369 Y62.0391 
G01 X-28.2581 Y62.0603 
G01 X-28.2696 Y62.0880 
G01 X-28.2696 Y62.4400 
G01 X-28.4040 Y62.5744 
G01 X-29.8940 Y62.5744 
G01 X-30.0284 Y62.4400 
G01 X-30.0284 Y60.7500 
G01 X-29.8940 Y60.6156 
G01 X-29.6420 Y60.6156 
G01 X-29.6143 Y60.6041 
G01 X-29.5931 Y60.5829 
G01 X-29.5816 Y60.5552 
G01 X-29.5816 Y59.8748 
G01 X-29.5931 Y59.8471 
G01 X-29.6143 Y59.8259 
G01 X-29.6420 Y59.8144 
G01 X-29.8710 Y59.8144 
G01 X-30.0054 Y59.6800 
G01 X-30.0054 Y58.0900 
G01 X-29.8710 Y57.9556 
G01 X-28.6810 Y57.9556 
G01 X-28.5466 Y58.0900 
G01 X-28.5466 Y59.6800 
G01 X-28.6837 Y59.8171 
G01 X-28.7020 Y59.8354 
G01 X-28.7049 Y59.8383 
G01 X-28.7164 Y59.8661 
G01 X-28.7164 Y60.5552 
G01 X-28.7049 Y60.5829 
G01 X-28.6837 Y60.6041 
G01 X-28.6560 Y60.6156 
G01 X-28.4040 Y60.6156 
G01 X-28.2696 Y60.7500 
G01 X-28.2696 Y61.1020 
G01 X-28.2581 Y61.1297 
G01 X-28.2369 Y61.1509 
G01 X-28.2092 Y61.1624 
G01 X-27.9248 Y61.1624 
G01 X-27.8971 Y61.1509 
G01 X-27.8759 Y61.1297 
G01 X-27.8644 Y61.1020 
G01 X-27.8644 Y60.7500 
G01 X-27.7300 Y60.6156 
G01 X-26.2400 Y60.6156 
G01 X-26.0777 Y60.7778 
G01 X-26.0500 Y60.7893 
G01 X-26.0200 Y60.7893 
G01 X-25.9923 Y60.7778 
G01 X-25.9711 Y60.7566 
G01 X-25.8300 Y60.6156 
G01 X-24.3400 Y60.6156 
G01 X-24.2056 Y60.7500 
G01 X-24.2056 Y61.1020 
G01 X-24.1941 Y61.1297 
G01 X-24.1729 Y61.1509 
G01 X-24.1452 Y61.1624 
G01 X-17.6380 Y61.1624 
G01 X-17.6103 Y61.1509 
G01 X-17.5891 Y61.1297 
G01 X-17.5776 Y61.1020 
G01 X-17.5776 Y56.4628 
G01 X-17.3242 Y56.2094 
G01 X-13.1664 Y56.2094 
G01 X-13.1387 Y56.1979 
G01 X-13.1175 Y56.1767 
G01 X-12.5993 Y55.6586 
G01 X-11.7847 Y55.6586 
G01 X-11.2086 Y56.2347 
G00 Z2.5400 
G00 X-11.3626 Y56.2985 
G01 Z-0.0800 F254.00 
G01 X-11.8484 Y55.8126 F254.00 
G01 X-12.5355 Y55.8126 
G01 X-13.0214 Y56.2985 
G01 X-13.0214 Y56.3634 
G01 X-17.1817 Y56.3634 
G01 X-17.2525 Y56.3824 
G01 X-17.3161 Y56.4191 
G01 X-17.3679 Y56.4709 
G01 X-17.4046 Y56.5345 
G01 X-17.4236 Y56.6053 
G01 X-17.4236 Y61.3164 
G01 X-24.3596 Y61.3164 
G01 X-24.3596 Y60.8300 
G01 X-24.3711 Y60.8023 
G01 X-24.3923 Y60.7811 
G01 X-24.4200 Y60.7696 
G01 X-25.7500 Y60.7696 
G01 X-25.7777 Y60.7811 
G01 X-25.7989 Y60.8023 
G01 X-25.8104 Y60.8300 
G01 X-25.8104 Y62.3600 
G01 X-25.7989 Y62.3877 
G01 X-25.7777 Y62.4089 
G01 X-25.7500 Y62.4204 
G01 X-24.4200 Y62.4204 
G01 X-24.3923 Y62.4089 
G01 X-24.3711 Y62.3877 
G01 X-24.3596 Y62.3600 
G01 X-24.3596 Y61.8736 
G01 X-17.1083 Y61.8736 
G01 X-17.0375 Y61.8546 
G01 X-16.9739 Y61.8179 
G01 X-16.9221 Y61.7661 
G01 X-16.8854 Y61.7025 
G01 X-16.8664 Y61.6317 
G01 X-16.8664 Y56.9206 
G01 X-13.0214 Y56.9206 
G01 X-13.0214 Y56.9855 
G01 X-12.5355 Y57.4714 
G01 X-11.8484 Y57.4714 
G01 X-11.3626 Y56.9855 
G01 X-11.3626 Y56.2985 
G00 Z2.5400 
G00 X-10.6354 Y58.7747 
G01 Z-0.0800 F254.00 
G01 X-10.0593 Y58.1986 F254.00 
G01 X-9.2447 Y58.1986 
G01 X-8.6686 Y58.7747 
G01 X-8.6686 Y59.5893 
G01 X-9.2447 Y60.1654 
G01 X-10.0593 Y60.1654 
G01 X-10.6354 Y59.5893 
G01 X-10.6354 Y58.7747 
G00 Z2.5400 
G00 X-10.4814 Y58.8385 
G01 Z-0.0800 F254.00 
G01 X-10.4814 Y59.5255 F254.00 
G01 X-9.9955 Y60.0114 
G01 X-9.3085 Y60.0114 
G01 X-8.8226 Y59.5255 
G01 X-8.8226 Y58.8385 
G01 X-9.3085 Y58.3526 
G01 X-9.9955 Y58.3526 
G01 X-10.4814 Y58.8385 
G00 Z2.5400 
G00 X-8.3630 Y62.2006 
G01 Z-0.0800 F254.00 
G01 X-7.7764 Y61.6140 F254.00 
G01 X-7.0580 Y61.1993 
G01 X-6.2568 Y60.9846 
G01 X-5.4272 Y60.9846 
G01 X-4.6260 Y61.1993 
G01 X-3.9076 Y61.6140 
G01 X-3.3210 Y62.2006 
G01 X-2.9063 Y62.9190 
G01 X-2.6916 Y63.7202 
G01 X-2.6916 Y64.5498 
G01 X-2.9063 Y65.3510 
G01 X-3.3210 Y66.0694 
G01 X-3.9076 Y66.6560 
G01 X-4.6260 Y67.0707 
G01 X-5.4272 Y67.2854 
G01 X-6.2568 Y67.2854 
G01 X-7.0580 Y67.0707 
G01 X-7.7764 Y66.6560 
G01 X-8.3630 Y66.0694 
G01 X-8.7777 Y65.3510 
G01 X-8.9924 Y64.5498 
G01 X-8.9924 Y63.7202 
G01 X-8.7777 Y62.9190 
G01 X-8.3630 Y62.2006 
G00 Z2.5400 
G00 X-8.2896 Y62.3983 
G01 Z-0.0800 F254.00 
G01 X-8.4687 Y62.6833 F254.00 
G01 X-8.6147 Y62.9865 
G01 X-8.7258 Y63.3042 
G01 X-8.8007 Y63.6323 
G01 X-8.8384 Y63.9667 
G01 X-8.8384 Y64.3033 
G01 X-8.8007 Y64.6377 
G01 X-8.7258 Y64.9658 
G01 X-8.6147 Y65.2835 
G01 X-8.4687 Y65.5867 
G01 X-8.2896 Y65.8717 
G01 X-8.0798 Y66.1348 
G01 X-7.8418 Y66.3728 
G01 X-7.5787 Y66.5826 
G01 X-7.2937 Y66.7617 
G01 X-6.9905 Y66.9077 
G01 X-6.6728 Y67.0188 
G01 X-6.3447 Y67.0937 
G01 X-6.0103 Y67.1314 
G01 X-5.6737 Y67.1314 
G01 X-5.3393 Y67.0937 
G01 X-5.0112 Y67.0188 
G01 X-4.6935 Y66.9077 
G01 X-4.3903 Y66.7617 
G01 X-4.1053 Y66.5826 
G01 X-3.8422 Y66.3728 
G01 X-3.6042 Y66.1348 
G01 X-3.3944 Y65.8717 
G01 X-3.2153 Y65.5867 
G01 X-3.0693 Y65.2835 
G01 X-2.9582 Y64.9658 
G01 X-2.8833 Y64.6377 
G01 X-2.8456 Y64.3033 
G01 X-2.8456 Y63.9667 
G01 X-2.8833 Y63.6323 
G01 X-2.9582 Y63.3042 
G01 X-3.0693 Y62.9865 
G01 X-3.2153 Y62.6833 
G01 X-3.3944 Y62.3983 
G01 X-3.6042 Y62.1352 
G01 X-3.8422 Y61.8972 
G01 X-4.1053 Y61.6874 
G01 X-4.3903 Y61.5083 
G01 X-4.6935 Y61.3623 
G01 X-5.0112 Y61.2512 
G01 X-5.3393 Y61.1763 
G01 X-5.6737 Y61.1386 
G01 X-6.0103 Y61.1386 
G01 X-6.3447 Y61.1763 
G01 X-6.6728 Y61.2512 
G01 X-6.9905 Y61.3623 
G01 X-7.2937 Y61.5083 
G01 X-7.5787 Y61.6874 
G01 X-7.8418 Y61.8972 
G01 X-8.0798 Y62.1352 
G01 X-8.2896 Y62.3983 
G00 Z2.5400 
G00 X-26.2711 Y62.3877 
G01 Z-0.0800 F254.00 
G01 X-26.2596 Y62.3600 F254.00 
G01 X-26.2596 Y60.8300 
G01 X-26.2711 Y60.8023 
G01 X-26.2923 Y60.7811 
G01 X-26.3200 Y60.7696 
G01 X-27.6500 Y60.7696 
G01 X-27.6777 Y60.7811 
G01 X-27.6989 Y60.8023 
G01 X-27.7104 Y60.8300 
G01 X-27.7104 Y61.3164 
G01 X-28.4236 Y61.3164 
G01 X-28.4236 Y60.8300 
G01 X-28.4351 Y60.8023 
G01 X-28.4563 Y60.7811 
G01 X-28.4840 Y60.7696 
G01 X-28.8704 Y60.7696 
G01 X-28.8704 Y59.6604 
G01 X-28.7610 Y59.6604 
G01 X-28.7333 Y59.6489 
G01 X-28.7121 Y59.6277 
G01 X-28.7006 Y59.6000 
G01 X-28.7006 Y58.1700 
G01 X-28.7121 Y58.1423 
G01 X-28.7333 Y58.1211 
G01 X-28.7610 Y58.1096 
G01 X-29.7910 Y58.1096 
G01 X-29.8187 Y58.1211 
G01 X-29.8399 Y58.1423 
G01 X-29.8514 Y58.1700 
G01 X-29.8514 Y59.6000 
G01 X-29.8399 Y59.6277 
G01 X-29.8187 Y59.6489 
G01 X-29.7910 Y59.6604 
G01 X-29.4276 Y59.6604 
G01 X-29.4276 Y60.7696 
G01 X-29.8140 Y60.7696 
G01 X-29.8417 Y60.7811 
G01 X-29.8629 Y60.8023 
G01 X-29.8744 Y60.8300 
G01 X-29.8744 Y62.3600 
G01 X-29.8629 Y62.3877 
G01 X-29.8417 Y62.4089 
G01 X-29.8140 Y62.4204 
G01 X-28.4840 Y62.4204 
G01 X-28.4563 Y62.4089 
G01 X-28.4351 Y62.3877 
G01 X-28.4236 Y62.3600 
G01 X-28.4236 Y61.8736 
G01 X-27.7104 Y61.8736 
G01 X-27.7104 Y62.3600 
G01 X-27.6989 Y62.3877 
G01 X-27.6777 Y62.4089 
G01 X-27.6500 Y62.4204 
G01 X-26.3200 Y62.4204 
G01 X-26.2923 Y62.4089 
G01 X-26.2711 Y62.3877 
G00 Z2.5400 
G00 X-26.2923 Y57.4559 
G01 Z-0.0800 F254.00 
G01 X-26.2711 Y57.4347 F254.00 
G01 X-26.2596 Y57.4070 
G01 X-26.2596 Y55.8770 
G01 X-26.2711 Y55.8493 
G01 X-26.2923 Y55.8281 
G01 X-26.3200 Y55.8166 
G01 X-27.6500 Y55.8166 
G01 X-27.6777 Y55.8281 
G01 X-27.6989 Y55.8493 
G01 X-27.7104 Y55.8770 
G01 X-27.7104 Y56.3634 
G01 X-29.6506 Y56.3634 
G01 X-29.6506 Y55.9700 
G01 X-29.6621 Y55.9423 
G01 X-29.6833 Y55.9211 
G01 X-29.7110 Y55.9096 
G01 X-30.7410 Y55.9096 
G01 X-30.7687 Y55.9211 
G01 X-30.7899 Y55.9423 
G01 X-30.8014 Y55.9700 
G01 X-30.8014 Y57.4000 
G01 X-30.7899 Y57.4277 
G01 X-30.7687 Y57.4489 
G01 X-30.7410 Y57.4604 
G01 X-29.7110 Y57.4604 
G01 X-29.6833 Y57.4489 
G01 X-29.6621 Y57.4277 
G01 X-29.6506 Y57.4000 
G01 X-29.6506 Y56.9206 
G01 X-27.7104 Y56.9206 
G01 X-27.7104 Y57.4070 
G01 X-27.6989 Y57.4347 
G01 X-27.6777 Y57.4559 
G01 X-27.6500 Y57.4674 
G01 X-26.3200 Y57.4674 
G01 X-26.2923 Y57.4559 
G00 Z2.5400 
G00 X-25.7989 Y57.4347 
G01 Z-0.0800 F254.00 
G01 X-25.7777 Y57.4559 F254.00 
G01 X-25.7500 Y57.4674 
G01 X-24.4200 Y57.4674 
G01 X-24.3923 Y57.4559 
G01 X-24.3711 Y57.4347 
G01 X-24.3596 Y57.4070 
G01 X-24.3596 Y56.9206 
G01 X-23.0116 Y56.9206 
G01 X-23.0116 Y56.9678 
G01 X-22.5508 Y57.4286 
G01 X-21.8992 Y57.4286 
G01 X-21.4384 Y56.9678 
G01 X-21.4384 Y56.3162 
G01 X-21.8992 Y55.8554 
G01 X-22.5508 Y55.8554 
G01 X-23.0116 Y56.3162 
G01 X-23.0116 Y56.3634 
G01 X-24.3596 Y56.3634 
G01 X-24.3596 Y55.8770 
G01 X-24.3711 Y55.8493 
G01 X-24.3923 Y55.8281 
G01 X-24.4200 Y55.8166 
G01 X-25.7500 Y55.8166 
G01 X-25.7777 Y55.8281 
G01 X-25.7989 Y55.8493 
G01 X-25.8104 Y55.8770 
G01 X-25.8104 Y57.4070 
G01 X-25.7989 Y57.4347 
G00 Z2.5400 
G00 X-25.7989 Y54.8947 
G01 Z-0.0800 F254.00 
G01 X-25.7777 Y54.9159 F254.00 
G01 X-25.7500 Y54.9274 
G01 X-24.4200 Y54.9274 
G01 X-24.3923 Y54.9159 
G01 X-24.3711 Y54.8947 
G01 X-24.3596 Y54.8670 
G01 X-24.3596 Y54.3806 
G01 X-23.0116 Y54.3806 
G01 X-23.0116 Y54.4278 
G01 X-22.5508 Y54.8886 
G01 X-21.8992 Y54.8886 
G01 X-21.4384 Y54.4278 
G01 X-21.4384 Y53.7762 
G01 X-21.8992 Y53.3154 
G01 X-22.5508 Y53.3154 
G01 X-23.0116 Y53.7762 
G01 X-23.0116 Y53.8234 
G01 X-24.3596 Y53.8234 
G01 X-24.3596 Y53.3370 
G01 X-24.3711 Y53.3093 
G01 X-24.3923 Y53.2881 
G01 X-24.4200 Y53.2766 
G01 X-25.7500 Y53.2766 
G01 X-25.7777 Y53.2881 
G01 X-25.7989 Y53.3093 
G01 X-25.8104 Y53.3370 
G01 X-25.8104 Y54.8670 
G01 X-25.7989 Y54.8947 
G00 Z2.5400 
G00 X-26.2711 Y54.8947 
G01 Z-0.0800 F254.00 
G01 X-26.2596 Y54.8670 F254.00 
G01 X-26.2596 Y53.3370 
G01 X-26.2711 Y53.3093 
G01 X-26.2923 Y53.2881 
G01 X-26.3200 Y53.2766 
G01 X-26.7064 Y53.2766 
G01 X-26.7064 Y52.3874 
G01 X-26.3200 Y52.3874 
G01 X-26.2923 Y52.3759 
G01 X-26.2711 Y52.3547 
G01 X-26.2596 Y52.3270 
G01 X-26.2596 Y50.7970 
G01 X-26.2711 Y50.7693 
G01 X-26.2923 Y50.7481 
G01 X-26.3200 Y50.7366 
G01 X-26.7064 Y50.7366 
G01 X-26.7064 Y49.8474 
G01 X-26.3200 Y49.8474 
G01 X-26.2923 Y49.8359 
G01 X-26.2711 Y49.8147 
G01 X-26.2596 Y49.7870 
G01 X-26.2596 Y48.2570 
G01 X-26.2711 Y48.2293 
G01 X-26.2923 Y48.2081 
G01 X-26.3200 Y48.1966 
G01 X-26.7064 Y48.1966 
G01 X-26.7064 Y47.3074 
G01 X-26.3200 Y47.3074 
G01 X-26.2923 Y47.2959 
G01 X-26.2711 Y47.2747 
G01 X-26.2596 Y47.2470 
G01 X-26.2596 Y45.7170 
G01 X-26.2711 Y45.6893 
G01 X-26.2923 Y45.6681 
G01 X-26.3200 Y45.6566 
G01 X-26.7064 Y45.6566 
G01 X-26.7064 Y44.7674 
G01 X-26.3200 Y44.7674 
G01 X-26.2923 Y44.7559 
G01 X-26.2711 Y44.7347 
G01 X-26.2596 Y44.7070 
G01 X-26.2596 Y43.1770 
G01 X-26.2711 Y43.1493 
G01 X-26.2923 Y43.1281 
G01 X-26.3200 Y43.1166 
G01 X-26.7064 Y43.1166 
G01 X-26.7064 Y42.2274 
G01 X-26.3200 Y42.2274 
G01 X-26.2923 Y42.2159 
G01 X-26.2711 Y42.1947 
G01 X-26.2596 Y42.1670 
G01 X-26.2596 Y40.6370 
G01 X-26.2711 Y40.6093 
G01 X-26.2923 Y40.5881 
G01 X-26.3200 Y40.5766 
G01 X-26.7064 Y40.5766 
G01 X-26.7064 Y39.6874 
G01 X-26.3200 Y39.6874 
G01 X-26.2923 Y39.6759 
G01 X-26.2711 Y39.6547 
G01 X-26.2596 Y39.6270 
G01 X-26.2596 Y38.0970 
G01 X-26.2711 Y38.0693 
G01 X-26.2923 Y38.0481 
G01 X-26.3200 Y38.0366 
G01 X-26.7064 Y38.0366 
G01 X-26.7064 Y37.1474 
G01 X-26.3200 Y37.1474 
G01 X-26.2923 Y37.1359 
G01 X-26.2711 Y37.1147 
G01 X-26.2596 Y37.0870 
G01 X-26.2596 Y35.5570 
G01 X-26.2711 Y35.5293 
G01 X-26.2923 Y35.5081 
G01 X-26.3200 Y35.4966 
G01 X-26.7064 Y35.4966 
G01 X-26.7064 Y30.1236 
G01 X-21.6336 Y30.1236 
G01 X-21.6336 Y30.4632 
G01 X-21.6221 Y30.4909 
G01 X-21.6009 Y30.5121 
G01 X-21.5732 Y30.5236 
G01 X-20.3368 Y30.5236 
G01 X-20.3091 Y30.5121 
G01 X-20.2879 Y30.4909 
G01 X-20.2764 Y30.4632 
G01 X-20.2764 Y29.2268 
G01 X-20.2879 Y29.1991 
G01 X-20.3091 Y29.1779 
G01 X-20.3368 Y29.1664 
G01 X-20.6764 Y29.1664 
G01 X-20.6764 Y21.8686 
G01 X-17.2353 Y21.8686 
G01 X-17.1645 Y21.8496 
G01 X-17.1009 Y21.8129 
G01 X-17.0491 Y21.7611 
G01 X-17.0124 Y21.6975 
G01 X-16.9934 Y21.6267 
G01 X-16.9934 Y17.2964 
G01 X-16.5070 Y17.2964 
G01 X-16.4793 Y17.2849 
G01 X-16.4581 Y17.2637 
G01 X-16.4466 Y17.2360 
G01 X-16.4466 Y15.9060 
G01 X-16.4581 Y15.8783 
G01 X-16.4793 Y15.8571 
G01 X-16.5070 Y15.8456 
G01 X-18.0370 Y15.8456 
G01 X-18.0647 Y15.8571 
G01 X-18.0859 Y15.8783 
G01 X-18.0974 Y15.9060 
G01 X-18.0974 Y16.3440 
G01 X-18.8596 Y16.3447 
G01 X-18.8596 Y15.9060 
G01 X-18.8711 Y15.8783 
G01 X-18.8923 Y15.8571 
G01 X-18.9200 Y15.8456 
G01 X-20.4500 Y15.8456 
G01 X-20.4777 Y15.8571 
G01 X-20.4989 Y15.8783 
G01 X-20.5104 Y15.9060 
G01 X-20.5104 Y16.3462 
G01 X-22.5052 Y16.3480 
G01 X-22.5052 Y10.8584 
G01 X-21.2400 Y10.8584 
G01 X-21.2123 Y10.8469 
G01 X-21.1911 Y10.8257 
G01 X-21.1796 Y10.7980 
G01 X-21.1796 Y9.2680 
G01 X-21.1911 Y9.2403 
G01 X-21.2123 Y9.2191 
G01 X-21.2400 Y9.2076 
G01 X-22.5700 Y9.2076 
G01 X-22.5977 Y9.2191 
G01 X-22.6189 Y9.2403 
G01 X-22.6304 Y9.2680 
G01 X-22.6304 Y9.8052 
G01 X-22.7783 Y9.8052 
G01 X-22.8620 Y9.8399 
G01 X-22.9261 Y9.9040 
G01 X-22.9608 Y9.9877 
G01 X-22.9608 Y16.5308 
G01 X-22.9608 Y16.5762 
G01 X-22.9608 Y16.6213 
G01 X-22.9431 Y16.6641 
G01 X-22.9261 Y16.7050 
G01 X-22.8940 Y16.7372 
G01 X-22.8620 Y16.7691 
G01 X-22.8205 Y16.7863 
G01 X-22.7783 Y16.8038 
G01 X-22.7338 Y16.8038 
G01 X-22.6877 Y16.8038 
G01 X-20.5104 Y16.8018 
G01 X-20.5104 Y17.2360 
G01 X-20.4989 Y17.2637 
G01 X-20.4777 Y17.2849 
G01 X-20.4500 Y17.2964 
G01 X-18.9200 Y17.2964 
G01 X-18.8923 Y17.2849 
G01 X-18.8711 Y17.2637 
G01 X-18.8596 Y17.2360 
G01 X-18.8596 Y16.8002 
G01 X-18.0974 Y16.7996 
G01 X-18.0974 Y17.2360 
G01 X-18.0859 Y17.2637 
G01 X-18.0647 Y17.2849 
G01 X-18.0370 Y17.2964 
G01 X-17.5506 Y17.2964 
G01 X-17.5506 Y21.3114 
G01 X-20.9917 Y21.3114 
G01 X-21.0625 Y21.3304 
G01 X-21.1261 Y21.3671 
G01 X-21.1779 Y21.4189 
G01 X-21.2146 Y21.4825 
G01 X-21.2336 Y21.5533 
G01 X-21.2336 Y29.1664 
G01 X-21.5732 Y29.1664 
G01 X-21.6009 Y29.1779 
G01 X-21.6221 Y29.1991 
G01 X-21.6336 Y29.2268 
G01 X-21.6336 Y29.5664 
G01 X-28.0059 Y29.5664 
G01 X-28.0071 Y29.5605 
G01 X-28.0806 Y29.3830 
G01 X-28.1874 Y29.2232 
G01 X-28.3232 Y29.0874 
G01 X-28.4830 Y28.9806 
G01 X-28.6605 Y28.9071 
G01 X-28.8489 Y28.8696 
G01 X-30.8411 Y28.8696 
G01 X-31.0295 Y28.9071 
G01 X-31.2070 Y28.9806 
G01 X-31.3668 Y29.0874 
G01 X-31.5026 Y29.2232 
G01 X-31.6094 Y29.3830 
G01 X-31.6829 Y29.5605 
G01 X-31.7204 Y29.7489 
G01 X-31.7204 Y29.9411 
G01 X-31.6829 Y30.1295 
G01 X-31.6094 Y30.3070 
G01 X-31.5026 Y30.4668 
G01 X-31.3668 Y30.6026 
G01 X-31.2070 Y30.7094 
G01 X-31.0295 Y30.7829 
G01 X-30.8411 Y30.8204 
G01 X-28.8489 Y30.8204 
G01 X-28.6605 Y30.7829 
G01 X-28.4830 Y30.7094 
G01 X-28.3232 Y30.6026 
G01 X-28.1874 Y30.4668 
G01 X-28.0806 Y30.3070 
G01 X-28.0071 Y30.1295 
G01 X-28.0059 Y30.1236 
G01 X-27.2636 Y30.1236 
G01 X-27.2636 Y35.4966 
G01 X-27.6500 Y35.4966 
G01 X-27.6777 Y35.5081 
G01 X-27.6989 Y35.5293 
G01 X-27.7104 Y35.5570 
G01 X-27.7104 Y36.0434 
G01 X-28.2966 Y36.0434 
G01 X-28.2966 Y35.5570 
G01 X-28.3081 Y35.5293 
G01 X-28.3293 Y35.5081 
G01 X-28.3570 Y35.4966 
G01 X-29.6870 Y35.4966 
G01 X-29.7147 Y35.5081 
G01 X-29.7359 Y35.5293 
G01 X-29.7474 Y35.5570 
G01 X-29.7474 Y37.0870 
G01 X-29.7359 Y37.1147 
G01 X-29.7147 Y37.1359 
G01 X-29.6870 Y37.1474 
G01 X-28.3570 Y37.1474 
G01 X-28.3293 Y37.1359 
G01 X-28.3081 Y37.1147 
G01 X-28.2966 Y37.0870 
G01 X-28.2966 Y36.6006 
G01 X-27.7104 Y36.6006 
G01 X-27.7104 Y37.0870 
G01 X-27.6989 Y37.1147 
G01 X-27.6777 Y37.1359 
G01 X-27.6500 Y37.1474 
G01 X-27.2636 Y37.1474 
G01 X-27.2636 Y38.0366 
G01 X-27.6500 Y38.0366 
G01 X-27.6777 Y38.0481 
G01 X-27.6989 Y38.0693 
G01 X-27.7104 Y38.0970 
G01 X-27.7104 Y39.6270 
G01 X-27.6989 Y39.6547 
G01 X-27.6777 Y39.6759 
G01 X-27.6500 Y39.6874 
G01 X-27.2636 Y39.6874 
G01 X-27.2636 Y40.5766 
G01 X-27.6500 Y40.5766 
G01 X-27.6777 Y40.5881 
G01 X-27.6989 Y40.6093 
G01 X-27.7104 Y40.6370 
G01 X-27.7104 Y42.1670 
G01 X-27.6989 Y42.1947 
G01 X-27.6777 Y42.2159 
G01 X-27.6500 Y42.2274 
G01 X-27.2636 Y42.2274 
G01 X-27.2636 Y43.1166 
G01 X-27.6500 Y43.1166 
G01 X-27.6777 Y43.1281 
G01 X-27.6989 Y43.1493 
G01 X-27.7104 Y43.1770 
G01 X-27.7104 Y44.7070 
G01 X-27.6989 Y44.7347 
G01 X-27.6777 Y44.7559 
G01 X-27.6500 Y44.7674 
G01 X-27.2636 Y44.7674 
G01 X-27.2636 Y45.6566 
G01 X-27.6500 Y45.6566 
G01 X-27.6777 Y45.6681 
G01 X-27.6989 Y45.6893 
G01 X-27.7104 Y45.7170 
G01 X-27.7104 Y47.2470 
G01 X-27.6989 Y47.2747 
G01 X-27.6777 Y47.2959 
G01 X-27.6500 Y47.3074 
G01 X-27.2636 Y47.3074 
G01 X-27.2636 Y48.1966 
G01 X-27.6500 Y48.1966 
G01 X-27.6777 Y48.2081 
G01 X-27.6989 Y48.2293 
G01 X-27.7104 Y48.2570 
G01 X-27.7104 Y49.7870 
G01 X-27.6989 Y49.8147 
G01 X-27.6777 Y49.8359 
G01 X-27.6500 Y49.8474 
G01 X-27.2636 Y49.8474 
G01 X-27.2636 Y50.7366 
G01 X-27.6500 Y50.7366 
G01 X-27.6777 Y50.7481 
G01 X-27.6989 Y50.7693 
G01 X-27.7104 Y50.7970 
G01 X-27.7104 Y52.3270 
G01 X-27.6989 Y52.3547 
G01 X-27.6777 Y52.3759 
G01 X-27.6500 Y52.3874 
G01 X-27.2636 Y52.3874 
G01 X-27.2636 Y53.2766 
G01 X-27.6500 Y53.2766 
G01 X-27.6777 Y53.2881 
G01 X-27.6989 Y53.3093 
G01 X-27.7104 Y53.3370 
G01 X-27.7104 Y53.8234 
G01 X-31.2127 Y53.8234 
G01 X-31.2835 Y53.8424 
G01 X-31.3471 Y53.8791 
G01 X-31.3989 Y53.9309 
G01 X-31.4356 Y53.9945 
G01 X-31.4546 Y54.0653 
G01 X-31.4546 Y58.1096 
G01 X-31.6910 Y58.1096 
G01 X-31.7187 Y58.1211 
G01 X-31.7399 Y58.1423 
G01 X-31.7514 Y58.1700 
G01 X-31.7514 Y59.6000 
G01 X-31.7399 Y59.6277 
G01 X-31.7187 Y59.6489 
G01 X-31.6910 Y59.6604 
G01 X-30.6610 Y59.6604 
G01 X-30.6333 Y59.6489 
G01 X-30.6121 Y59.6277 
G01 X-30.6006 Y59.6000 
G01 X-30.6006 Y58.1700 
G01 X-30.6121 Y58.1423 
G01 X-30.6333 Y58.1211 
G01 X-30.6610 Y58.1096 
G01 X-30.8974 Y58.1096 
G01 X-30.8974 Y54.3806 
G01 X-27.7104 Y54.3806 
G01 X-27.7104 Y54.8670 
G01 X-27.6989 Y54.8947 
G01 X-27.6777 Y54.9159 
G01 X-27.6500 Y54.9274 
G01 X-26.3200 Y54.9274 
G01 X-26.2923 Y54.9159 
G01 X-26.2711 Y54.8947 
G00 Z2.5400 
G00 X-25.7989 Y52.3547 
G01 Z-0.0800 F254.00 
G01 X-25.7777 Y52.3759 F254.00 
G01 X-25.7500 Y52.3874 
G01 X-24.4200 Y52.3874 
G01 X-24.3923 Y52.3759 
G01 X-24.3711 Y52.3547 
G01 X-24.3596 Y52.3270 
G01 X-24.3596 Y51.8406 
G01 X-23.0116 Y51.8406 
G01 X-23.0116 Y51.8878 
G01 X-22.5508 Y52.3486 
G01 X-21.8992 Y52.3486 
G01 X-21.4384 Y51.8878 
G01 X-21.4384 Y51.2362 
G01 X-21.8992 Y50.7754 
G01 X-22.5508 Y50.7754 
G01 X-23.0116 Y51.2362 
G01 X-23.0116 Y51.2834 
G01 X-24.3596 Y51.2834 
G01 X-24.3596 Y50.7970 
G01 X-24.3711 Y50.7693 
G01 X-24.3923 Y50.7481 
G01 X-24.4200 Y50.7366 
G01 X-25.7500 Y50.7366 
G01 X-25.7777 Y50.7481 
G01 X-25.7989 Y50.7693 
G01 X-25.8104 Y50.7970 
G01 X-25.8104 Y52.3270 
G01 X-25.7989 Y52.3547 
G00 Z2.5400 
G00 X-25.7989 Y49.8147 
G01 Z-0.0800 F254.00 
G01 X-25.7777 Y49.8359 F254.00 
G01 X-25.7500 Y49.8474 
G01 X-24.4200 Y49.8474 
G01 X-24.3923 Y49.8359 
G01 X-24.3711 Y49.8147 
G01 X-24.3596 Y49.7870 
G01 X-24.3596 Y49.3006 
G01 X-23.0116 Y49.3006 
G01 X-23.0116 Y49.3478 
G01 X-22.5508 Y49.8086 
G01 X-21.8992 Y49.8086 
G01 X-21.4384 Y49.3478 
G01 X-21.4384 Y48.6962 
G01 X-21.8992 Y48.2354 
G01 X-22.5508 Y48.2354 
G01 X-23.0116 Y48.6962 
G01 X-23.0116 Y48.7434 
G01 X-24.3596 Y48.7434 
G01 X-24.3596 Y48.2570 
G01 X-24.3711 Y48.2293 
G01 X-24.3923 Y48.2081 
G01 X-24.4200 Y48.1966 
G01 X-25.7500 Y48.1966 
G01 X-25.7777 Y48.2081 
G01 X-25.7989 Y48.2293 
G01 X-25.8104 Y48.2570 
G01 X-25.8104 Y49.7870 
G01 X-25.7989 Y49.8147 
G00 Z2.5400 
G00 X-25.7989 Y47.2747 
G01 Z-0.0800 F254.00 
G01 X-25.7777 Y47.2959 F254.00 
G01 X-25.7500 Y47.3074 
G01 X-24.4200 Y47.3074 
G01 X-24.3923 Y47.2959 
G01 X-24.3711 Y47.2747 
G01 X-24.3596 Y47.2470 
G01 X-24.3596 Y46.7606 
G01 X-23.0116 Y46.7606 
G01 X-23.0116 Y46.8078 
G01 X-22.5508 Y47.2686 
G01 X-21.8992 Y47.2686 
G01 X-21.4384 Y46.8078 
G01 X-21.4384 Y46.1562 
G01 X-21.8992 Y45.6954 
G01 X-22.5508 Y45.6954 
G01 X-23.0116 Y46.1562 
G01 X-23.0116 Y46.2034 
G01 X-24.3596 Y46.2034 
G01 X-24.3596 Y45.7170 
G01 X-24.3711 Y45.6893 
G01 X-24.3923 Y45.6681 
G01 X-24.4200 Y45.6566 
G01 X-25.7500 Y45.6566 
G01 X-25.7777 Y45.6681 
G01 X-25.7989 Y45.6893 
G01 X-25.8104 Y45.7170 
G01 X-25.8104 Y47.2470 
G01 X-25.7989 Y47.2747 
G00 Z2.5400 
G00 X-25.7989 Y44.7347 
G01 Z-0.0800 F254.00 
G01 X-25.7777 Y44.7559 F254.00 
G01 X-25.7500 Y44.7674 
G01 X-24.4200 Y44.7674 
G01 X-24.3923 Y44.7559 
G01 X-24.3711 Y44.7347 
G01 X-24.3596 Y44.7070 
G01 X-24.3596 Y44.2206 
G01 X-23.0116 Y44.2206 
G01 X-23.0116 Y44.2678 
G01 X-22.5508 Y44.7286 
G01 X-21.8992 Y44.7286 
G01 X-21.4384 Y44.2678 
G01 X-21.4384 Y43.6162 
G01 X-21.8992 Y43.1554 
G01 X-22.5508 Y43.1554 
G01 X-23.0116 Y43.6162 
G01 X-23.0116 Y43.6634 
G01 X-24.3596 Y43.6634 
G01 X-24.3596 Y43.1770 
G01 X-24.3711 Y43.1493 
G01 X-24.3923 Y43.1281 
G01 X-24.4200 Y43.1166 
G01 X-25.7500 Y43.1166 
G01 X-25.7777 Y43.1281 
G01 X-25.7989 Y43.1493 
G01 X-25.8104 Y43.1770 
G01 X-25.8104 Y44.7070 
G01 X-25.7989 Y44.7347 
G00 Z2.5400 
G00 X-25.7989 Y42.1947 
G01 Z-0.0800 F254.00 
G01 X-25.7777 Y42.2159 F254.00 
G01 X-25.7500 Y42.2274 
G01 X-24.4200 Y42.2274 
G01 X-24.3923 Y42.2159 
G01 X-24.3711 Y42.1947 
G01 X-24.3596 Y42.1670 
G01 X-24.3596 Y41.6806 
G01 X-23.0116 Y41.6806 
G01 X-23.0116 Y41.7278 
G01 X-22.5508 Y42.1886 
G01 X-21.8992 Y42.1886 
G01 X-21.4384 Y41.7278 
G01 X-21.4384 Y41.0762 
G01 X-21.8992 Y40.6154 
G01 X-22.5508 Y40.6154 
G01 X-23.0116 Y41.0762 
G01 X-23.0116 Y41.1234 
G01 X-24.3596 Y41.1234 
G01 X-24.3596 Y40.6370 
G01 X-24.3711 Y40.6093 
G01 X-24.3923 Y40.5881 
G01 X-24.4200 Y40.5766 
G01 X-25.7500 Y40.5766 
G01 X-25.7777 Y40.5881 
G01 X-25.7989 Y40.6093 
G01 X-25.8104 Y40.6370 
G01 X-25.8104 Y42.1670 
G01 X-25.7989 Y42.1947 
G00 Z2.5400 
G00 X-25.7989 Y39.6547 
G01 Z-0.0800 F254.00 
G01 X-25.7777 Y39.6759 F254.00 
G01 X-25.7500 Y39.6874 
G01 X-24.4200 Y39.6874 
G01 X-24.3923 Y39.6759 
G01 X-24.3711 Y39.6547 
G01 X-24.3596 Y39.6270 
G01 X-24.3596 Y39.1406 
G01 X-23.0116 Y39.1406 
G01 X-23.0116 Y39.1878 
G01 X-22.5508 Y39.6486 
G01 X-21.8992 Y39.6486 
G01 X-21.4384 Y39.1878 
G01 X-21.4384 Y38.5362 
G01 X-21.8992 Y38.0754 
G01 X-22.5508 Y38.0754 
G01 X-23.0116 Y38.5362 
G01 X-23.0116 Y38.5834 
G01 X-24.3596 Y38.5834 
G01 X-24.3596 Y38.0970 
G01 X-24.3711 Y38.0693 
G01 X-24.3923 Y38.0481 
G01 X-24.4200 Y38.0366 
G01 X-25.7500 Y38.0366 
G01 X-25.7777 Y38.0481 
G01 X-25.7989 Y38.0693 
G01 X-25.8104 Y38.0970 
G01 X-25.8104 Y39.6270 
G01 X-25.7989 Y39.6547 
G00 Z2.5400 
G00 X-25.7989 Y37.1147 
G01 Z-0.0800 F254.00 
G01 X-25.7777 Y37.1359 F254.00 
G01 X-25.7500 Y37.1474 
G01 X-24.4200 Y37.1474 
G01 X-24.3923 Y37.1359 
G01 X-24.3711 Y37.1147 
G01 X-24.3596 Y37.0870 
G01 X-24.3596 Y36.6006 
G01 X-23.0116 Y36.6006 
G01 X-23.0116 Y36.6478 
G01 X-22.5508 Y37.1086 
G01 X-21.8992 Y37.1086 
G01 X-21.4384 Y36.6478 
G01 X-21.4384 Y35.9962 
G01 X-21.8992 Y35.5354 
G01 X-22.5508 Y35.5354 
G01 X-23.0116 Y35.9962 
G01 X-23.0116 Y36.0434 
G01 X-24.3596 Y36.0434 
G01 X-24.3596 Y35.5570 
G01 X-24.3711 Y35.5293 
G01 X-24.3923 Y35.5081 
G01 X-24.4200 Y35.4966 
G01 X-25.7500 Y35.4966 
G01 X-25.7777 Y35.5081 
G01 X-25.7989 Y35.5293 
G01 X-25.8104 Y35.5570 
G01 X-25.8104 Y37.0870 
G01 X-25.7989 Y37.1147 
G00 Z2.5400 
G00 X-25.8558 Y27.7376 
G01 Z-0.0800 F254.00 
G01 X-27.8663 Y27.7376 F254.00 
G01 X-27.8941 Y27.7491 
G01 X-27.9153 Y27.7703 
G01 X-27.9168 Y27.7739 
G01 X-27.9875 Y27.9448 
G01 X-28.3052 Y28.2625 
G01 X-28.7203 Y28.4344 
G01 X-30.9697 Y28.4344 
G01 X-31.3848 Y28.2625 
G01 X-31.7025 Y27.9448 
G01 X-31.8744 Y27.5297 
G01 X-31.8744 Y27.0803 
G01 X-31.7025 Y26.6652 
G01 X-31.3848 Y26.3475 
G01 X-30.9697 Y26.1756 
G01 X-28.7203 Y26.1756 
G01 X-28.3052 Y26.3475 
G01 X-27.9875 Y26.6652 
G01 X-27.9153 Y26.8397 
G01 X-27.8941 Y26.8609 
G01 X-27.8663 Y26.8724 
G01 X-26.5280 Y26.8724 
G01 X-26.5003 Y26.8609 
G01 X-26.4791 Y26.8397 
G01 X-26.4676 Y26.8120 
G01 X-26.4676 Y26.0198 
G01 X-26.4791 Y25.9921 
G01 X-26.5003 Y25.9709 
G01 X-26.5280 Y25.9594 
G01 X-26.8800 Y25.9594 
G01 X-27.0144 Y25.8250 
G01 X-27.0144 Y24.3350 
G01 X-26.8734 Y24.1939 
G01 X-26.8552 Y24.1757 
G01 X-26.8522 Y24.1727 
G01 X-26.8407 Y24.1450 
G01 X-26.8407 Y24.1150 
G01 X-26.8522 Y24.0873 
G01 X-26.8734 Y24.0661 
G01 X-27.0144 Y23.9250 
G01 X-27.0144 Y22.4350 
G01 X-26.8800 Y22.3006 
G01 X-25.1900 Y22.3006 
G01 X-25.0556 Y22.4350 
G01 X-25.0556 Y22.6870 
G01 X-25.0441 Y22.7147 
G01 X-25.0229 Y22.7359 
G01 X-24.9952 Y22.7474 
G01 X-24.2808 Y22.7474 
G01 X-24.2531 Y22.7359 
G01 X-24.2319 Y22.7147 
G01 X-24.2204 Y22.6870 
G01 X-24.2204 Y22.4350 
G01 X-24.0860 Y22.3006 
G01 X-23.7340 Y22.3006 
G01 X-23.7063 Y22.2891 
G01 X-23.6851 Y22.2679 
G01 X-23.6736 Y22.2402 
G01 X-23.6736 Y20.7622 
G01 X-23.6851 Y20.7345 
G01 X-23.7063 Y20.7133 
G01 X-23.7340 Y20.7018 
G01 X-24.8307 Y20.7018 
G01 X-24.8584 Y20.7133 
G01 X-24.8796 Y20.7345 
G01 X-24.9405 Y20.8816 
G01 X-25.2194 Y21.1605 
G01 X-25.5838 Y21.3114 
G01 X-27.5022 Y21.3114 
G01 X-27.8666 Y21.1605 
G01 X-28.1455 Y20.8816 
G01 X-28.2964 Y20.5172 
G01 X-28.2964 Y20.1228 
G01 X-28.1455 Y19.7584 
G01 X-27.8666 Y19.4795 
G01 X-27.5022 Y19.3286 
G01 X-25.5838 Y19.3286 
G01 X-25.2194 Y19.4795 
G01 X-24.9405 Y19.7584 
G01 X-24.8796 Y19.9055 
G01 X-24.8584 Y19.9267 
G01 X-24.8307 Y19.9382 
G01 X-23.6752 Y19.9382 
G01 X-23.6475 Y19.9267 
G01 X-23.6263 Y19.9055 
G01 X-23.6148 Y19.8778 
G01 X-23.6148 Y19.3498 
G01 X-23.6263 Y19.3221 
G01 X-23.6475 Y19.3009 
G01 X-23.6752 Y19.2894 
G01 X-23.9780 Y19.2894 
G01 X-24.1124 Y19.1550 
G01 X-24.1124 Y18.7368 
G01 X-24.1148 Y18.7310 
G01 X-24.1148 Y18.2222 
G01 X-24.1263 Y18.1945 
G01 X-24.1475 Y18.1733 
G01 X-24.1752 Y18.1618 
G01 X-24.8307 Y18.1618 
G01 X-24.8584 Y18.1733 
G01 X-24.8796 Y18.1945 
G01 X-24.9405 Y18.3416 
G01 X-25.2194 Y18.6205 
G01 X-25.5838 Y18.7714 
G01 X-27.5022 Y18.7714 
G01 X-27.8666 Y18.6205 
G01 X-28.1455 Y18.3416 
G01 X-28.2064 Y18.1945 
G01 X-28.2276 Y18.1733 
G01 X-28.2553 Y18.1618 
G01 X-28.6662 Y18.1618 
G01 X-28.6939 Y18.1733 
G01 X-28.7151 Y18.1945 
G01 X-28.7266 Y18.2222 
G01 X-28.7266 Y18.5254 
G01 X-28.9726 Y18.7714 
G01 X-30.4628 Y18.7714 
G01 X-30.4776 Y18.7714 
G01 X-30.4921 Y18.7714 
G01 X-30.5837 Y18.7733 
G01 X-30.6481 Y18.7089 
G01 X-30.6587 Y18.6983 
G01 X-30.6688 Y18.6882 
G01 X-30.7348 Y18.6248 
G01 X-30.7348 Y18.5338 
G01 X-30.7348 Y18.5190 
G01 X-30.7348 Y18.5045 
G01 X-30.7357 Y18.4703 
G01 X-30.1308 Y17.8654 
G01 X-30.1024 Y17.8371 
G01 X-30.0871 Y17.8000 
G01 X-30.0871 Y17.7599 
G01 X-30.1024 Y17.7229 
G01 X-30.7357 Y17.0897 
G01 X-30.7351 Y17.0561 
G01 X-30.7348 Y17.0410 
G01 X-30.7346 Y17.0268 
G01 X-30.7348 Y16.9352 
G01 X-30.6694 Y16.8721 
G01 X-30.6586 Y16.8616 
G01 X-30.6483 Y16.8517 
G01 X-30.6386 Y16.8417 
G01 X-30.5837 Y16.7867 
G01 X-30.4927 Y16.7883 
G01 X-30.4776 Y16.7886 
G01 X-30.4634 Y16.7888 
G01 X-28.9726 Y16.7886 
G01 X-28.7266 Y17.0346 
G01 X-28.7266 Y17.3378 
G01 X-28.7151 Y17.3655 
G01 X-28.6939 Y17.3867 
G01 X-28.6662 Y17.3982 
G01 X-28.2553 Y17.3982 
G01 X-28.2276 Y17.3867 
G01 X-28.2064 Y17.3655 
G01 X-28.1455 Y17.2184 
G01 X-27.8666 Y16.9395 
G01 X-27.5022 Y16.7886 
G01 X-25.5838 Y16.7886 
G01 X-25.2194 Y16.9395 
G01 X-24.9405 Y17.2184 
G01 X-24.8796 Y17.3655 
G01 X-24.8584 Y17.3867 
G01 X-24.8307 Y17.3982 
G01 X-23.5748 Y17.3982 
G01 X-23.3512 Y17.6218 
G01 X-23.3512 Y17.7702 
G01 X-23.3397 Y17.7979 
G01 X-23.3185 Y17.8191 
G01 X-23.2908 Y17.8306 
G01 X-22.9880 Y17.8306 
G01 X-22.8536 Y17.9650 
G01 X-22.8536 Y17.9846 
G01 X-22.8980 Y17.9846 
G01 X-22.9257 Y17.9961 
G01 X-22.9469 Y18.0173 
G01 X-22.9584 Y18.0450 
G01 X-22.9584 Y19.0750 
G01 X-22.9469 Y19.1027 
G01 X-22.9257 Y19.1239 
G01 X-22.8980 Y19.1354 
G01 X-22.8512 Y19.1354 
G01 X-22.8512 Y20.0738 
G01 X-22.8397 Y20.1015 
G01 X-22.8185 Y20.1227 
G01 X-22.8004 Y20.1408 
G01 X-22.8004 Y20.5041 
G01 X-22.8084 Y20.5234 
G01 X-22.8084 Y22.2402 
G01 X-22.7969 Y22.2679 
G01 X-22.7757 Y22.2891 
G01 X-22.7480 Y22.3006 
G01 X-22.3960 Y22.3006 
G01 X-22.2616 Y22.4350 
G01 X-22.2616 Y23.9250 
G01 X-22.3960 Y24.0594 
G01 X-24.0860 Y24.0594 
G01 X-24.2204 Y23.9250 
G01 X-24.2204 Y23.6730 
G01 X-24.2319 Y23.6453 
G01 X-24.2531 Y23.6241 
G01 X-24.2808 Y23.6126 
G01 X-24.9952 Y23.6126 
G01 X-25.0229 Y23.6241 
G01 X-25.0441 Y23.6453 
G01 X-25.0556 Y23.6730 
G01 X-25.0556 Y23.9250 
G01 X-25.1966 Y24.0661 
G01 X-25.2148 Y24.0843 
G01 X-25.2178 Y24.0873 
G01 X-25.2293 Y24.1150 
G01 X-25.2293 Y24.1450 
G01 X-25.2178 Y24.1727 
G01 X-25.1966 Y24.1939 
G01 X-25.0556 Y24.3350 
G01 X-25.0556 Y25.8250 
G01 X-25.1900 Y25.9594 
G01 X-25.5420 Y25.9594 
G01 X-25.5697 Y25.9709 
G01 X-25.5909 Y25.9921 
G01 X-25.6024 Y26.0198 
G01 X-25.6024 Y27.4842 
G01 X-25.8558 Y27.7376 
G00 Z2.5400 
G00 X-25.8639 Y27.5279 
G01 Z-0.0800 F254.00 
G01 X-25.8121 Y27.4761 F254.00 
G01 X-25.7754 Y27.4125 
G01 X-25.7564 Y27.3417 
G01 X-25.7564 Y25.8054 
G01 X-25.2700 Y25.8054 
G01 X-25.2423 Y25.7939 
G01 X-25.2211 Y25.7727 
G01 X-25.2096 Y25.7450 
G01 X-25.2096 Y24.4150 
G01 X-25.2211 Y24.3873 
G01 X-25.2423 Y24.3661 
G01 X-25.2700 Y24.3546 
G01 X-26.8000 Y24.3546 
G01 X-26.8277 Y24.3661 
G01 X-26.8489 Y24.3873 
G01 X-26.8604 Y24.4150 
G01 X-26.8604 Y25.7450 
G01 X-26.8489 Y25.7727 
G01 X-26.8277 Y25.7939 
G01 X-26.8000 Y25.8054 
G01 X-26.3136 Y25.8054 
G01 X-26.3136 Y27.0264 
G01 X-28.0059 Y27.0264 
G01 X-28.0071 Y27.0205 
G01 X-28.0806 Y26.8430 
G01 X-28.1874 Y26.6832 
G01 X-28.3232 Y26.5474 
G01 X-28.4830 Y26.4406 
G01 X-28.6605 Y26.3671 
G01 X-28.8489 Y26.3296 
G01 X-30.8411 Y26.3296 
G01 X-31.0295 Y26.3671 
G01 X-31.2070 Y26.4406 
G01 X-31.3668 Y26.5474 
G01 X-31.5026 Y26.6832 
G01 X-31.6094 Y26.8430 
G01 X-31.6829 Y27.0205 
G01 X-31.7204 Y27.2089 
G01 X-31.7204 Y27.4011 
G01 X-31.6829 Y27.5895 
G01 X-31.6094 Y27.7670 
G01 X-31.5026 Y27.9268 
G01 X-31.3668 Y28.0626 
G01 X-31.2070 Y28.1694 
G01 X-31.0295 Y28.2429 
G01 X-30.8411 Y28.2804 
G01 X-28.8489 Y28.2804 
G01 X-28.6605 Y28.2429 
G01 X-28.4830 Y28.1694 
G01 X-28.3232 Y28.0626 
G01 X-28.1874 Y27.9268 
G01 X-28.0806 Y27.7670 
G01 X-28.0071 Y27.5895 
G01 X-28.0059 Y27.5836 
G01 X-25.9983 Y27.5836 
G01 X-25.9275 Y27.5646 
G01 X-25.8639 Y27.5279 
G00 Z2.5400 
G00 X-25.2700 Y23.9054 
G01 Z-0.0800 F254.00 
G01 X-25.2423 Y23.8939 F254.00 
G01 X-25.2211 Y23.8727 
G01 X-25.2096 Y23.8450 
G01 X-25.2096 Y23.4586 
G01 X-24.0664 Y23.4586 
G01 X-24.0664 Y23.8450 
G01 X-24.0549 Y23.8727 
G01 X-24.0337 Y23.8939 
G01 X-24.0060 Y23.9054 
G01 X-22.4760 Y23.9054 
G01 X-22.4483 Y23.8939 
G01 X-22.4271 Y23.8727 
G01 X-22.4156 Y23.8450 
G01 X-22.4156 Y22.5150 
G01 X-22.4271 Y22.4873 
G01 X-22.4483 Y22.4661 
G01 X-22.4760 Y22.4546 
G01 X-22.9624 Y22.4546 
G01 X-22.9624 Y20.3865 
G01 X-22.9544 Y20.3567 
G01 X-22.9544 Y20.2833 
G01 X-22.9734 Y20.2125 
G01 X-23.0052 Y20.1574 
G01 X-23.0052 Y18.5147 
G01 X-23.0076 Y18.5089 
G01 X-23.0076 Y18.0450 
G01 X-23.0191 Y18.0173 
G01 X-23.0403 Y17.9961 
G01 X-23.0680 Y17.9846 
G01 X-23.3980 Y17.9846 
G01 X-23.4257 Y17.9961 
G01 X-23.4469 Y18.0173 
G01 X-23.4584 Y18.0450 
G01 X-23.4584 Y18.5089 
G01 X-23.4608 Y18.5147 
G01 X-23.4608 Y20.0922 
G01 X-24.9725 Y20.0922 
G01 X-24.9758 Y20.0757 
G01 X-25.0389 Y19.9233 
G01 X-25.1305 Y19.7862 
G01 X-25.2472 Y19.6695 
G01 X-25.3843 Y19.5779 
G01 X-25.5367 Y19.5148 
G01 X-25.6985 Y19.4826 
G01 X-27.3875 Y19.4826 
G01 X-27.5493 Y19.5148 
G01 X-27.7017 Y19.5779 
G01 X-27.8388 Y19.6695 
G01 X-27.9554 Y19.7862 
G01 X-28.0471 Y19.9233 
G01 X-28.1102 Y20.0757 
G01 X-28.1424 Y20.2375 
G01 X-28.1424 Y20.4025 
G01 X-28.1102 Y20.5643 
G01 X-28.0471 Y20.7167 
G01 X-27.9554 Y20.8538 
G01 X-27.8388 Y20.9704 
G01 X-27.7017 Y21.0621 
G01 X-27.5493 Y21.1252 
G01 X-27.3875 Y21.1574 
G01 X-25.6985 Y21.1574 
G01 X-25.5367 Y21.1252 
G01 X-25.3843 Y21.0621 
G01 X-25.2472 Y20.9704 
G01 X-25.1305 Y20.8538 
G01 X-25.0389 Y20.7167 
G01 X-24.9758 Y20.5643 
G01 X-24.9725 Y20.5478 
G01 X-23.5196 Y20.5478 
G01 X-23.5196 Y22.4546 
G01 X-24.0060 Y22.4546 
G01 X-24.0337 Y22.4661 
G01 X-24.0549 Y22.4873 
G01 X-24.0664 Y22.5150 
G01 X-24.0664 Y22.9014 
G01 X-25.2096 Y22.9014 
G01 X-25.2096 Y22.5150 
G01 X-25.2211 Y22.4873 
G01 X-25.2423 Y22.4661 
G01 X-25.2700 Y22.4546 
G01 X-26.8000 Y22.4546 
G01 X-26.8277 Y22.4661 
G01 X-26.8489 Y22.4873 
G01 X-26.8604 Y22.5150 
G01 X-26.8604 Y23.8450 
G01 X-26.8489 Y23.8727 
G01 X-26.8277 Y23.8939 
G01 X-26.8000 Y23.9054 
G01 X-25.2700 Y23.9054 
G00 Z2.5400 
G00 X-25.3843 Y18.5221 
G01 Z-0.0800 F254.00 
G01 X-25.2472 Y18.4305 F254.00 
G01 X-25.1305 Y18.3138 
G01 X-25.0389 Y18.1767 
G01 X-24.9758 Y18.0243 
G01 X-24.9725 Y18.0078 
G01 X-23.9608 Y18.0078 
G01 X-23.9608 Y18.6053 
G01 X-23.9584 Y18.6111 
G01 X-23.9584 Y19.0750 
G01 X-23.9469 Y19.1027 
G01 X-23.9257 Y19.1239 
G01 X-23.8980 Y19.1354 
G01 X-23.5680 Y19.1354 
G01 X-23.5403 Y19.1239 
G01 X-23.5191 Y19.1027 
G01 X-23.5076 Y19.0750 
G01 X-23.5076 Y18.6111 
G01 X-23.5052 Y18.6053 
G01 X-23.5052 Y17.7347 
G01 X-23.5399 Y17.6510 
G01 X-23.6040 Y17.5869 
G01 X-23.6877 Y17.5522 
G01 X-24.9725 Y17.5522 
G01 X-24.9758 Y17.5357 
G01 X-25.0389 Y17.3833 
G01 X-25.1305 Y17.2462 
G01 X-25.2472 Y17.1295 
G01 X-25.3843 Y17.0379 
G01 X-25.5367 Y16.9748 
G01 X-25.6985 Y16.9426 
G01 X-27.3875 Y16.9426 
G01 X-27.5493 Y16.9748 
G01 X-27.7017 Y17.0379 
G01 X-27.8388 Y17.1295 
G01 X-27.9554 Y17.2462 
G01 X-28.0471 Y17.3833 
G01 X-28.1102 Y17.5357 
G01 X-28.1135 Y17.5522 
G01 X-28.8806 Y17.5522 
G01 X-28.8806 Y17.1735 
G01 X-28.8987 Y17.1059 
G01 X-28.9337 Y17.0452 
G01 X-28.9832 Y16.9957 
G01 X-29.0439 Y16.9607 
G01 X-29.1115 Y16.9426 
G01 X-30.4791 Y16.9426 
G01 X-30.4983 Y16.9423 
G01 X-30.5177 Y16.9499 
G01 X-30.5356 Y16.9570 
G01 X-30.5506 Y16.9714 
G01 X-30.5644 Y16.9848 
G01 X-30.5728 Y17.0040 
G01 X-30.5804 Y17.0216 
G01 X-30.5808 Y17.0425 
G01 X-30.5811 Y17.0617 
G01 X-30.5735 Y17.0811 
G01 X-30.5664 Y17.0990 
G01 X-30.5520 Y17.1139 
G01 X-29.9089 Y17.7800 
G01 X-30.5520 Y18.4460 
G01 X-30.5654 Y18.4595 
G01 X-30.5735 Y18.4789 
G01 X-30.5808 Y18.4965 
G01 X-30.5808 Y18.5175 
G01 X-30.5808 Y18.5367 
G01 X-30.5728 Y18.5560 
G01 X-30.5654 Y18.5737 
G01 X-30.5506 Y18.5886 
G01 X-30.5371 Y18.6020 
G01 X-30.5177 Y18.6101 
G01 X-30.5001 Y18.6174 
G01 X-30.4791 Y18.6174 
G01 X-29.1115 Y18.6174 
G01 X-29.0439 Y18.5993 
G01 X-28.9832 Y18.5643 
G01 X-28.9337 Y18.5148 
G01 X-28.8987 Y18.4541 
G01 X-28.8806 Y18.3865 
G01 X-28.8806 Y18.0078 
G01 X-28.1135 Y18.0078 
G01 X-28.1102 Y18.0243 
G01 X-28.0471 Y18.1767 
G01 X-27.9554 Y18.3138 
G01 X-27.8388 Y18.4305 
G01 X-27.7017 Y18.5221 
G01 X-27.5493 Y18.5852 
G01 X-27.3875 Y18.6174 
G01 X-25.6985 Y18.6174 
G01 X-25.5367 Y18.5852 
G01 X-25.3843 Y18.5221 
G00 Z2.5400 
G00 X-25.3843 Y15.9821 
G01 Z-0.0800 F254.00 
G01 X-25.2472 Y15.8904 F254.00 
G01 X-25.1305 Y15.7738 
G01 X-25.0389 Y15.6367 
G01 X-24.9758 Y15.4843 
G01 X-24.9725 Y15.4678 
G01 X-23.6877 Y15.4678 
G01 X-23.6040 Y15.4331 
G01 X-23.5399 Y15.3690 
G01 X-23.5052 Y15.2853 
G01 X-23.5052 Y14.4147 
G01 X-23.5076 Y14.4089 
G01 X-23.5076 Y13.9450 
G01 X-23.5191 Y13.9173 
G01 X-23.5403 Y13.8961 
G01 X-23.5680 Y13.8846 
G01 X-23.8980 Y13.8846 
G01 X-23.9257 Y13.8961 
G01 X-23.9469 Y13.9173 
G01 X-23.9584 Y13.9450 
G01 X-23.9584 Y14.4089 
G01 X-23.9608 Y14.4147 
G01 X-23.9608 Y15.0122 
G01 X-24.9725 Y15.0122 
G01 X-24.9758 Y14.9957 
G01 X-25.0389 Y14.8433 
G01 X-25.1305 Y14.7062 
G01 X-25.2472 Y14.5895 
G01 X-25.3843 Y14.4979 
G01 X-25.5367 Y14.4348 
G01 X-25.6985 Y14.4026 
G01 X-27.3875 Y14.4026 
G01 X-27.5493 Y14.4348 
G01 X-27.7017 Y14.4979 
G01 X-27.8388 Y14.5895 
G01 X-27.9554 Y14.7062 
G01 X-28.0471 Y14.8433 
G01 X-28.1102 Y14.9957 
G01 X-28.1135 Y15.0122 
G01 X-28.8806 Y15.0122 
G01 X-28.8806 Y14.6335 
G01 X-28.8987 Y14.5659 
G01 X-28.9337 Y14.5052 
G01 X-28.9832 Y14.4557 
G01 X-29.0439 Y14.4207 
G01 X-29.1115 Y14.4026 
G01 X-30.4791 Y14.4026 
G01 X-30.4983 Y14.4023 
G01 X-30.5177 Y14.4099 
G01 X-30.5356 Y14.4170 
G01 X-30.5506 Y14.4314 
G01 X-30.5644 Y14.4448 
G01 X-30.5728 Y14.4640 
G01 X-30.5804 Y14.4816 
G01 X-30.5808 Y14.5025 
G01 X-30.5811 Y14.5217 
G01 X-30.5735 Y14.5411 
G01 X-30.5664 Y14.5590 
G01 X-30.5520 Y14.5739 
G01 X-29.9089 Y15.2400 
G01 X-30.5520 Y15.9060 
G01 X-30.5654 Y15.9195 
G01 X-30.5735 Y15.9389 
G01 X-30.5808 Y15.9565 
G01 X-30.5808 Y15.9775 
G01 X-30.5808 Y15.9967 
G01 X-30.5728 Y16.0160 
G01 X-30.5654 Y16.0337 
G01 X-30.5506 Y16.0486 
G01 X-30.5371 Y16.0620 
G01 X-30.5177 Y16.0701 
G01 X-30.5001 Y16.0774 
G01 X-30.4791 Y16.0774 
G01 X-29.1115 Y16.0774 
G01 X-29.0439 Y16.0593 
G01 X-28.9832 Y16.0243 
G01 X-28.9337 Y15.9748 
G01 X-28.8987 Y15.9141 
G01 X-28.8806 Y15.8465 
G01 X-28.8806 Y15.4678 
G01 X-28.1135 Y15.4678 
G01 X-28.1102 Y15.4843 
G01 X-28.0471 Y15.6367 
G01 X-27.9554 Y15.7738 
G01 X-27.8388 Y15.8904 
G01 X-27.7017 Y15.9821 
G01 X-27.5493 Y16.0452 
G01 X-27.3875 Y16.0774 
G01 X-25.6985 Y16.0774 
G01 X-25.5367 Y16.0452 
G01 X-25.3843 Y15.9821 
G00 Z2.5400 
G00 X-25.3843 Y13.4421 
G01 Z-0.0800 F254.00 
G01 X-25.2472 Y13.3505 F254.00 
G01 X-25.1305 Y13.2338 
G01 X-25.0389 Y13.0967 
G01 X-24.9758 Y12.9443 
G01 X-24.9725 Y12.9278 
G01 X-23.4608 Y12.9278 
G01 X-23.4608 Y14.5053 
G01 X-23.4584 Y14.5111 
G01 X-23.4584 Y14.9750 
G01 X-23.4469 Y15.0027 
G01 X-23.4257 Y15.0239 
G01 X-23.3980 Y15.0354 
G01 X-23.0680 Y15.0354 
G01 X-23.0403 Y15.0239 
G01 X-23.0191 Y15.0027 
G01 X-23.0076 Y14.9750 
G01 X-23.0076 Y14.5111 
G01 X-23.0052 Y14.5053 
G01 X-23.0052 Y12.6547 
G01 X-23.0399 Y12.5710 
G01 X-23.1040 Y12.5069 
G01 X-23.1877 Y12.4722 
G01 X-24.9725 Y12.4722 
G01 X-24.9758 Y12.4557 
G01 X-25.0389 Y12.3033 
G01 X-25.1305 Y12.1662 
G01 X-25.2472 Y12.0495 
G01 X-25.3843 Y11.9579 
G01 X-25.5367 Y11.8948 
G01 X-25.6985 Y11.8626 
G01 X-27.3875 Y11.8626 
G01 X-27.5493 Y11.8948 
G01 X-27.7017 Y11.9579 
G01 X-27.8388 Y12.0495 
G01 X-27.9554 Y12.1662 
G01 X-28.0471 Y12.3033 
G01 X-28.1102 Y12.4557 
G01 X-28.1135 Y12.4722 
G01 X-28.8806 Y12.4722 
G01 X-28.8806 Y12.0935 
G01 X-28.8987 Y12.0259 
G01 X-28.9337 Y11.9652 
G01 X-28.9832 Y11.9157 
G01 X-29.0439 Y11.8807 
G01 X-29.1115 Y11.8626 
G01 X-30.4791 Y11.8626 
G01 X-30.4983 Y11.8623 
G01 X-30.5177 Y11.8699 
G01 X-30.5356 Y11.8770 
G01 X-30.5506 Y11.8914 
G01 X-30.5644 Y11.9048 
G01 X-30.5728 Y11.9240 
G01 X-30.5804 Y11.9416 
G01 X-30.5808 Y11.9625 
G01 X-30.5811 Y11.9817 
G01 X-30.5735 Y12.0011 
G01 X-30.5664 Y12.0190 
G01 X-30.5520 Y12.0339 
G01 X-29.9089 Y12.7000 
G01 X-30.5520 Y13.3661 
G01 X-30.5654 Y13.3795 
G01 X-30.5735 Y13.3990 
G01 X-30.5808 Y13.4165 
G01 X-30.5808 Y13.4375 
G01 X-30.5808 Y13.4566 
G01 X-30.5727 Y13.4761 
G01 X-30.5654 Y13.4937 
G01 X-30.5505 Y13.5086 
G01 X-30.5371 Y13.5221 
G01 X-30.5176 Y13.5301 
G01 X-30.5001 Y13.5374 
G01 X-30.4791 Y13.5374 
G01 X-29.1115 Y13.5374 
G01 X-29.0439 Y13.5193 
G01 X-28.9832 Y13.4843 
G01 X-28.9337 Y13.4348 
G01 X-28.8987 Y13.3741 
G01 X-28.8806 Y13.3065 
G01 X-28.8806 Y12.9278 
G01 X-28.1135 Y12.9278 
G01 X-28.1102 Y12.9443 
G01 X-28.0471 Y13.0967 
G01 X-27.9554 Y13.2338 
G01 X-27.8388 Y13.3505 
G01 X-27.7017 Y13.4421 
G01 X-27.5493 Y13.5052 
G01 X-27.3875 Y13.5374 
G01 X-25.6985 Y13.5374 
G01 X-25.5367 Y13.5052 
G01 X-25.3843 Y13.4421 
G00 Z2.5400 
G00 X-22.6124 Y17.9650 
G01 Z-0.0800 F254.00 
G01 X-22.4780 Y17.8306 F254.00 
G01 X-21.4880 Y17.8306 
G01 X-21.3536 Y17.9650 
G01 X-21.3536 Y19.1550 
G01 X-21.4880 Y19.2894 
G01 X-21.9717 Y19.2894 
G01 X-22.4780 Y19.2894 
G01 X-22.6124 Y19.1550 
G01 X-22.6124 Y19.1354 
G01 X-22.5680 Y19.1354 
G01 X-22.5403 Y19.1239 
G01 X-22.5191 Y19.1027 
G01 X-22.5076 Y19.0750 
G01 X-22.5076 Y18.0450 
G01 X-22.5191 Y18.0173 
G01 X-22.5403 Y17.9961 
G01 X-22.5680 Y17.9846 
G01 X-22.6124 Y17.9846 
G01 X-22.6124 Y17.9650 
G00 Z2.5400 
G00 X-22.4257 Y17.9961 
G01 Z-0.0800 F254.00 
G01 X-22.4469 Y18.0173 F254.00 
G01 X-22.4584 Y18.0450 
G01 X-22.4584 Y19.0750 
G01 X-22.4469 Y19.1027 
G01 X-22.4257 Y19.1239 
G01 X-22.3980 Y19.1354 
G01 X-22.0680 Y19.1354 
G01 X-22.0403 Y19.1239 
G01 X-22.0191 Y19.1027 
G01 X-22.0076 Y19.0750 
G01 X-22.0076 Y18.0450 
G01 X-22.0191 Y18.0173 
G01 X-22.0403 Y17.9961 
G01 X-22.0680 Y17.9846 
G01 X-22.3980 Y17.9846 
G01 X-22.4257 Y17.9961 
G00 Z2.5400 
G00 X-21.9257 Y17.9961 
G01 Z-0.0800 F254.00 
G01 X-21.9469 Y18.0173 F254.00 
G01 X-21.9584 Y18.0450 
G01 X-21.9584 Y19.0750 
G01 X-21.9469 Y19.1027 
G01 X-21.9257 Y19.1239 
G01 X-21.8980 Y19.1354 
G01 X-21.5680 Y19.1354 
G01 X-21.5403 Y19.1239 
G01 X-21.5191 Y19.1027 
G01 X-21.5076 Y19.0750 
G01 X-21.5076 Y18.0450 
G01 X-21.5191 Y18.0173 
G01 X-21.5403 Y17.9961 
G01 X-21.5680 Y17.9846 
G01 X-21.8980 Y17.9846 
G01 X-21.9257 Y17.9961 
G00 Z2.5400 
G00 X-42.3236 Y18.1347 
G01 Z-0.0800 F254.00 
G01 X-42.3236 Y18.9493 F254.00 
G01 X-42.8997 Y19.5254 
G01 X-43.7143 Y19.5254 
G01 X-43.7723 Y19.4675 
G01 X-44.2904 Y18.9493 
G01 X-44.2904 Y18.1347 
G01 X-43.7723 Y17.6165 
G01 X-43.7511 Y17.5953 
G01 X-43.7143 Y17.5586 
G01 X-42.8997 Y17.5586 
G01 X-42.3236 Y18.1347 
G00 Z2.5400 
G00 X-42.4776 Y18.1985 
G01 Z-0.0800 F254.00 
G01 X-42.9635 Y17.7126 F254.00 
G01 X-43.6505 Y17.7126 
G01 X-44.1364 Y18.1985 
G01 X-44.1364 Y18.8855 
G01 X-43.6505 Y19.3714 
G01 X-42.9635 Y19.3714 
G01 X-42.4776 Y18.8855 
G01 X-42.4776 Y18.1985 
G00 Z2.5400 
G00 X-42.8997 Y20.0986 
G01 Z-0.0800 F254.00 
G01 X-42.3236 Y20.6747 F254.00 
G01 X-42.3236 Y21.4893 
G01 X-42.8997 Y22.0654 
G01 X-43.7143 Y22.0654 
G01 X-43.7511 Y22.0287 
G01 X-43.7723 Y22.0075 
G01 X-44.2904 Y21.4893 
G01 X-44.2904 Y20.6746 
G01 X-43.7723 Y20.1565 
G01 X-43.7511 Y20.1353 
G01 X-43.7143 Y20.0986 
G01 X-42.8997 Y20.0986 
G00 Z2.5400 
G00 X-42.9635 Y20.2526 
G01 Z-0.0800 F254.00 
G01 X-43.6505 Y20.2526 F254.00 
G01 X-44.1364 Y20.7385 
G01 X-44.1364 Y21.4255 
G01 X-43.6505 Y21.9114 
G01 X-42.9635 Y21.9114 
G01 X-42.4776 Y21.4255 
G01 X-42.4776 Y20.7385 
G01 X-42.9635 Y20.2526 
G00 Z2.5400 
G00 X-42.8997 Y22.6386 
G01 Z-0.0800 F254.00 
G01 X-42.3236 Y23.2147 F254.00 
G01 X-42.3236 Y24.0293 
G01 X-42.8997 Y24.6054 
G01 X-43.7143 Y24.6054 
G01 X-43.7723 Y24.5475 
G01 X-44.2904 Y24.0293 
G01 X-44.2904 Y23.2147 
G01 X-43.7723 Y22.6965 
G01 X-43.7511 Y22.6753 
G01 X-43.7143 Y22.6386 
G01 X-42.8997 Y22.6386 
G00 Z2.5400 
G00 X-42.9635 Y22.7926 
G01 Z-0.0800 F254.00 
G01 X-43.6505 Y22.7926 F254.00 
G01 X-44.1364 Y23.2784 
G01 X-44.1364 Y23.9655 
G01 X-43.6505 Y24.4514 
G01 X-42.9635 Y24.4514 
G01 X-42.4776 Y23.9655 
G01 X-42.4776 Y23.2784 
G01 X-42.9635 Y22.7926 
G00 Z2.5400 
G00 X-44.8636 Y23.2147 
G01 Z-0.0800 F254.00 
G01 X-44.8636 Y24.0293 F254.00 
G01 X-45.4397 Y24.6054 
G01 X-46.2543 Y24.6054 
G01 X-46.7937 Y24.0661 
G01 X-46.8214 Y24.0546 
G01 X-52.2120 Y24.0546 
G01 X-52.2397 Y24.0661 
G01 X-52.2609 Y24.0873 
G01 X-52.2724 Y24.1150 
G01 X-52.2724 Y25.6690 
G01 X-52.2609 Y25.6967 
G01 X-52.2397 Y25.7179 
G01 X-52.2120 Y25.7294 
G01 X-46.8214 Y25.7294 
G01 X-46.7937 Y25.7179 
G01 X-46.7725 Y25.6967 
G01 X-46.2543 Y25.1786 
G01 X-45.4397 Y25.1786 
G01 X-44.8636 Y25.7547 
G01 X-44.8636 Y26.5693 
G01 X-45.4397 Y27.1454 
G01 X-46.2543 Y27.1454 
G01 X-46.7725 Y26.6273 
G01 X-46.7937 Y26.6061 
G01 X-46.8214 Y26.5946 
G01 X-51.5770 Y26.5946 
G01 X-51.6047 Y26.6061 
G01 X-51.6259 Y26.6273 
G01 X-51.6374 Y26.6550 
G01 X-51.6374 Y28.2090 
G01 X-51.6259 Y28.2367 
G01 X-51.6047 Y28.2579 
G01 X-51.5770 Y28.2694 
G01 X-46.8214 Y28.2694 
G01 X-46.7937 Y28.2579 
G01 X-46.7725 Y28.2367 
G01 X-46.2543 Y27.7186 
G01 X-45.4397 Y27.7186 
G01 X-44.8636 Y28.2947 
G01 X-44.8636 Y29.1093 
G01 X-45.4397 Y29.6854 
G01 X-46.2543 Y29.6854 
G01 X-46.7937 Y29.1461 
G01 X-46.8214 Y29.1346 
G01 X-49.3990 Y29.1346 
G01 X-49.4267 Y29.1461 
G01 X-49.4479 Y29.1673 
G01 X-49.4594 Y29.1950 
G01 X-49.4594 Y30.5432 
G01 X-49.5862 Y30.6701 
G01 X-49.6046 Y30.6885 
G01 X-49.6074 Y30.6913 
G01 X-49.6189 Y30.7190 
G01 X-49.6189 Y30.7490 
G01 X-49.6074 Y30.7767 
G01 X-49.5862 Y30.7979 
G01 X-49.5585 Y30.8094 
G01 X-46.8214 Y30.8094 
G01 X-46.7937 Y30.7979 
G01 X-46.7725 Y30.7767 
G01 X-46.2543 Y30.2586 
G01 X-45.4397 Y30.2586 
G01 X-44.8636 Y30.8347 
G01 X-44.8636 Y31.6493 
G01 X-45.4397 Y32.2254 
G01 X-46.2543 Y32.2254 
G01 X-46.7937 Y31.6861 
G01 X-46.8214 Y31.6746 
G01 X-50.4712 Y31.6746 
G01 X-50.7246 Y31.4212 
G01 X-50.7246 Y30.7380 
G01 X-50.7361 Y30.7103 
G01 X-50.7573 Y30.6891 
G01 X-50.7850 Y30.6776 
G01 X-50.9420 Y30.6776 
G01 X-50.9697 Y30.6891 
G01 X-50.9909 Y30.7103 
G01 X-51.0024 Y30.7380 
G01 X-51.0024 Y33.2890 
G01 X-50.9909 Y33.3167 
G01 X-50.9697 Y33.3379 
