(.../pcb-gcode-3.6.2.4/pcb-gcode.ulp)
(Copyright 2005 - 2012 by John Johnson)
(See readme.txt for licensing terms.)
(This file generated from the board:)
(/Volumes/S/new_object/3xobject_1.brd)
(Current profile is .../pcb-gcode-3.6.2.4/profiles/turbocnc.pp  )
(This file generated 11/12/2018 15:06)
(Settings from pcb-machine.h)
(spindle on time = 3.0000)
(spindle speed = 20000.0000)
(tool change at 0.0000 0.0000 25.4000 )
(feed rate xy = F0.00  )
(feed rate z  = F508.00 )
(Z Axis Settings)
(  High     Up        Down     Drill)
(12.7000 	2.5400 	-0.0800 	-2.0000 )
(Settings from pcb-defaults.h)
(isolate min = 0.0254)
(isolate max = 0.3000)
(isolate step = 0.0300)
(Generated bottom outlines, bottom drill, )
(Unit of measure: mm)
( Tool|       Size       |  Min Sub |  Max Sub |   Count )
( T01 | 0.800mm 0.0315in | 0.0000in | 0.0000in |       0 )
( T02 | 1.000mm 0.0394in | 0.0000in | 0.0000in |       0 )
( T03 | 1.016mm 0.0400in | 0.0000in | 0.0000in |       0 )
( T04 | 1.200mm 0.0472in | 0.0000in | 0.0000in |       0 )
( T05 | 2.500mm 0.0984in | 0.0000in | 0.0000in |       0 )
( T06 | 2.540mm 0.1000in | 0.0000in | 0.0000in |       0 )
(Metric Mode)
G21
(Absolute Coordinates)
G90
G97 S20000
G00 Z12.7000 
G00 X0.0000 Y0.0000 
M03
G04 P3.000000
M05
G00 Z25.4000 
M06 T01  ; 0.8000 
G01 Z0.0000 F508.00 
M06 
G00 Z2.5400 
M03
G04 P3.000000
G00 X-14.8200 Y41.8000 
G01 Z-2.0000 F508.00 
G00 Z2.5400 
G00 X-17.6200 Y41.8000 
G01 Z-2.0000 F508.00 
G00 Z2.5400 
G00 X-21.1200 Y44.6000 
G01 Z-2.0000 F508.00 
G00 Z2.5400 
G00 X-21.1200 Y47.0500 
G01 Z-2.0000 F508.00 
G00 Z2.5400 
G00 X-22.8600 Y54.6100 
G01 Z-2.0000 F508.00 
G00 Z2.5400 
G00 X-40.6400 Y53.3400 
G01 Z-2.0000 F508.00 
G00 Z2.5400 
G00 X-40.6400 Y41.9100 
G01 Z-2.0000 F508.00 
G00 Z2.5400 
G00 X-44.4500 Y35.5600 
G01 Z-2.0000 F508.00 
G00 Z2.5400 
G00 X-49.6900 Y28.0500 
G01 Z-2.0000 F508.00 
G00 Z2.5400 
G00 X-52.4900 Y28.0500 
G01 Z-2.0000 F508.00 
G00 Z2.5400 
G00 X-46.1900 Y25.2500 
G01 Z-2.0000 F508.00 
G00 Z2.5400 
G00 X-46.1900 Y22.8000 
G01 Z-2.0000 F508.00 
G00 Z2.5400 
G00 X-44.4500 Y15.2400 
G01 Z-2.0000 F508.00 
G00 Z2.5400 
G00 X-26.6700 Y16.5100 
G01 Z-2.0000 F508.00 
G00 Z2.5400 
G00 X-26.6700 Y27.9400 
G01 Z-2.0000 F508.00 
G00 Z2.5400 
G00 X-22.8600 Y34.2900 
G01 Z-2.0000 F508.00 
G00 Z2.5400 
G00 X-73.2400 Y41.8000 
G01 Z-2.0000 F508.00 
G00 Z2.5400 
G00 X-76.0400 Y41.8000 
G01 Z-2.0000 F508.00 
G00 Z2.5400 
G00 X-79.5400 Y44.6000 
G01 Z-2.0000 F508.00 
G00 Z2.5400 
G00 X-79.5400 Y47.0500 
G01 Z-2.0000 F508.00 
G00 Z2.5400 
G00 X-81.2800 Y54.6100 
G01 Z-2.0000 F508.00 
G00 Z2.5400 
G00 X-99.0600 Y53.3400 
G01 Z-2.0000 F508.00 
G00 Z2.5400 
G00 X-99.0600 Y41.9100 
G01 Z-2.0000 F508.00 
G00 Z2.5400 
G00 X-102.8700 Y35.5600 
G01 Z-2.0000 F508.00 
G00 Z2.5400 
G00 X-108.1100 Y28.0500 
G01 Z-2.0000 F508.00 
G00 Z2.5400 
G00 X-110.9100 Y28.0500 
G01 Z-2.0000 F508.00 
G00 Z2.5400 
G00 X-104.6100 Y25.2500 
G01 Z-2.0000 F508.00 
G00 Z2.5400 
G00 X-104.6100 Y22.8000 
G01 Z-2.0000 F508.00 
G00 Z2.5400 
G00 X-102.8700 Y15.2400 
G01 Z-2.0000 F508.00 
G00 Z2.5400 
G00 X-85.0900 Y16.5100 
G01 Z-2.0000 F508.00 
G00 Z2.5400 
G00 X-85.0900 Y27.9400 
G01 Z-2.0000 F508.00 
G00 Z2.5400 
G00 X-81.2800 Y34.2900 
G01 Z-2.0000 F508.00 
G00 Z2.5400 
M05
G00 Z25.4000 
G00 X0.0000 Y0.0000 
M06 T02  ; 1.0000 
G01 Z0.0000 F508.00 
M06 
G00 Z2.5400 
M03
G04 P3.000000
G00 X-8.8900 Y17.7800 
G01 Z-2.0000 F508.00 
G00 Z2.5400 
G00 X-8.8900 Y20.3200 
G01 Z-2.0000 F508.00 
G00 Z2.5400 
G00 X-8.8900 Y22.8600 
G01 Z-2.0000 F508.00 
G00 Z2.5400 
G00 X-8.8900 Y25.4000 
G01 Z-2.0000 F508.00 
G00 Z2.5400 
G00 X-8.8900 Y27.9400 
G01 Z-2.0000 F508.00 
G00 Z2.5400 
G00 X-8.8900 Y30.4800 
G01 Z-2.0000 F508.00 
G00 Z2.5400 
G00 X-8.8900 Y33.0200 
G01 Z-2.0000 F508.00 
G00 Z2.5400 
G00 X-8.8900 Y35.5600 
G01 Z-2.0000 F508.00 
G00 Z2.5400 
G00 X-8.8900 Y38.1000 
G01 Z-2.0000 F508.00 
G00 Z2.5400 
G00 X-8.8900 Y40.6400 
G01 Z-2.0000 F508.00 
G00 Z2.5400 
G00 X-8.8900 Y43.1800 
G01 Z-2.0000 F508.00 
G00 Z2.5400 
G00 X-8.8900 Y45.7200 
G01 Z-2.0000 F508.00 
G00 Z2.5400 
G00 X-8.8900 Y48.2600 
G01 Z-2.0000 F508.00 
G00 Z2.5400 
G00 X-8.8900 Y50.8000 
G01 Z-2.0000 F508.00 
G00 Z2.5400 
G00 X-8.8900 Y53.3400 
G01 Z-2.0000 F508.00 
G00 Z2.5400 
G00 X-8.8900 Y55.8800 
G01 Z-2.0000 F508.00 
G00 Z2.5400 
G00 X-12.7000 Y54.6100 
G01 Z-2.0000 F508.00 
G00 Z2.5400 
G00 X-12.7000 Y52.0700 
G01 Z-2.0000 F508.00 
G00 Z2.5400 
G00 X-12.7000 Y49.5300 
G01 Z-2.0000 F508.00 
G00 Z2.5400 
G00 X-12.7000 Y46.9900 
G01 Z-2.0000 F508.00 
G00 Z2.5400 
G00 X-12.7000 Y44.4500 
G01 Z-2.0000 F508.00 
G00 Z2.5400 
G00 X-12.7000 Y41.9100 
G01 Z-2.0000 F508.00 
G00 Z2.5400 
G00 X-12.7000 Y39.3700 
G01 Z-2.0000 F508.00 
G00 Z2.5400 
G00 X-12.7000 Y36.8300 
G01 Z-2.0000 F508.00 
G00 Z2.5400 
G00 X-29.2100 Y35.5600 
G01 Z-2.0000 F508.00 
G00 Z2.5400 
G00 X-29.2100 Y33.0200 
G01 Z-2.0000 F508.00 
G00 Z2.5400 
G00 X-29.2100 Y30.4800 
G01 Z-2.0000 F508.00 
G00 Z2.5400 
G00 X-29.2100 Y27.9400 
G01 Z-2.0000 F508.00 
G00 Z2.5400 
G00 X-29.2100 Y25.4000 
G01 Z-2.0000 F508.00 
G00 Z2.5400 
G00 X-29.2100 Y22.8600 
G01 Z-2.0000 F508.00 
G00 Z2.5400 
G00 X-29.2100 Y20.3200 
G01 Z-2.0000 F508.00 
G00 Z2.5400 
G00 X-29.2100 Y17.7800 
G01 Z-2.0000 F508.00 
G00 Z2.5400 
G00 X-38.1000 Y24.1300 
G01 Z-2.0000 F508.00 
G00 Z2.5400 
G00 X-38.1000 Y26.6700 
G01 Z-2.0000 F508.00 
G00 Z2.5400 
G00 X-38.1000 Y29.2100 
G01 Z-2.0000 F508.00 
G00 Z2.5400 
G00 X-38.1000 Y31.7500 
G01 Z-2.0000 F508.00 
G00 Z2.5400 
G00 X-38.1000 Y34.2900 
G01 Z-2.0000 F508.00 
G00 Z2.5400 
G00 X-38.1000 Y36.8300 
G01 Z-2.0000 F508.00 
G00 Z2.5400 
G00 X-38.1000 Y39.3700 
G01 Z-2.0000 F508.00 
G00 Z2.5400 
G00 X-38.1000 Y41.9100 
G01 Z-2.0000 F508.00 
G00 Z2.5400 
G00 X-38.1000 Y44.4500 
G01 Z-2.0000 F508.00 
G00 Z2.5400 
G00 X-38.1000 Y46.9900 
G01 Z-2.0000 F508.00 
G00 Z2.5400 
G00 X-38.1000 Y49.5300 
G01 Z-2.0000 F508.00 
G00 Z2.5400 
G00 X-38.1000 Y52.0700 
G01 Z-2.0000 F508.00 
G00 Z2.5400 
G00 X-29.2100 Y45.7200 
G01 Z-2.0000 F508.00 
G00 Z2.5400 
G00 X-29.2100 Y43.1800 
G01 Z-2.0000 F508.00 
G00 Z2.5400 
G00 X-29.2100 Y40.6400 
G01 Z-2.0000 F508.00 
G00 Z2.5400 
G00 X-29.2100 Y38.1000 
G01 Z-2.0000 F508.00 
G00 Z2.5400 
G00 X-54.6100 Y33.0200 
G01 Z-2.0000 F508.00 
G00 Z2.5400 
G00 X-54.6100 Y30.4800 
G01 Z-2.0000 F508.00 
G00 Z2.5400 
G00 X-54.6100 Y27.9400 
G01 Z-2.0000 F508.00 
G00 Z2.5400 
G00 X-54.6100 Y25.4000 
G01 Z-2.0000 F508.00 
G00 Z2.5400 
G00 X-54.6100 Y22.8600 
G01 Z-2.0000 F508.00 
G00 Z2.5400 
G00 X-54.6100 Y20.3200 
G01 Z-2.0000 F508.00 
G00 Z2.5400 
G00 X-54.6100 Y17.7800 
G01 Z-2.0000 F508.00 
G00 Z2.5400 
G00 X-54.6100 Y15.2400 
G01 Z-2.0000 F508.00 
G00 Z2.5400 
G00 X-58.4200 Y13.9700 
G01 Z-2.0000 F508.00 
G00 Z2.5400 
G00 X-58.4200 Y16.5100 
G01 Z-2.0000 F508.00 
G00 Z2.5400 
G00 X-58.4200 Y19.0500 
G01 Z-2.0000 F508.00 
G00 Z2.5400 
G00 X-58.4200 Y21.5900 
G01 Z-2.0000 F508.00 
G00 Z2.5400 
G00 X-58.4200 Y24.1300 
G01 Z-2.0000 F508.00 
G00 Z2.5400 
G00 X-58.4200 Y26.6700 
G01 Z-2.0000 F508.00 
G00 Z2.5400 
G00 X-58.4200 Y29.2100 
G01 Z-2.0000 F508.00 
G00 Z2.5400 
G00 X-58.4200 Y31.7500 
G01 Z-2.0000 F508.00 
G00 Z2.5400 
G00 X-58.4200 Y34.2900 
G01 Z-2.0000 F508.00 
G00 Z2.5400 
G00 X-58.4200 Y36.8300 
G01 Z-2.0000 F508.00 
G00 Z2.5400 
G00 X-58.4200 Y39.3700 
G01 Z-2.0000 F508.00 
G00 Z2.5400 
G00 X-58.4200 Y41.9100 
G01 Z-2.0000 F508.00 
G00 Z2.5400 
G00 X-58.4200 Y44.4500 
G01 Z-2.0000 F508.00 
G00 Z2.5400 
G00 X-58.4200 Y46.9900 
G01 Z-2.0000 F508.00 
G00 Z2.5400 
G00 X-58.4200 Y49.5300 
G01 Z-2.0000 F508.00 
G00 Z2.5400 
G00 X-58.4200 Y52.0700 
G01 Z-2.0000 F508.00 
G00 Z2.5400 
G00 X-67.3100 Y50.8000 
G01 Z-2.0000 F508.00 
G00 Z2.5400 
G00 X-67.3100 Y48.2600 
G01 Z-2.0000 F508.00 
G00 Z2.5400 
G00 X-67.3100 Y45.7200 
G01 Z-2.0000 F508.00 
G00 Z2.5400 
G00 X-67.3100 Y43.1800 
G01 Z-2.0000 F508.00 
G00 Z2.5400 
G00 X-67.3100 Y40.6400 
G01 Z-2.0000 F508.00 
G00 Z2.5400 
G00 X-67.3100 Y38.1000 
G01 Z-2.0000 F508.00 
G00 Z2.5400 
G00 X-67.3100 Y35.5600 
G01 Z-2.0000 F508.00 
G00 Z2.5400 
G00 X-67.3100 Y33.0200 
G01 Z-2.0000 F508.00 
G00 Z2.5400 
G00 X-67.3100 Y30.4800 
G01 Z-2.0000 F508.00 
G00 Z2.5400 
G00 X-67.3100 Y27.9400 
G01 Z-2.0000 F508.00 
G00 Z2.5400 
G00 X-67.3100 Y25.4000 
G01 Z-2.0000 F508.00 
G00 Z2.5400 
G00 X-67.3100 Y22.8600 
G01 Z-2.0000 F508.00 
G00 Z2.5400 
G00 X-67.3100 Y20.3200 
G01 Z-2.0000 F508.00 
G00 Z2.5400 
G00 X-67.3100 Y17.7800 
G01 Z-2.0000 F508.00 
G00 Z2.5400 
G00 X-71.1200 Y36.8300 
G01 Z-2.0000 F508.00 
G00 Z2.5400 
G00 X-71.1200 Y39.3700 
G01 Z-2.0000 F508.00 
G00 Z2.5400 
G00 X-71.1200 Y41.9100 
G01 Z-2.0000 F508.00 
G00 Z2.5400 
G00 X-71.1200 Y44.4500 
G01 Z-2.0000 F508.00 
G00 Z2.5400 
G00 X-71.1200 Y46.9900 
G01 Z-2.0000 F508.00 
G00 Z2.5400 
G00 X-71.1200 Y49.5300 
G01 Z-2.0000 F508.00 
G00 Z2.5400 
G00 X-71.1200 Y52.0700 
G01 Z-2.0000 F508.00 
G00 Z2.5400 
G00 X-71.1200 Y54.6100 
G01 Z-2.0000 F508.00 
G00 Z2.5400 
G00 X-67.3100 Y53.3400 
G01 Z-2.0000 F508.00 
G00 Z2.5400 
G00 X-67.3100 Y55.8800 
G01 Z-2.0000 F508.00 
G00 Z2.5400 
G00 X-87.6300 Y45.7200 
G01 Z-2.0000 F508.00 
G00 Z2.5400 
G00 X-87.6300 Y43.1800 
G01 Z-2.0000 F508.00 
G00 Z2.5400 
G00 X-87.6300 Y40.6400 
G01 Z-2.0000 F508.00 
G00 Z2.5400 
G00 X-87.6300 Y38.1000 
G01 Z-2.0000 F508.00 
G00 Z2.5400 
G00 X-87.6300 Y35.5600 
G01 Z-2.0000 F508.00 
G00 Z2.5400 
G00 X-87.6300 Y33.0200 
G01 Z-2.0000 F508.00 
G00 Z2.5400 
G00 X-87.6300 Y30.4800 
G01 Z-2.0000 F508.00 
G00 Z2.5400 
G00 X-87.6300 Y27.9400 
G01 Z-2.0000 F508.00 
G00 Z2.5400 
G00 X-87.6300 Y25.4000 
G01 Z-2.0000 F508.00 
G00 Z2.5400 
G00 X-87.6300 Y22.8600 
G01 Z-2.0000 F508.00 
G00 Z2.5400 
G00 X-87.6300 Y20.3200 
G01 Z-2.0000 F508.00 
G00 Z2.5400 
G00 X-87.6300 Y17.7800 
G01 Z-2.0000 F508.00 
G00 Z2.5400 
G00 X-96.5200 Y24.1300 
G01 Z-2.0000 F508.00 
G00 Z2.5400 
G00 X-96.5200 Y26.6700 
G01 Z-2.0000 F508.00 
G00 Z2.5400 
G00 X-96.5200 Y29.2100 
G01 Z-2.0000 F508.00 
G00 Z2.5400 
G00 X-96.5200 Y31.7500 
G01 Z-2.0000 F508.00 
G00 Z2.5400 
G00 X-96.5200 Y34.2900 
G01 Z-2.0000 F508.00 
G00 Z2.5400 
G00 X-96.5200 Y36.8300 
G01 Z-2.0000 F508.00 
G00 Z2.5400 
G00 X-96.5200 Y39.3700 
G01 Z-2.0000 F508.00 
G00 Z2.5400 
G00 X-96.5200 Y41.9100 
G01 Z-2.0000 F508.00 
G00 Z2.5400 
G00 X-96.5200 Y44.4500 
G01 Z-2.0000 F508.00 
G00 Z2.5400 
G00 X-96.5200 Y46.9900 
G01 Z-2.0000 F508.00 
G00 Z2.5400 
G00 X-96.5200 Y49.5300 
G01 Z-2.0000 F508.00 
G00 Z2.5400 
G00 X-96.5200 Y52.0700 
G01 Z-2.0000 F508.00 
G00 Z2.5400 
G00 X-116.8400 Y52.0700 
G01 Z-2.0000 F508.00 
G00 Z2.5400 
G00 X-116.8400 Y49.5300 
G01 Z-2.0000 F508.00 
G00 Z2.5400 
G00 X-116.8400 Y46.9900 
G01 Z-2.0000 F508.00 
G00 Z2.5400 
G00 X-116.8400 Y44.4500 
G01 Z-2.0000 F508.00 
G00 Z2.5400 
G00 X-116.8400 Y41.9100 
G01 Z-2.0000 F508.00 
G00 Z2.5400 
G00 X-116.8400 Y39.3700 
G01 Z-2.0000 F508.00 
G00 Z2.5400 
G00 X-116.8400 Y36.8300 
G01 Z-2.0000 F508.00 
G00 Z2.5400 
G00 X-116.8400 Y34.2900 
G01 Z-2.0000 F508.00 
G00 Z2.5400 
G00 X-116.8400 Y31.7500 
G01 Z-2.0000 F508.00 
G00 Z2.5400 
G00 X-116.8400 Y29.2100 
G01 Z-2.0000 F508.00 
G00 Z2.5400 
G00 X-116.8400 Y26.6700 
G01 Z-2.0000 F508.00 
G00 Z2.5400 
G00 X-116.8400 Y24.1300 
G01 Z-2.0000 F508.00 
G00 Z2.5400 
G00 X-116.8400 Y21.5900 
G01 Z-2.0000 F508.00 
G00 Z2.5400 
G00 X-116.8400 Y19.0500 
G01 Z-2.0000 F508.00 
G00 Z2.5400 
G00 X-116.8400 Y16.5100 
G01 Z-2.0000 F508.00 
G00 Z2.5400 
G00 X-116.8400 Y13.9700 
G01 Z-2.0000 F508.00 
G00 Z2.5400 
G00 X-113.0300 Y15.2400 
G01 Z-2.0000 F508.00 
G00 Z2.5400 
G00 X-113.0300 Y17.7800 
G01 Z-2.0000 F508.00 
G00 Z2.5400 
G00 X-113.0300 Y20.3200 
G01 Z-2.0000 F508.00 
G00 Z2.5400 
G00 X-113.0300 Y22.8600 
G01 Z-2.0000 F508.00 
G00 Z2.5400 
G00 X-113.0300 Y25.4000 
G01 Z-2.0000 F508.00 
G00 Z2.5400 
G00 X-113.0300 Y27.9400 
G01 Z-2.0000 F508.00 
G00 Z2.5400 
G00 X-113.0300 Y30.4800 
G01 Z-2.0000 F508.00 
G00 Z2.5400 
G00 X-113.0300 Y33.0200 
G01 Z-2.0000 F508.00 
G00 Z2.5400 
M05
G00 Z25.4000 
G00 X0.0000 Y0.0000 
M06 T03  ; 1.0160 
G01 Z0.0000 F508.00 
M06 
G00 Z2.5400 
M03
G04 P3.000000
G00 X-15.2400 Y31.7500 
G01 Z-2.0000 F508.00 
G00 Z2.5400 
G00 X-17.7800 Y31.7500 
G01 Z-2.0000 F508.00 
G00 Z2.5400 
G00 X-20.3200 Y31.7500 
G01 Z-2.0000 F508.00 
G00 Z2.5400 
G00 X-22.8600 Y31.7500 
G01 Z-2.0000 F508.00 
G00 Z2.5400 
G00 X-44.4500 Y38.1000 
G01 Z-2.0000 F508.00 
G00 Z2.5400 
G00 X-46.9900 Y38.1000 
G01 Z-2.0000 F508.00 
G00 Z2.5400 
G00 X-49.5300 Y38.1000 
G01 Z-2.0000 F508.00 
G00 Z2.5400 
G00 X-52.0700 Y38.1000 
G01 Z-2.0000 F508.00 
G00 Z2.5400 
G00 X-73.6600 Y31.7500 
G01 Z-2.0000 F508.00 
G00 Z2.5400 
G00 X-76.2000 Y31.7500 
G01 Z-2.0000 F508.00 
G00 Z2.5400 
G00 X-78.7400 Y31.7500 
G01 Z-2.0000 F508.00 
G00 Z2.5400 
G00 X-81.2800 Y31.7500 
G01 Z-2.0000 F508.00 
G00 Z2.5400 
G00 X-102.8700 Y38.1000 
G01 Z-2.0000 F508.00 
G00 Z2.5400 
G00 X-105.4100 Y38.1000 
G01 Z-2.0000 F508.00 
G00 Z2.5400 
G00 X-107.9500 Y38.1000 
G01 Z-2.0000 F508.00 
G00 Z2.5400 
G00 X-110.4900 Y38.1000 
G01 Z-2.0000 F508.00 
G00 Z2.5400 
M05
G00 Z25.4000 
G00 X0.0000 Y0.0000 
M06 T04  ; 1.2000 
G01 Z0.0000 F508.00 
M06 
G00 Z2.5400 
M03
G04 P3.000000
G00 X-7.6200 Y8.8900 
G01 Z-2.0000 F508.00 
G00 Z2.5400 
G00 X-10.1600 Y8.8900 
G01 Z-2.0000 F508.00 
G00 Z2.5400 
G00 X-12.7000 Y8.8900 
G01 Z-2.0000 F508.00 
G00 Z2.5400 
G00 X-15.2400 Y8.8900 
G01 Z-2.0000 F508.00 
G00 Z2.5400 
G00 X-17.7800 Y8.8900 
G01 Z-2.0000 F508.00 
G00 Z2.5400 
G00 X-20.3200 Y8.8900 
G01 Z-2.0000 F508.00 
G00 Z2.5400 
G00 X-22.8600 Y8.8900 
G01 Z-2.0000 F508.00 
G00 Z2.5400 
G00 X-25.4000 Y8.8900 
G01 Z-2.0000 F508.00 
G00 Z2.5400 
G00 X-27.9400 Y8.8900 
G01 Z-2.0000 F508.00 
G00 Z2.5400 
G00 X-30.4800 Y8.8900 
G01 Z-2.0000 F508.00 
G00 Z2.5400 
G00 X-66.0400 Y8.8900 
G01 Z-2.0000 F508.00 
G00 Z2.5400 
G00 X-68.5800 Y8.8900 
G01 Z-2.0000 F508.00 
G00 Z2.5400 
G00 X-71.1200 Y8.8900 
G01 Z-2.0000 F508.00 
G00 Z2.5400 
G00 X-73.6600 Y8.8900 
G01 Z-2.0000 F508.00 
G00 Z2.5400 
G00 X-76.2000 Y8.8900 
G01 Z-2.0000 F508.00 
G00 Z2.5400 
G00 X-78.7400 Y8.8900 
G01 Z-2.0000 F508.00 
G00 Z2.5400 
G00 X-81.2800 Y8.8900 
G01 Z-2.0000 F508.00 
G00 Z2.5400 
G00 X-83.8200 Y8.8900 
G01 Z-2.0000 F508.00 
G00 Z2.5400 
G00 X-86.3600 Y8.8900 
G01 Z-2.0000 F508.00 
G00 Z2.5400 
G00 X-88.9000 Y8.8900 
G01 Z-2.0000 F508.00 
G00 Z2.5400 
G00 X-95.2500 Y60.9600 
G01 Z-2.0000 F508.00 
G00 Z2.5400 
G00 X-97.7900 Y60.9600 
G01 Z-2.0000 F508.00 
G00 Z2.5400 
G00 X-100.3300 Y60.9600 
G01 Z-2.0000 F508.00 
G00 Z2.5400 
G00 X-102.8700 Y60.9600 
G01 Z-2.0000 F508.00 
G00 Z2.5400 
G00 X-105.4100 Y60.9600 
G01 Z-2.0000 F508.00 
G00 Z2.5400 
G00 X-107.9500 Y60.9600 
G01 Z-2.0000 F508.00 
G00 Z2.5400 
G00 X-110.4900 Y60.9600 
G01 Z-2.0000 F508.00 
G00 Z2.5400 
G00 X-113.0300 Y60.9600 
G01 Z-2.0000 F508.00 
G00 Z2.5400 
G00 X-115.5700 Y60.9600 
G01 Z-2.0000 F508.00 
G00 Z2.5400 
G00 X-118.1100 Y60.9600 
G01 Z-2.0000 F508.00 
G00 Z2.5400 
G00 X-59.6900 Y60.9600 
G01 Z-2.0000 F508.00 
G00 Z2.5400 
G00 X-57.1500 Y60.9600 
G01 Z-2.0000 F508.00 
G00 Z2.5400 
G00 X-54.6100 Y60.9600 
G01 Z-2.0000 F508.00 
G00 Z2.5400 
G00 X-52.0700 Y60.9600 
G01 Z-2.0000 F508.00 
G00 Z2.5400 
G00 X-49.5300 Y60.9600 
G01 Z-2.0000 F508.00 
G00 Z2.5400 
G00 X-46.9900 Y60.9600 
G01 Z-2.0000 F508.00 
G00 Z2.5400 
G00 X-44.4500 Y60.9600 
G01 Z-2.0000 F508.00 
G00 Z2.5400 
G00 X-41.9100 Y60.9600 
G01 Z-2.0000 F508.00 
G00 Z2.5400 
G00 X-39.3700 Y60.9600 
G01 Z-2.0000 F508.00 
G00 Z2.5400 
G00 X-36.8300 Y60.9600 
G01 Z-2.0000 F508.00 
G00 Z2.5400 
M05
G00 Z25.4000 
G00 X0.0000 Y0.0000 
M06 T05  ; 2.5000 
G01 Z0.0000 F508.00 
M06 
G00 Z2.5400 
M03
G04 P3.000000
G00 X-10.1600 Y59.6900 
G01 Z-2.0000 F508.00 
G00 Z2.5400 
G00 X-27.9400 Y59.6900 
G01 Z-2.0000 F508.00 
G00 Z2.5400 
G00 X-68.5800 Y59.6900 
G01 Z-2.0000 F508.00 
G00 Z2.5400 
G00 X-86.3600 Y59.6900 
G01 Z-2.0000 F508.00 
G00 Z2.5400 
G00 X-97.7900 Y10.1600 
G01 Z-2.0000 F508.00 
G00 Z2.5400 
G00 X-115.5700 Y10.1600 
G01 Z-2.0000 F508.00 
G00 Z2.5400 
G00 X-57.1500 Y10.1600 
G01 Z-2.0000 F508.00 
G00 Z2.5400 
G00 X-39.3700 Y10.1600 
G01 Z-2.0000 F508.00 
G00 Z2.5400 
M05
G00 Z25.4000 
G00 X0.0000 Y0.0000 
M06 T06  ; 2.5400 
G01 Z0.0000 F508.00 
M06 
G00 Z2.5400 
M03
G04 P3.000000
G00 X-10.1600 Y13.9700 
G01 Z-2.0000 F508.00 
G00 Z2.5400 
G00 X-27.9400 Y13.9700 
G01 Z-2.0000 F508.00 
G00 Z2.5400 
G00 X-68.5800 Y13.9700 
G01 Z-2.0000 F508.00 
G00 Z2.5400 
G00 X-86.3600 Y13.9700 
G01 Z-2.0000 F508.00 
G00 Z2.5400 
G00 X-97.7900 Y55.8800 
G01 Z-2.0000 F508.00 
G00 Z2.5400 
G00 X-115.5700 Y55.8800 
G01 Z-2.0000 F508.00 
G00 Z2.5400 
G00 X-57.1500 Y55.8800 
G01 Z-2.0000 F508.00 
G00 Z2.5400 
G00 X-39.3700 Y55.8800 
G01 Z-2.0000 F508.00 
G00 Z2.5400 
T01 
G00 Z12.7000 
M05
M02
