(.../pcb-gcode-3.6.2.4/pcb-gcode.ulp)
(Copyright 2005 - 2012 by John Johnson)
(See readme.txt for licensing terms.)
(This file generated from the board:)
(/Volumes/S/new_object/3xobject_1.brd)
(Current profile is .../pcb-gcode-3.6.2.4/profiles/turbocnc.pp  )
(This file generated 11/12/2018 14:32)
(Settings from pcb-machine.h)
(spindle on time = 3.0000)
(  Tool Size)
(0.1000 )
(spindle speed = 30000.0000)
(tool change at 0.0000 0.0000 25.4000 )
(feed rate xy = F254.00 )
(feed rate z  = F254.00 )
(Z Axis Settings)
(  High     Up        Down     Drill)
(12.7000 	2.5400 	-0.0800 	-2.0000 )
(Settings from pcb-defaults.h)
(isolate min = 0.0254)
(isolate max = 0.3000)
(isolate step = 0.0300)
(Generated bottom outlines, bottom drill, )
(Unit of measure: mm)
(Metric Mode)
G21
(Absolute Coordinates)
G90
G97 S30000
G00 Z12.7000 
G00 X0.0000 Y0.0000 
M03
G04 P3.000000
G00 Z2.5400 
G00 X-11.8768 Y4.7490 
G01 Z-0.0800 F254.00 
G01 X-11.8282 Y4.7993 F254.00 
G01 X-11.8178 Y4.8101 
G01 X-11.8079 Y4.8204 
G01 X-11.7579 Y4.8700 
G01 X-11.7591 Y4.9399 
G01 X-11.7594 Y4.9549 
G01 X-11.7596 Y4.9692 
G01 X-11.7594 Y6.4394 
G01 X-11.9756 Y6.6556 
G01 X-12.2578 Y6.6556 
G01 X-12.2855 Y6.6671 
G01 X-12.3067 Y6.6883 
G01 X-12.3182 Y6.7160 
G01 X-12.3182 Y6.9453 
G01 X-12.3067 Y6.9730 
G01 X-12.2855 Y6.9942 
G01 X-12.0890 Y7.0756 
G01 X-11.7856 Y7.3790 
G01 X-11.6214 Y7.7754 
G01 X-11.6214 Y10.0045 
G01 X-11.7856 Y10.4010 
G01 X-12.0890 Y10.7044 
G01 X-12.3363 Y10.8068 
G01 X-12.3575 Y10.8280 
G01 X-12.3690 Y10.8558 
G01 X-12.3690 Y13.1623 
G01 X-12.3575 Y13.1900 
G01 X-12.3363 Y13.2112 
G01 X-12.3086 Y13.2227 
G01 X-12.2786 Y13.2227 
G01 X-12.2509 Y13.2112 
G01 X-12.2297 Y13.1900 
G01 X-12.0341 Y12.7178 
G01 X-11.4122 Y12.0959 
G01 X-10.5997 Y11.7594 
G01 X-9.7203 Y11.7594 
G01 X-8.9078 Y12.0959 
G01 X-8.2859 Y12.7178 
G01 X-7.9494 Y13.5303 
G01 X-7.9494 Y14.4097 
G01 X-8.2859 Y15.2222 
G01 X-8.9078 Y15.8441 
G01 X-9.7203 Y16.1806 
G01 X-10.5997 Y16.1806 
G01 X-11.4122 Y15.8441 
G01 X-12.0341 Y15.2222 
G01 X-12.3567 Y14.4434 
G01 X-12.3779 Y14.4222 
G01 X-12.4056 Y14.4107 
G01 X-12.4356 Y14.4107 
G01 X-12.4633 Y14.4222 
G01 X-12.4845 Y14.4434 
G01 X-12.4960 Y14.4711 
G01 X-12.4960 Y16.8647 
G01 X-12.4845 Y16.8924 
G01 X-12.4633 Y16.9136 
G01 X-12.1670 Y17.2099 
G01 X-12.1393 Y17.2214 
G01 X-11.1910 Y17.2214 
G01 X-11.0864 Y17.3260 
G01 X-11.0864 Y18.7740 
G01 X-11.1910 Y18.8786 
G01 X-12.9436 Y18.8786 
G01 X-12.9713 Y18.8901 
G01 X-12.9925 Y18.9113 
G01 X-13.0040 Y18.9390 
G01 X-13.0040 Y24.1196 
G01 X-12.9925 Y24.1473 
G01 X-12.9713 Y24.1685 
G01 X-12.9436 Y24.1800 
G01 X-12.5629 Y24.1800 
G01 X-12.3690 Y24.3739 
G01 X-12.3690 Y34.9351 
G01 X-12.5629 Y35.1290 
G01 X-15.6106 Y35.1290 
G01 X-15.6383 Y35.1405 
G01 X-15.6595 Y35.1617 
G01 X-15.6710 Y35.1894 
G01 X-15.6710 Y46.5986 
G01 X-15.6595 Y46.6263 
G01 X-15.6383 Y46.6475 
G01 X-15.6106 Y46.6590 
G01 X-13.7538 Y46.6590 
G01 X-13.7261 Y46.6475 
G01 X-13.7049 Y46.6263 
G01 X-13.6051 Y46.3852 
G01 X-13.3048 Y46.0849 
G01 X-12.9124 Y45.9224 
G01 X-12.4876 Y45.9224 
G01 X-12.0952 Y46.0849 
G01 X-11.7949 Y46.3852 
G01 X-11.6324 Y46.7776 
G01 X-11.6324 Y47.2024 
G01 X-11.7949 Y47.5948 
G01 X-12.0952 Y47.8951 
G01 X-12.4876 Y48.0576 
G01 X-12.9124 Y48.0576 
G01 X-13.3048 Y47.8951 
G01 X-13.6051 Y47.5948 
G01 X-13.7049 Y47.3537 
G01 X-13.7261 Y47.3325 
G01 X-13.7538 Y47.3210 
G01 X-16.1186 Y47.3210 
G01 X-16.1463 Y47.3325 
G01 X-16.1675 Y47.3537 
G01 X-16.1790 Y47.3814 
G01 X-16.1790 Y49.1386 
G01 X-16.1675 Y49.1663 
G01 X-16.1463 Y49.1875 
G01 X-16.1186 Y49.1990 
G01 X-13.7538 Y49.1990 
G01 X-13.7261 Y49.1875 
G01 X-13.7049 Y49.1663 
G01 X-13.6051 Y48.9252 
G01 X-13.3048 Y48.6249 
G01 X-12.9124 Y48.4624 
G01 X-12.4876 Y48.4624 
G01 X-12.0952 Y48.6249 
G01 X-11.7949 Y48.9252 
G01 X-11.6324 Y49.3176 
G01 X-11.6324 Y49.7424 
G01 X-11.7949 Y50.1348 
G01 X-11.9390 Y50.2789 
G01 X-11.9574 Y50.2972 
G01 X-11.9602 Y50.3001 
G01 X-11.9717 Y50.3278 
G01 X-11.9717 Y50.3578 
G01 X-11.9602 Y50.3855 
G01 X-11.9390 Y50.4067 
G01 X-11.9113 Y50.4182 
G01 X-11.2372 Y50.4182 
G01 X-11.2095 Y50.4067 
G01 X-11.1883 Y50.3855 
G01 X-11.1768 Y50.3578 
G01 X-11.1768 Y47.4668 
G01 X-9.9115 Y46.2015 
G01 X-9.8903 Y46.1803 
G01 X-9.8788 Y46.1526 
G01 X-9.8788 Y46.1226 
G01 X-9.8903 Y46.0949 
G01 X-9.9576 Y45.9324 
G01 X-9.9576 Y45.5076 
G01 X-9.7951 Y45.1152 
G01 X-9.4948 Y44.8149 
G01 X-9.1024 Y44.6524 
G01 X-8.6776 Y44.6524 
G01 X-8.2852 Y44.8149 
G01 X-7.9849 Y45.1152 
G01 X-7.8224 Y45.5076 
G01 X-7.8224 Y45.9324 
G01 X-7.9849 Y46.3248 
G01 X-8.2852 Y46.6251 
G01 X-8.6776 Y46.7876 
G01 X-9.1024 Y46.7876 
G01 X-9.2649 Y46.7203 
G01 X-9.2915 Y46.7093 
G01 X-9.3226 Y46.7088 
G01 X-9.3503 Y46.7203 
G01 X-9.3715 Y46.7415 
G01 X-10.4017 Y47.7717 
G01 X-10.4132 Y47.7994 
G01 X-10.4132 Y50.9582 
G01 X-10.6368 Y51.1818 
G01 X-12.3242 Y51.1818 
G01 X-12.4187 Y51.1427 
G01 X-12.6050 Y51.1056 
G01 X-12.7950 Y51.1056 
G01 X-12.9813 Y51.1427 
G01 X-13.0758 Y51.1818 
G01 X-19.2081 Y51.1818 
G01 X-19.4318 Y50.9582 
G01 X-19.4318 Y46.1622 
G01 X-19.4433 Y46.1345 
G01 X-19.4645 Y46.1133 
G01 X-19.4922 Y46.1018 
G01 X-23.5610 Y46.1018 
G01 X-23.5887 Y46.1133 
G01 X-23.6099 Y46.1345 
G01 X-23.6214 Y46.1622 
G01 X-23.6214 Y46.5940 
G01 X-23.7260 Y46.6986 
G01 X-24.0078 Y46.6986 
G01 X-24.0355 Y46.7101 
G01 X-24.0567 Y46.7313 
G01 X-24.0682 Y46.7590 
G01 X-24.0682 Y47.2210 
G01 X-24.0567 Y47.2487 
G01 X-24.0355 Y47.2699 
G01 X-24.0078 Y47.2814 
G01 X-23.6760 Y47.2814 
G01 X-23.5714 Y47.3860 
G01 X-23.5714 Y49.1340 
G01 X-23.6760 Y49.2386 
G01 X-23.9578 Y49.2386 
G01 X-23.9855 Y49.2501 
G01 X-24.0067 Y49.2713 
G01 X-24.0182 Y49.2990 
G01 X-24.0182 Y49.7610 
G01 X-24.0067 Y49.7887 
G01 X-23.9855 Y49.8099 
G01 X-23.9578 Y49.8214 
G01 X-23.7260 Y49.8214 
G01 X-23.6214 Y49.9260 
G01 X-23.6214 Y51.6740 
G01 X-23.7260 Y51.7786 
G01 X-25.1740 Y51.7786 
G01 X-25.2786 Y51.6740 
G01 X-25.2786 Y49.9260 
G01 X-25.1740 Y49.8214 
G01 X-24.8422 Y49.8214 
G01 X-24.8145 Y49.8099 
G01 X-24.7933 Y49.7887 
G01 X-24.7818 Y49.7610 
G01 X-24.7818 Y49.2990 
G01 X-24.7933 Y49.2713 
G01 X-24.8145 Y49.2501 
G01 X-24.8422 Y49.2386 
G01 X-25.1240 Y49.2386 
G01 X-25.2286 Y49.1340 
G01 X-25.2286 Y47.3860 
G01 X-25.1240 Y47.2814 
G01 X-24.8922 Y47.2814 
G01 X-24.8645 Y47.2699 
G01 X-24.8433 Y47.2487 
G01 X-24.8318 Y47.2210 
G01 X-24.8318 Y46.7590 
G01 X-24.8433 Y46.7313 
G01 X-24.8645 Y46.7101 
G01 X-24.8922 Y46.6986 
G01 X-25.1740 Y46.6986 
G01 X-25.2786 Y46.5940 
G01 X-25.2786 Y44.8460 
G01 X-25.1740 Y44.7414 
G01 X-23.7260 Y44.7414 
G01 X-23.6214 Y44.8460 
G01 X-23.6214 Y45.2778 
G01 X-23.6099 Y45.3055 
G01 X-23.5887 Y45.3267 
G01 X-23.5610 Y45.3382 
G01 X-18.8918 Y45.3382 
G01 X-18.6682 Y45.5618 
G01 X-18.6682 Y50.3578 
G01 X-18.6567 Y50.3855 
G01 X-18.6355 Y50.4067 
G01 X-18.6078 Y50.4182 
G01 X-13.4887 Y50.4182 
G01 X-13.4610 Y50.4067 
G01 X-13.4398 Y50.3855 
G01 X-13.4283 Y50.3578 
G01 X-13.4283 Y50.3278 
G01 X-13.4398 Y50.3001 
G01 X-13.4610 Y50.2789 
G01 X-13.6051 Y50.1348 
G01 X-13.7049 Y49.8937 
G01 X-13.7261 Y49.8725 
G01 X-13.7538 Y49.8610 
G01 X-16.6471 Y49.8610 
G01 X-16.8410 Y49.6671 
G01 X-16.8410 Y34.1529 
G01 X-16.6471 Y33.9590 
G01 X-13.5994 Y33.9590 
G01 X-13.5717 Y33.9475 
G01 X-13.5505 Y33.9263 
G01 X-13.5390 Y33.8986 
G01 X-13.5390 Y25.4104 
G01 X-13.5505 Y25.3827 
G01 X-13.5717 Y25.3615 
G01 X-13.5994 Y25.3500 
G01 X-13.9801 Y25.3500 
G01 X-14.1740 Y25.1561 
G01 X-14.1740 Y15.3614 
G01 X-14.1855 Y15.3337 
G01 X-14.2067 Y15.3125 
G01 X-14.2344 Y15.3010 
G01 X-16.2456 Y15.3010 
G01 X-16.2733 Y15.3125 
G01 X-16.2945 Y15.3337 
G01 X-16.3060 Y15.3614 
G01 X-16.3060 Y20.0948 
G01 X-16.2945 Y20.1225 
G01 X-16.2733 Y20.1437 
G01 X-16.2552 Y20.1618 
G01 X-16.2552 Y20.4781 
G01 X-16.4788 Y20.7018 
G01 X-28.1772 Y20.7018 
G01 X-28.2049 Y20.7133 
G01 X-28.2261 Y20.7345 
G01 X-28.3049 Y20.9248 
G01 X-28.6052 Y21.2251 
G01 X-28.9976 Y21.3876 
G01 X-29.4224 Y21.3876 
G01 X-29.8148 Y21.2251 
G01 X-30.1151 Y20.9248 
G01 X-30.2776 Y20.5324 
G01 X-30.2776 Y20.1076 
G01 X-30.2103 Y19.9451 
G01 X-30.1993 Y19.9185 
G01 X-30.1988 Y19.8874 
G01 X-30.2103 Y19.8597 
G01 X-30.2315 Y19.8385 
G01 X-32.1318 Y17.9382 
G01 X-32.1318 Y11.2718 
G01 X-31.8967 Y11.0367 
G01 X-31.8755 Y11.0155 
G01 X-31.3704 Y10.5104 
G01 X-31.3670 Y10.5024 
G01 X-31.3589 Y10.4827 
G01 X-31.3589 Y10.4527 
G01 X-31.3655 Y10.4367 
G01 X-31.3704 Y10.4250 
G01 X-31.3916 Y10.4038 
G01 X-31.3944 Y10.4010 
G01 X-31.5586 Y10.0045 
G01 X-31.5586 Y7.7755 
G01 X-31.3944 Y7.3790 
G01 X-31.0910 Y7.0756 
G01 X-30.6945 Y6.9114 
G01 X-30.2654 Y6.9114 
G01 X-29.8690 Y7.0756 
G01 X-29.5656 Y7.3790 
G01 X-29.4014 Y7.7754 
G01 X-29.4014 Y10.0045 
G01 X-29.5656 Y10.4010 
G01 X-29.8690 Y10.7044 
G01 X-30.2654 Y10.8686 
G01 X-30.6324 Y10.8686 
G01 X-30.6601 Y10.8801 
G01 X-30.6813 Y10.9013 
G01 X-31.3567 Y11.5767 
G01 X-31.3682 Y11.6044 
G01 X-31.3682 Y17.6056 
G01 X-31.3567 Y17.6333 
G01 X-31.3355 Y17.6545 
G01 X-29.6703 Y19.3197 
G01 X-29.6426 Y19.3312 
G01 X-29.6126 Y19.3312 
G01 X-29.5849 Y19.3197 
G01 X-29.4224 Y19.2524 
G01 X-28.9976 Y19.2524 
G01 X-28.6052 Y19.4149 
G01 X-28.3049 Y19.7152 
G01 X-28.2261 Y19.9055 
G01 X-28.2049 Y19.9267 
G01 X-28.1772 Y19.9382 
G01 X-17.0284 Y19.9382 
G01 X-17.0007 Y19.9267 
G01 X-16.9795 Y19.9055 
G01 X-16.9680 Y19.8778 
G01 X-16.9680 Y18.1830 
G01 X-16.9726 Y18.1719 
G01 X-16.9795 Y18.1553 
G01 X-17.0007 Y18.1341 
G01 X-17.0284 Y18.1226 
G01 X-17.0584 Y18.1226 
G01 X-17.0696 Y18.1272 
G01 X-17.0861 Y18.1341 
G01 X-17.1073 Y18.1553 
G01 X-17.1138 Y18.1618 
G01 X-28.1772 Y18.1618 
G01 X-28.2049 Y18.1733 
G01 X-28.2261 Y18.1945 
G01 X-28.3049 Y18.3848 
G01 X-28.6052 Y18.6851 
G01 X-28.9976 Y18.8476 
G01 X-29.4224 Y18.8476 
G01 X-29.8148 Y18.6851 
G01 X-30.1151 Y18.3848 
G01 X-30.2776 Y17.9924 
G01 X-30.2776 Y17.5676 
G01 X-30.2103 Y17.4051 
G01 X-30.1993 Y17.3785 
G01 X-30.1988 Y17.3474 
G01 X-30.2103 Y17.3197 
G01 X-30.2315 Y17.2985 
G01 X-30.6267 Y16.9033 
G01 X-30.8618 Y16.6682 
G01 X-30.8618 Y12.5418 
G01 X-30.6267 Y12.3067 
G01 X-28.8304 Y10.5104 
G01 X-28.8238 Y10.4945 
G01 X-28.8189 Y10.4827 
G01 X-28.8189 Y10.4527 
G01 X-28.8255 Y10.4367 
G01 X-28.8304 Y10.4250 
G01 X-28.8516 Y10.4038 
G01 X-28.8544 Y10.4010 
G01 X-29.0186 Y10.0045 
G01 X-29.0186 Y7.7754 
G01 X-28.8544 Y7.3790 
G01 X-28.5510 Y7.0756 
G01 X-28.1545 Y6.9114 
G01 X-27.7254 Y6.9114 
G01 X-27.3290 Y7.0756 
G01 X-27.0256 Y7.3790 
G01 X-26.8614 Y7.7754 
G01 X-26.8614 Y10.0045 
G01 X-27.0256 Y10.4010 
G01 X-27.3290 Y10.7044 
G01 X-27.7254 Y10.8686 
G01 X-28.0924 Y10.8686 
G01 X-28.1201 Y10.8801 
G01 X-28.1365 Y10.8964 
G01 X-29.1590 Y11.9189 
G01 X-29.1638 Y11.9238 
G01 X-29.1802 Y11.9401 
G01 X-29.1916 Y11.9679 
G01 X-29.1916 Y11.9978 
G01 X-29.1802 Y12.0256 
G01 X-29.1590 Y12.0468 
G01 X-29.1313 Y12.0582 
G01 X-29.1013 Y12.0582 
G01 X-29.0735 Y12.0468 
G01 X-28.3797 Y11.7594 
G01 X-27.5003 Y11.7594 
G01 X-27.4416 Y11.7837 
G01 X-26.7127 Y12.0856 
G01 X-26.6878 Y12.0959 
G01 X-26.0659 Y12.7178 
G01 X-25.7294 Y13.5303 
G01 X-25.7294 Y14.4097 
G01 X-25.8136 Y14.6130 
G01 X-25.8245 Y14.6395 
G01 X-25.8251 Y14.6707 
G01 X-25.8136 Y14.6984 
G01 X-25.7924 Y14.7196 
G01 X-25.7646 Y14.7311 
G01 X-25.7347 Y14.7311 
G01 X-25.7069 Y14.7196 
G01 X-25.6857 Y14.6984 
G01 X-23.4565 Y12.4692 
G01 X-23.4450 Y12.4414 
G01 X-23.4450 Y10.7466 
G01 X-23.4565 Y10.7189 
G01 X-23.4777 Y10.6977 
G01 X-23.7744 Y10.4010 
G01 X-23.9386 Y10.0045 
G01 X-23.9386 Y7.7754 
G01 X-23.7744 Y7.3790 
G01 X-23.4710 Y7.0756 
G01 X-23.0745 Y6.9114 
G01 X-22.6454 Y6.9114 
G01 X-22.2490 Y7.0756 
G01 X-21.9456 Y7.3790 
G01 X-21.7814 Y7.7754 
G01 X-21.7814 Y10.0045 
G01 X-21.9456 Y10.4010 
G01 X-22.2423 Y10.6977 
G01 X-22.2583 Y10.7137 
G01 X-22.2635 Y10.7189 
G01 X-22.2750 Y10.7466 
G01 X-22.2750 Y12.8164 
G01 X-22.3640 Y13.0314 
G01 X-22.5498 Y13.2172 
G01 X-25.3427 Y16.0101 
G01 X-25.3542 Y16.0378 
G01 X-25.3542 Y16.0678 
G01 X-25.3427 Y16.0955 
G01 X-25.3215 Y16.1167 
G01 X-25.2938 Y16.1282 
G01 X-18.2984 Y16.1282 
G01 X-18.2707 Y16.1167 
G01 X-18.2495 Y16.0955 
G01 X-18.2380 Y16.0678 
G01 X-18.2380 Y13.8329 
G01 X-18.0441 Y13.6390 
G01 X-15.7709 Y13.6390 
G01 X-15.7432 Y13.6275 
G01 X-15.7220 Y13.6063 
G01 X-15.7105 Y13.5786 
G01 X-15.7105 Y13.2710 
G01 X-15.7022 Y13.2627 
G01 X-15.7004 Y13.2583 
G01 X-15.6907 Y13.2350 
G01 X-15.6907 Y13.2050 
G01 X-15.6974 Y13.1890 
G01 X-15.7022 Y13.1773 
G01 X-15.7105 Y13.1690 
G01 X-15.7105 Y12.7710 
G01 X-15.6037 Y12.6642 
G01 X-15.5850 Y12.6455 
G01 X-15.5710 Y12.6153 
G01 X-15.5710 Y10.8558 
G01 X-15.5825 Y10.8280 
G01 X-15.6037 Y10.8068 
G01 X-15.8510 Y10.7044 
G01 X-16.1544 Y10.4010 
G01 X-16.3186 Y10.0045 
G01 X-16.3186 Y7.7754 
G01 X-16.1544 Y7.3790 
G01 X-15.8510 Y7.0756 
G01 X-15.6545 Y6.9942 
G01 X-15.6333 Y6.9730 
G01 X-15.6218 Y6.9453 
G01 X-15.6218 Y6.7160 
G01 X-15.6333 Y6.6883 
G01 X-15.6545 Y6.6671 
G01 X-15.6822 Y6.6556 
G01 X-15.9644 Y6.6556 
G01 X-16.1806 Y6.4394 
G01 X-16.1806 Y4.9698 
G01 X-16.1806 Y4.9549 
G01 X-16.1806 Y4.9405 
G01 X-16.1821 Y4.8700 
G01 X-16.1328 Y4.8206 
G01 X-16.1221 Y4.8100 
G01 X-16.1120 Y4.7999 
G01 X-16.0632 Y4.7490 
G01 X-15.9934 Y4.7490 
G01 X-15.9785 Y4.7490 
G01 X-15.9641 Y4.7490 
G01 X-15.8936 Y4.7475 
G01 X-15.8442 Y4.7969 
G01 X-15.8336 Y4.8075 
G01 X-15.8235 Y4.8176 
G01 X-15.4443 Y5.1834 
G01 X-15.3255 Y5.3022 
G01 X-15.2971 Y5.3305 
G01 X-15.2885 Y5.3341 
G01 X-15.2838 Y5.3390 
G01 X-15.2689 Y5.3454 
G01 X-15.2563 Y5.3509 
G01 X-15.2537 Y5.3514 
G01 X-15.2400 Y5.3512 
G01 X-15.2263 Y5.3514 
G01 X-15.2237 Y5.3509 
G01 X-15.2111 Y5.3454 
G01 X-15.1984 Y5.3405 
G01 X-15.1915 Y5.3341 
G01 X-15.1829 Y5.3305 
G01 X-15.0357 Y5.1833 
G01 X-14.6571 Y4.8178 
G01 X-14.6464 Y4.8075 
G01 X-14.6361 Y4.7975 
G01 X-14.5864 Y4.7475 
G01 X-14.5165 Y4.7487 
G01 X-14.5015 Y4.7490 
G01 X-14.4872 Y4.7492 
G01 X-14.4168 Y4.7490 
G01 X-14.3682 Y4.7993 
G01 X-14.3578 Y4.8100 
G01 X-14.3479 Y4.8204 
G01 X-14.2979 Y4.8700 
G01 X-14.2991 Y4.9399 
G01 X-14.2994 Y4.9549 
G01 X-14.2996 Y4.9692 
G01 X-14.2994 Y6.4394 
G01 X-14.5156 Y6.6556 
G01 X-14.7978 Y6.6556 
G01 X-14.8255 Y6.6671 
G01 X-14.8467 Y6.6883 
G01 X-14.8582 Y6.7160 
G01 X-14.8582 Y6.9453 
G01 X-14.8467 Y6.9730 
G01 X-14.8255 Y6.9942 
G01 X-14.6290 Y7.0756 
G01 X-14.3256 Y7.3790 
G01 X-14.1614 Y7.7754 
G01 X-14.1614 Y10.0045 
G01 X-14.3256 Y10.4010 
G01 X-14.6290 Y10.7044 
G01 X-14.8763 Y10.8068 
G01 X-14.8975 Y10.8280 
G01 X-14.9090 Y10.8558 
G01 X-14.9090 Y12.6060 
G01 X-14.8975 Y12.6337 
G01 X-14.8763 Y12.6549 
G01 X-14.8486 Y12.6664 
G01 X-14.4579 Y12.6664 
G01 X-14.3533 Y12.7710 
G01 X-14.3533 Y13.0786 
G01 X-14.3418 Y13.1063 
G01 X-14.3206 Y13.1275 
G01 X-14.2929 Y13.1390 
G01 X-13.0914 Y13.1390 
G01 X-13.0637 Y13.1275 
G01 X-13.0425 Y13.1063 
G01 X-13.0310 Y13.0786 
G01 X-13.0310 Y10.8558 
G01 X-13.0425 Y10.8280 
G01 X-13.0637 Y10.8068 
G01 X-13.3110 Y10.7044 
G01 X-13.6144 Y10.4010 
G01 X-13.7786 Y10.0045 
G01 X-13.7786 Y7.7754 
G01 X-13.6144 Y7.3790 
G01 X-13.3110 Y7.0756 
G01 X-13.1145 Y6.9942 
G01 X-13.0933 Y6.9730 
G01 X-13.0818 Y6.9453 
G01 X-13.0818 Y6.7160 
G01 X-13.0933 Y6.6883 
G01 X-13.1145 Y6.6671 
G01 X-13.1422 Y6.6556 
G01 X-13.4244 Y6.6556 
G01 X-13.6406 Y6.4394 
G01 X-13.6406 Y4.9698 
G01 X-13.6406 Y4.9549 
G01 X-13.6406 Y4.9405 
G01 X-13.6421 Y4.8700 
G01 X-13.5928 Y4.8206 
G01 X-13.5821 Y4.8100 
G01 X-13.5720 Y4.7999 
G01 X-13.5232 Y4.7490 
G01 X-13.4534 Y4.7490 
G01 X-13.4385 Y4.7490 
G01 X-13.4241 Y4.7490 
G01 X-13.3536 Y4.7475 
G01 X-13.3042 Y4.7969 
G01 X-13.2936 Y4.8075 
G01 X-13.2835 Y4.8176 
G01 X-12.9043 Y5.1833 
G01 X-12.7855 Y5.3022 
G01 X-12.7571 Y5.3305 
G01 X-12.7485 Y5.3341 
G01 X-12.7438 Y5.3390 
G01 X-12.7289 Y5.3454 
G01 X-12.7163 Y5.3509 
G01 X-12.7137 Y5.3514 
G01 X-12.7000 Y5.3512 
G01 X-12.6863 Y5.3514 
G01 X-12.6837 Y5.3509 
G01 X-12.6711 Y5.3454 
G01 X-12.6584 Y5.3405 
G01 X-12.6515 Y5.3341 
G01 X-12.6429 Y5.3305 
G01 X-12.4957 Y5.1833 
G01 X-12.1171 Y4.8178 
G01 X-12.1064 Y4.8075 
G01 X-12.0961 Y4.7975 
G01 X-12.0464 Y4.7475 
G01 X-11.9765 Y4.7487 
G01 X-11.9615 Y4.7490 
G01 X-11.9472 Y4.7492 
G01 X-11.8768 Y4.7490 
G00 Z2.5400 
G00 X-11.9048 Y4.8686 
G01 Z-0.0800 F254.00 
G01 X-11.9057 Y4.8682 F254.00 
G01 X-11.9240 Y4.8602 
G01 X-11.9416 Y4.8526 
G01 X-11.9625 Y4.8522 
G01 X-11.9817 Y4.8519 
G01 X-12.0011 Y4.8595 
G01 X-12.0190 Y4.8666 
G01 X-12.0339 Y4.8810 
G01 X-12.7000 Y5.5241 
G01 X-13.3660 Y4.8810 
G01 X-13.3795 Y4.8675 
G01 X-13.3989 Y4.8595 
G01 X-13.4165 Y4.8522 
G01 X-13.4375 Y4.8522 
G01 X-13.4566 Y4.8522 
G01 X-13.4760 Y4.8602 
G01 X-13.4937 Y4.8675 
G01 X-13.5086 Y4.8824 
G01 X-13.5221 Y4.8959 
G01 X-13.5301 Y4.9153 
G01 X-13.5374 Y4.9329 
G01 X-13.5374 Y4.9539 
G01 X-13.5374 Y6.3215 
G01 X-13.5193 Y6.3891 
G01 X-13.4843 Y6.4498 
G01 X-13.4348 Y6.4993 
G01 X-13.3741 Y6.5343 
G01 X-13.3065 Y6.5524 
G01 X-12.9786 Y6.5524 
G01 X-12.9786 Y7.0509 
G01 X-12.9845 Y7.0521 
G01 X-13.1620 Y7.1256 
G01 X-13.3218 Y7.2324 
G01 X-13.4576 Y7.3682 
G01 X-13.5644 Y7.5280 
G01 X-13.6379 Y7.7055 
G01 X-13.6754 Y7.8939 
G01 X-13.6754 Y9.8861 
G01 X-13.6379 Y10.0745 
G01 X-13.5644 Y10.2520 
G01 X-13.4576 Y10.4118 
G01 X-13.3218 Y10.5476 
G01 X-13.1620 Y10.6544 
G01 X-12.9845 Y10.7279 
G01 X-12.9278 Y10.7392 
G01 X-12.9278 Y13.2422 
G01 X-15.0772 Y13.2422 
G01 X-15.1434 Y13.2696 
G01 X-15.5469 Y13.2696 
G01 X-15.5746 Y13.2811 
G01 X-15.5958 Y13.3023 
G01 X-15.6073 Y13.3300 
G01 X-15.6073 Y13.6100 
G01 X-15.5958 Y13.6377 
G01 X-15.5746 Y13.6589 
G01 X-15.5469 Y13.6704 
G01 X-15.1434 Y13.6704 
G01 X-15.0772 Y13.6978 
G01 X-12.6547 Y13.6978 
G01 X-12.5710 Y13.6631 
G01 X-12.5069 Y13.5990 
G01 X-12.4722 Y13.5153 
G01 X-12.4722 Y10.7392 
G01 X-12.4155 Y10.7279 
G01 X-12.2380 Y10.6544 
G01 X-12.0782 Y10.5476 
G01 X-11.9424 Y10.4118 
G01 X-11.8356 Y10.2520 
G01 X-11.7621 Y10.0745 
G01 X-11.7246 Y9.8861 
G01 X-11.7246 Y7.8939 
G01 X-11.7621 Y7.7055 
G01 X-11.8356 Y7.5280 
G01 X-11.9424 Y7.3682 
G01 X-12.0782 Y7.2324 
G01 X-12.2380 Y7.1256 
G01 X-12.4155 Y7.0521 
G01 X-12.4214 Y7.0509 
G01 X-12.4214 Y6.5524 
G01 X-12.0935 Y6.5524 
G01 X-12.0259 Y6.5343 
G01 X-11.9652 Y6.4993 
G01 X-11.9157 Y6.4498 
G01 X-11.8807 Y6.3891 
G01 X-11.8626 Y6.3215 
G01 X-11.8626 Y4.9539 
G01 X-11.8623 Y4.9347 
G01 X-11.8699 Y4.9153 
G01 X-11.8770 Y4.8974 
G01 X-11.8914 Y4.8824 
G01 X-11.9048 Y4.8686 
G00 Z2.5400 
G00 X-14.4448 Y4.8686 
G01 Z-0.0800 F254.00 
G01 X-14.4457 Y4.8682 F254.00 
G01 X-14.4640 Y4.8602 
G01 X-14.4816 Y4.8526 
G01 X-14.5025 Y4.8522 
G01 X-14.5217 Y4.8519 
G01 X-14.5411 Y4.8595 
G01 X-14.5590 Y4.8666 
G01 X-14.5739 Y4.8810 
G01 X-15.2400 Y5.5241 
G01 X-15.9060 Y4.8810 
G01 X-15.9195 Y4.8675 
G01 X-15.9389 Y4.8595 
G01 X-15.9565 Y4.8522 
G01 X-15.9775 Y4.8522 
G01 X-15.9967 Y4.8522 
G01 X-16.0160 Y4.8602 
G01 X-16.0337 Y4.8675 
G01 X-16.0486 Y4.8824 
G01 X-16.0620 Y4.8959 
G01 X-16.0701 Y4.9153 
G01 X-16.0774 Y4.9329 
G01 X-16.0774 Y4.9539 
G01 X-16.0774 Y6.3215 
G01 X-16.0593 Y6.3891 
G01 X-16.0243 Y6.4498 
G01 X-15.9748 Y6.4993 
G01 X-15.9141 Y6.5343 
G01 X-15.8465 Y6.5524 
G01 X-15.5186 Y6.5524 
G01 X-15.5186 Y7.0509 
G01 X-15.5245 Y7.0521 
G01 X-15.7020 Y7.1256 
G01 X-15.8618 Y7.2324 
G01 X-15.9976 Y7.3682 
G01 X-16.1044 Y7.5280 
G01 X-16.1779 Y7.7055 
G01 X-16.2154 Y7.8939 
G01 X-16.2154 Y9.8861 
G01 X-16.1779 Y10.0745 
G01 X-16.1044 Y10.2520 
G01 X-15.9976 Y10.4118 
G01 X-15.8618 Y10.5476 
G01 X-15.7020 Y10.6544 
G01 X-15.5245 Y10.7279 
G01 X-15.4678 Y10.7392 
G01 X-15.4678 Y12.7696 
G01 X-15.5469 Y12.7696 
G01 X-15.5746 Y12.7811 
G01 X-15.5958 Y12.8023 
G01 X-15.6073 Y12.8300 
G01 X-15.6073 Y13.1100 
G01 X-15.5958 Y13.1377 
G01 X-15.5746 Y13.1589 
G01 X-15.5469 Y13.1704 
G01 X-15.1408 Y13.1704 
G01 X-15.1119 Y13.1881 
G01 X-15.0224 Y13.2021 
G01 X-14.9343 Y13.1807 
G01 X-14.9201 Y13.1704 
G01 X-14.5169 Y13.1704 
G01 X-14.4892 Y13.1589 
G01 X-14.4680 Y13.1377 
G01 X-14.4565 Y13.1100 
G01 X-14.4565 Y12.8300 
G01 X-14.4680 Y12.8023 
G01 X-14.4892 Y12.7811 
G01 X-14.5169 Y12.7696 
G01 X-14.9230 Y12.7696 
G01 X-15.0122 Y12.7152 
G01 X-15.0122 Y10.7392 
G01 X-14.9555 Y10.7279 
G01 X-14.7780 Y10.6544 
G01 X-14.6182 Y10.5476 
G01 X-14.4824 Y10.4118 
G01 X-14.3756 Y10.2520 
G01 X-14.3021 Y10.0745 
G01 X-14.2646 Y9.8861 
G01 X-14.2646 Y7.8939 
G01 X-14.3021 Y7.7055 
G01 X-14.3756 Y7.5280 
G01 X-14.4824 Y7.3682 
G01 X-14.6182 Y7.2324 
G01 X-14.7780 Y7.1256 
G01 X-14.9555 Y7.0521 
G01 X-14.9614 Y7.0509 
G01 X-14.9614 Y6.5524 
G01 X-14.6335 Y6.5524 
G01 X-14.5659 Y6.5343 
G01 X-14.5052 Y6.4993 
G01 X-14.4557 Y6.4498 
G01 X-14.4207 Y6.3891 
G01 X-14.4026 Y6.3215 
G01 X-14.4026 Y4.9539 
G01 X-14.4023 Y4.9347 
G01 X-14.4099 Y4.9153 
G01 X-14.4170 Y4.8974 
G01 X-14.4314 Y4.8824 
G01 X-14.4448 Y4.8686 
G00 Z2.5400 
G00 X-16.8379 Y4.8700 
G01 Z-0.0800 F254.00 
G01 X-16.8391 Y4.9399 F254.00 
G01 X-16.8394 Y4.9549 
G01 X-16.8396 Y4.9692 
G01 X-16.8394 Y6.4394 
G01 X-17.0556 Y6.6556 
G01 X-17.3378 Y6.6556 
G01 X-17.3655 Y6.6671 
G01 X-17.3867 Y6.6883 
G01 X-17.3982 Y6.7160 
G01 X-17.3982 Y6.9453 
G01 X-17.3867 Y6.9730 
G01 X-17.3655 Y6.9942 
G01 X-17.1690 Y7.0756 
G01 X-16.8656 Y7.3790 
G01 X-16.7014 Y7.7754 
G01 X-16.7014 Y10.0045 
G01 X-16.8656 Y10.4010 
G01 X-17.1690 Y10.7044 
G01 X-17.4163 Y10.8068 
G01 X-17.4375 Y10.8280 
G01 X-17.4490 Y10.8558 
G01 X-17.4490 Y13.1071 
G01 X-17.6429 Y13.3010 
G01 X-18.5191 Y13.3010 
G01 X-18.5468 Y13.3125 
G01 X-18.5680 Y13.3337 
G01 X-18.5795 Y13.3614 
G01 X-18.5795 Y13.6690 
G01 X-18.6841 Y13.7736 
G01 X-18.7334 Y13.7736 
G01 X-18.7431 Y13.7696 
G01 X-19.7731 Y13.7696 
G01 X-19.8008 Y13.7811 
G01 X-19.8207 Y13.8010 
G01 X-20.4571 Y13.8010 
G01 X-20.6510 Y13.6071 
G01 X-20.6510 Y10.8558 
G01 X-20.6625 Y10.8280 
G01 X-20.6837 Y10.8068 
G01 X-20.9310 Y10.7044 
G01 X-21.2344 Y10.4010 
G01 X-21.3986 Y10.0045 
G01 X-21.3986 Y7.7754 
G01 X-21.2344 Y7.3790 
G01 X-20.9310 Y7.0756 
G01 X-20.7345 Y6.9942 
G01 X-20.7133 Y6.9730 
G01 X-20.7018 Y6.9453 
G01 X-20.7018 Y6.7160 
G01 X-20.7133 Y6.6883 
G01 X-20.7345 Y6.6671 
G01 X-20.7622 Y6.6556 
G01 X-21.0444 Y6.6556 
G01 X-21.2606 Y6.4394 
G01 X-21.2606 Y4.9698 
G01 X-21.2606 Y4.9549 
G01 X-21.2606 Y4.9405 
G01 X-21.2621 Y4.8700 
G01 X-21.2127 Y4.8206 
G01 X-21.2021 Y4.8100 
G01 X-21.1920 Y4.7999 
G01 X-21.1432 Y4.7490 
G01 X-21.0734 Y4.7490 
G01 X-21.0585 Y4.7490 
G01 X-21.0441 Y4.7490 
G01 X-20.9736 Y4.7475 
G01 X-20.9242 Y4.7969 
G01 X-20.9135 Y4.8075 
G01 X-20.9035 Y4.8176 
G01 X-20.5243 Y5.1833 
G01 X-20.4054 Y5.3022 
G01 X-20.3771 Y5.3305 
G01 X-20.3685 Y5.3341 
G01 X-20.3638 Y5.3390 
G01 X-20.3489 Y5.3454 
G01 X-20.3363 Y5.3509 
G01 X-20.3337 Y5.3514 
G01 X-20.3200 Y5.3512 
G01 X-20.3063 Y5.3514 
G01 X-20.3037 Y5.3509 
G01 X-20.2911 Y5.3454 
G01 X-20.2784 Y5.3405 
G01 X-20.2715 Y5.3341 
G01 X-20.2629 Y5.3305 
G01 X-20.1157 Y5.1833 
G01 X-19.7371 Y4.8178 
G01 X-19.7264 Y4.8075 
G01 X-19.7161 Y4.7975 
G01 X-19.6664 Y4.7475 
G01 X-19.5965 Y4.7487 
G01 X-19.5815 Y4.7490 
G01 X-19.5672 Y4.7492 
G01 X-19.4968 Y4.7490 
G01 X-19.4482 Y4.7993 
G01 X-19.4379 Y4.8100 
G01 X-19.4279 Y4.8204 
G01 X-19.3779 Y4.8700 
G01 X-19.3791 Y4.9399 
G01 X-19.3794 Y4.9549 
G01 X-19.3796 Y4.9692 
G01 X-19.3794 Y6.4394 
G01 X-19.5956 Y6.6556 
G01 X-19.8778 Y6.6556 
G01 X-19.9055 Y6.6671 
G01 X-19.9267 Y6.6883 
G01 X-19.9382 Y6.7160 
G01 X-19.9382 Y6.9453 
G01 X-19.9267 Y6.9730 
G01 X-19.9055 Y6.9942 
G01 X-19.7090 Y7.0756 
G01 X-19.4056 Y7.3790 
G01 X-19.2414 Y7.7754 
G01 X-19.2414 Y10.0045 
G01 X-19.4056 Y10.4010 
G01 X-19.7090 Y10.7044 
G01 X-19.9563 Y10.8068 
G01 X-19.9775 Y10.8280 
G01 X-19.9890 Y10.8558 
G01 X-19.9890 Y12.6562 
G01 X-19.9857 Y12.6641 
G01 X-19.9775 Y12.6840 
G01 X-19.9563 Y12.7052 
G01 X-19.9286 Y12.7166 
G01 X-19.8986 Y12.7166 
G01 X-19.8907 Y12.7134 
G01 X-19.8709 Y12.7052 
G01 X-19.8497 Y12.6840 
G01 X-19.8321 Y12.6664 
G01 X-19.4388 Y12.6664 
G01 X-19.4111 Y12.6549 
G01 X-19.3952 Y12.6390 
G01 X-18.1714 Y12.6390 
G01 X-18.1437 Y12.6275 
G01 X-18.1225 Y12.6063 
G01 X-18.1110 Y12.5786 
G01 X-18.1110 Y10.8558 
G01 X-18.1225 Y10.8280 
G01 X-18.1437 Y10.8068 
G01 X-18.3910 Y10.7044 
G01 X-18.6944 Y10.4010 
G01 X-18.8586 Y10.0045 
G01 X-18.8586 Y7.7754 
G01 X-18.6944 Y7.3790 
G01 X-18.3910 Y7.0756 
G01 X-18.1945 Y6.9942 
G01 X-18.1733 Y6.9730 
G01 X-18.1618 Y6.9453 
G01 X-18.1618 Y6.7160 
G01 X-18.1733 Y6.6883 
G01 X-18.1945 Y6.6671 
G01 X-18.2222 Y6.6556 
G01 X-18.5044 Y6.6556 
G01 X-18.7206 Y6.4394 
G01 X-18.7206 Y4.9698 
G01 X-18.7206 Y4.9549 
G01 X-18.7206 Y4.9405 
G01 X-18.7221 Y4.8700 
G01 X-18.6728 Y4.8206 
G01 X-18.6621 Y4.8100 
G01 X-18.6520 Y4.7999 
G01 X-18.6032 Y4.7490 
G01 X-18.5334 Y4.7490 
G01 X-18.5185 Y4.7490 
G01 X-18.5041 Y4.7490 
G01 X-18.4336 Y4.7475 
G01 X-18.3842 Y4.7969 
G01 X-18.3736 Y4.8075 
G01 X-18.3635 Y4.8176 
G01 X-17.9843 Y5.1833 
G01 X-17.8654 Y5.3022 
G01 X-17.8371 Y5.3305 
G01 X-17.8285 Y5.3341 
G01 X-17.8238 Y5.3390 
G01 X-17.8089 Y5.3454 
G01 X-17.7963 Y5.3509 
G01 X-17.7937 Y5.3514 
G01 X-17.7800 Y5.3512 
G01 X-17.7663 Y5.3514 
G01 X-17.7637 Y5.3509 
G01 X-17.7511 Y5.3454 
G01 X-17.7384 Y5.3405 
G01 X-17.7315 Y5.3341 
G01 X-17.7229 Y5.3305 
G01 X-17.5757 Y5.1833 
G01 X-17.1971 Y4.8178 
G01 X-17.1864 Y4.8075 
G01 X-17.1761 Y4.7975 
G01 X-17.1264 Y4.7475 
G01 X-17.0565 Y4.7487 
G01 X-17.0415 Y4.7490 
G01 X-17.0272 Y4.7492 
G01 X-16.9568 Y4.7490 
G01 X-16.9082 Y4.7993 
G01 X-16.8978 Y4.8100 
G01 X-16.8879 Y4.8204 
G01 X-16.8379 Y4.8700 
G00 Z2.5400 
G00 X-16.9579 Y4.8959 
G01 Z-0.0800 F254.00 
G01 X-16.9714 Y4.8824 F254.00 
G01 X-16.9848 Y4.8686 
G01 X-17.0040 Y4.8602 
G01 X-17.0216 Y4.8526 
G01 X-17.0425 Y4.8522 
G01 X-17.0617 Y4.8519 
G01 X-17.0811 Y4.8595 
G01 X-17.0990 Y4.8666 
G01 X-17.1139 Y4.8810 
G01 X-17.7800 Y5.5241 
G01 X-18.4461 Y4.8810 
G01 X-18.4595 Y4.8675 
G01 X-18.4790 Y4.8595 
G01 X-18.4965 Y4.8522 
G01 X-18.5175 Y4.8522 
G01 X-18.5367 Y4.8522 
G01 X-18.5561 Y4.8602 
G01 X-18.5737 Y4.8675 
G01 X-18.5886 Y4.8825 
G01 X-18.6020 Y4.8959 
G01 X-18.6101 Y4.9154 
G01 X-18.6174 Y4.9329 
G01 X-18.6174 Y4.9539 
G01 X-18.6174 Y6.3215 
G01 X-18.5993 Y6.3891 
G01 X-18.5643 Y6.4498 
G01 X-18.5148 Y6.4993 
G01 X-18.4541 Y6.5343 
G01 X-18.3865 Y6.5524 
G01 X-18.0586 Y6.5524 
G01 X-18.0586 Y7.0509 
G01 X-18.0645 Y7.0521 
G01 X-18.2420 Y7.1256 
G01 X-18.4018 Y7.2324 
G01 X-18.5376 Y7.3682 
G01 X-18.6444 Y7.5280 
G01 X-18.7179 Y7.7055 
G01 X-18.7554 Y7.8939 
G01 X-18.7554 Y9.8861 
G01 X-18.7179 Y10.0745 
G01 X-18.6444 Y10.2520 
G01 X-18.5376 Y10.4118 
G01 X-18.4018 Y10.5476 
G01 X-18.2420 Y10.6544 
G01 X-18.0645 Y10.7279 
G01 X-18.0078 Y10.7392 
G01 X-18.0078 Y12.7422 
G01 X-19.3034 Y12.7422 
G01 X-19.3696 Y12.7696 
G01 X-19.7731 Y12.7696 
G01 X-19.8008 Y12.7811 
G01 X-19.8220 Y12.8023 
G01 X-19.8335 Y12.8300 
G01 X-19.8335 Y13.1100 
G01 X-19.8220 Y13.1377 
G01 X-19.8008 Y13.1589 
G01 X-19.7731 Y13.1704 
G01 X-19.3696 Y13.1704 
G01 X-19.3034 Y13.1978 
G01 X-17.7347 Y13.1978 
G01 X-17.6510 Y13.1631 
G01 X-17.5869 Y13.0990 
G01 X-17.5522 Y13.0153 
G01 X-17.5522 Y10.7392 
G01 X-17.4955 Y10.7279 
G01 X-17.3180 Y10.6544 
G01 X-17.1582 Y10.5476 
G01 X-17.0224 Y10.4118 
G01 X-16.9156 Y10.2520 
G01 X-16.8421 Y10.0745 
G01 X-16.8046 Y9.8861 
G01 X-16.8046 Y7.8939 
G01 X-16.8421 Y7.7055 
G01 X-16.9156 Y7.5280 
G01 X-17.0224 Y7.3682 
G01 X-17.1582 Y7.2324 
G01 X-17.3180 Y7.1256 
G01 X-17.4955 Y7.0521 
G01 X-17.5014 Y7.0509 
G01 X-17.5014 Y6.5524 
G01 X-17.1735 Y6.5524 
G01 X-17.1059 Y6.5343 
G01 X-17.0452 Y6.4993 
G01 X-16.9957 Y6.4498 
G01 X-16.9607 Y6.3891 
G01 X-16.9426 Y6.3215 
G01 X-16.9426 Y4.9539 
G01 X-16.9423 Y4.9347 
G01 X-16.9499 Y4.9153 
G01 X-16.9570 Y4.8974 
G00 Z2.5400 
G00 X-19.4979 Y4.8959 
G01 Z-0.0800 F254.00 
G01 X-19.5114 Y4.8824 F254.00 
G01 X-19.5248 Y4.8686 
G01 X-19.5440 Y4.8602 
G01 X-19.5616 Y4.8526 
G01 X-19.5825 Y4.8522 
G01 X-19.6017 Y4.8519 
G01 X-19.6211 Y4.8595 
G01 X-19.6390 Y4.8666 
G01 X-19.6539 Y4.8810 
G01 X-20.3200 Y5.5241 
G01 X-20.9860 Y4.8810 
G01 X-20.9995 Y4.8675 
G01 X-21.0189 Y4.8595 
G01 X-21.0365 Y4.8522 
G01 X-21.0575 Y4.8522 
G01 X-21.0767 Y4.8522 
G01 X-21.0960 Y4.8602 
G01 X-21.1137 Y4.8675 
G01 X-21.1286 Y4.8824 
G01 X-21.1421 Y4.8959 
G01 X-21.1501 Y4.9153 
G01 X-21.1574 Y4.9329 
G01 X-21.1574 Y4.9539 
G01 X-21.1574 Y6.3215 
G01 X-21.1393 Y6.3891 
G01 X-21.1043 Y6.4498 
G01 X-21.0548 Y6.4993 
G01 X-20.9941 Y6.5343 
G01 X-20.9265 Y6.5524 
G01 X-20.5986 Y6.5524 
G01 X-20.5986 Y7.0509 
G01 X-20.6045 Y7.0521 
G01 X-20.7820 Y7.1256 
G01 X-20.9418 Y7.2324 
G01 X-21.0776 Y7.3682 
G01 X-21.1844 Y7.5280 
G01 X-21.2579 Y7.7055 
G01 X-21.2954 Y7.8939 
G01 X-21.2954 Y9.8861 
G01 X-21.2579 Y10.0745 
G01 X-21.1844 Y10.2520 
G01 X-21.0776 Y10.4118 
G01 X-20.9418 Y10.5476 
G01 X-20.7820 Y10.6544 
G01 X-20.6045 Y10.7279 
G01 X-20.5478 Y10.7392 
G01 X-20.5478 Y13.5153 
G01 X-20.5131 Y13.5990 
G01 X-20.4490 Y13.6631 
G01 X-20.3653 Y13.6978 
G01 X-19.2128 Y13.6978 
G01 X-19.1466 Y13.6704 
G01 X-18.7431 Y13.6704 
G01 X-18.7154 Y13.6589 
G01 X-18.6942 Y13.6377 
G01 X-18.6827 Y13.6100 
G01 X-18.6827 Y13.3300 
G01 X-18.6942 Y13.3023 
G01 X-18.7154 Y13.2811 
G01 X-18.7431 Y13.2696 
G01 X-19.1466 Y13.2696 
G01 X-19.2128 Y13.2422 
G01 X-20.0922 Y13.2422 
G01 X-20.0922 Y10.7392 
G01 X-20.0355 Y10.7279 
G01 X-19.8580 Y10.6544 
G01 X-19.6982 Y10.5476 
G01 X-19.5624 Y10.4118 
G01 X-19.4556 Y10.2520 
G01 X-19.3821 Y10.0745 
G01 X-19.3446 Y9.8861 
G01 X-19.3446 Y7.8939 
G01 X-19.3821 Y7.7055 
G01 X-19.4556 Y7.5280 
G01 X-19.5624 Y7.3682 
G01 X-19.6982 Y7.2324 
G01 X-19.8580 Y7.1256 
G01 X-20.0355 Y7.0521 
G01 X-20.0414 Y7.0509 
G01 X-20.0414 Y6.5524 
G01 X-19.7135 Y6.5524 
G01 X-19.6459 Y6.5343 
G01 X-19.5852 Y6.4993 
G01 X-19.5357 Y6.4498 
G01 X-19.5007 Y6.3891 
G01 X-19.4826 Y6.3215 
G01 X-19.4826 Y4.9539 
G01 X-19.4823 Y4.9347 
G01 X-19.4899 Y4.9153 
G01 X-19.4970 Y4.8974 
G00 Z2.5400 
G00 X-22.1024 Y7.3682 
G01 Z-0.0800 F254.00 
G01 X-22.2382 Y7.2324 F254.00 
G01 X-22.3980 Y7.1256 
G01 X-22.5755 Y7.0521 
G01 X-22.7639 Y7.0146 
G01 X-22.9561 Y7.0146 
G01 X-23.1445 Y7.0521 
G01 X-23.3220 Y7.1256 
G01 X-23.4818 Y7.2324 
G01 X-23.6176 Y7.3682 
G01 X-23.7244 Y7.5280 
G01 X-23.7979 Y7.7055 
G01 X-23.8354 Y7.8939 
G01 X-23.8354 Y9.8861 
G01 X-23.7979 Y10.0745 
G01 X-23.7244 Y10.2520 
G01 X-23.6176 Y10.4118 
G01 X-23.4818 Y10.5476 
G01 X-23.3418 Y10.6412 
G01 X-23.3418 Y12.5004 
G01 X-26.6728 Y15.8314 
G01 X-27.2882 Y15.8314 
G01 X-27.3159 Y15.8429 
G01 X-27.3371 Y15.8641 
G01 X-27.3486 Y15.8918 
G01 X-27.3486 Y17.1282 
G01 X-27.3371 Y17.1559 
G01 X-27.3159 Y17.1771 
G01 X-27.2882 Y17.1886 
G01 X-26.0518 Y17.1886 
G01 X-26.0241 Y17.1771 
G01 X-26.0029 Y17.1559 
G01 X-25.9914 Y17.1282 
G01 X-25.9914 Y16.7886 
G01 X-17.8703 Y16.7886 
G01 X-17.7995 Y16.7696 
G01 X-17.7359 Y16.7329 
G01 X-17.6841 Y16.6811 
G01 X-17.6474 Y16.6175 
G01 X-17.6284 Y16.5467 
G01 X-17.6284 Y16.4733 
G01 X-17.6474 Y16.4025 
G01 X-17.6792 Y16.3474 
G01 X-17.6792 Y14.1978 
G01 X-13.0548 Y14.1978 
G01 X-13.0548 Y17.0633 
G01 X-13.0201 Y17.1470 
G01 X-12.9560 Y17.2111 
G01 X-12.8425 Y17.3246 
G01 X-12.8800 Y17.3246 
G01 X-12.9077 Y17.3361 
G01 X-12.9289 Y17.3573 
G01 X-12.9404 Y17.3850 
G01 X-12.9404 Y18.7150 
G01 X-12.9289 Y18.7427 
G01 X-12.9077 Y18.7639 
G01 X-12.8800 Y18.7754 
G01 X-11.2500 Y18.7754 
G01 X-11.2223 Y18.7639 
G01 X-11.2011 Y18.7427 
G01 X-11.1896 Y18.7150 
G01 X-11.1896 Y17.3850 
G01 X-11.2011 Y17.3573 
G01 X-11.2223 Y17.3361 
G01 X-11.2500 Y17.3246 
G01 X-12.1982 Y17.3246 
G01 X-12.5992 Y16.9236 
G01 X-12.5992 Y14.0517 
G01 X-12.6339 Y13.9680 
G01 X-12.7609 Y13.8410 
G01 X-12.8250 Y13.7769 
G01 X-12.9087 Y13.7422 
G01 X-17.9523 Y13.7422 
G01 X-18.0360 Y13.7769 
G01 X-18.1001 Y13.8410 
G01 X-18.1348 Y13.9247 
G01 X-18.1348 Y16.2314 
G01 X-25.7100 Y16.2314 
G01 X-22.5642 Y13.0855 
G01 X-22.4745 Y12.9958 
G01 X-22.4110 Y12.8860 
G01 X-22.3782 Y12.7634 
G01 X-22.3782 Y10.6412 
G01 X-22.2382 Y10.5476 
G01 X-22.1024 Y10.4118 
G01 X-21.9956 Y10.2520 
G01 X-21.9221 Y10.0745 
G01 X-21.8846 Y9.8861 
G01 X-21.8846 Y7.8939 
G01 X-21.9221 Y7.7055 
G01 X-21.9956 Y7.5280 
G01 X-22.1024 Y7.3682 
G00 Z2.5400 
G00 X-27.1824 Y7.3682 
G01 Z-0.0800 F254.00 
G01 X-27.3182 Y7.2324 F254.00 
G01 X-27.4780 Y7.1256 
G01 X-27.6555 Y7.0521 
G01 X-27.8439 Y7.0146 
G01 X-28.0361 Y7.0146 
G01 X-28.2245 Y7.0521 
G01 X-28.4020 Y7.1256 
G01 X-28.5618 Y7.2324 
G01 X-28.6976 Y7.3682 
G01 X-28.8044 Y7.5280 
G01 X-28.8779 Y7.7055 
G01 X-28.9154 Y7.8939 
G01 X-28.9154 Y9.8861 
G01 X-28.8779 Y10.0745 
G01 X-28.8044 Y10.2520 
G01 X-28.6976 Y10.4118 
G01 X-28.6417 Y10.4677 
G01 X-30.6511 Y12.4771 
G01 X-30.7029 Y12.5289 
G01 X-30.7396 Y12.5925 
G01 X-30.7586 Y12.6633 
G01 X-30.7586 Y16.5467 
G01 X-30.7396 Y16.6175 
G01 X-30.7029 Y16.6811 
G01 X-30.6511 Y16.7329 
G01 X-30.0631 Y17.3209 
G01 X-30.1373 Y17.4987 
G01 X-30.1744 Y17.6850 
G01 X-30.1744 Y17.8750 
G01 X-30.1373 Y18.0613 
G01 X-30.0646 Y18.2368 
G01 X-29.9591 Y18.3948 
G01 X-29.8248 Y18.5291 
G01 X-29.6668 Y18.6346 
G01 X-29.4913 Y18.7073 
G01 X-29.3050 Y18.7444 
G01 X-29.1150 Y18.7444 
G01 X-28.9287 Y18.7073 
G01 X-28.7532 Y18.6346 
G01 X-28.5952 Y18.5291 
G01 X-28.4609 Y18.3948 
G01 X-28.3554 Y18.2368 
G01 X-28.2827 Y18.0613 
G01 X-28.2821 Y18.0586 
G01 X-17.2353 Y18.0586 
G01 X-17.1645 Y18.0396 
G01 X-17.1009 Y18.0029 
G01 X-17.0491 Y17.9511 
G01 X-17.0124 Y17.8875 
G01 X-16.9934 Y17.8167 
G01 X-16.9934 Y17.7433 
G01 X-17.0124 Y17.6725 
G01 X-17.0442 Y17.6174 
G01 X-17.0442 Y14.6978 
G01 X-13.5628 Y14.6978 
G01 X-13.5628 Y24.5563 
G01 X-13.5281 Y24.6400 
G01 X-13.4640 Y24.7041 
G01 X-13.3803 Y24.7388 
G01 X-12.9278 Y24.7388 
G01 X-12.9278 Y34.5702 
G01 X-16.0473 Y34.5702 
G01 X-16.1310 Y34.6049 
G01 X-16.1951 Y34.6690 
G01 X-16.2298 Y34.7527 
G01 X-16.2298 Y47.0353 
G01 X-16.1951 Y47.1190 
G01 X-16.1310 Y47.1831 
G01 X-16.0473 Y47.2178 
G01 X-13.6380 Y47.2178 
G01 X-13.6273 Y47.2713 
G01 X-13.5546 Y47.4468 
G01 X-13.4491 Y47.6048 
G01 X-13.3148 Y47.7391 
G01 X-13.1568 Y47.8446 
G01 X-12.9813 Y47.9173 
G01 X-12.7950 Y47.9544 
G01 X-12.6050 Y47.9544 
G01 X-12.4187 Y47.9173 
G01 X-12.2432 Y47.8446 
G01 X-12.0852 Y47.7391 
G01 X-11.9509 Y47.6048 
G01 X-11.8454 Y47.4468 
G01 X-11.7727 Y47.2713 
G01 X-11.7356 Y47.0850 
G01 X-11.7356 Y46.8950 
G01 X-11.7727 Y46.7087 
G01 X-11.8454 Y46.5332 
G01 X-11.9509 Y46.3752 
G01 X-12.0852 Y46.2409 
G01 X-12.2432 Y46.1354 
G01 X-12.4187 Y46.0627 
G01 X-12.6050 Y46.0256 
G01 X-12.7950 Y46.0256 
G01 X-12.9813 Y46.0627 
G01 X-13.1568 Y46.1354 
G01 X-13.3148 Y46.2409 
G01 X-13.4491 Y46.3752 
G01 X-13.5546 Y46.5332 
G01 X-13.6273 Y46.7087 
G01 X-13.6380 Y46.7622 
G01 X-15.7742 Y46.7622 
G01 X-15.7742 Y35.0258 
G01 X-12.6547 Y35.0258 
G01 X-12.5710 Y34.9911 
G01 X-12.5069 Y34.9270 
G01 X-12.4722 Y34.8433 
G01 X-12.4722 Y24.4657 
G01 X-12.5069 Y24.3820 
G01 X-12.5710 Y24.3179 
G01 X-12.6547 Y24.2832 
G01 X-13.1072 Y24.2832 
G01 X-13.1072 Y14.4247 
G01 X-13.1419 Y14.3410 
G01 X-13.2060 Y14.2769 
G01 X-13.2897 Y14.2422 
G01 X-17.3173 Y14.2422 
G01 X-17.4010 Y14.2769 
G01 X-17.4651 Y14.3410 
G01 X-17.4998 Y14.4247 
G01 X-17.4998 Y17.5014 
G01 X-28.2821 Y17.5014 
G01 X-28.2827 Y17.4987 
G01 X-28.3554 Y17.3232 
G01 X-28.4609 Y17.1652 
G01 X-28.5952 Y17.0309 
G01 X-28.7532 Y16.9254 
G01 X-28.9287 Y16.8527 
G01 X-29.1150 Y16.8156 
G01 X-29.3050 Y16.8156 
G01 X-29.4913 Y16.8527 
G01 X-29.6668 Y16.9254 
G01 X-30.2014 Y16.3946 
G01 X-30.2014 Y12.8154 
G01 X-28.1323 Y10.7463 
G01 X-28.0361 Y10.7654 
G01 X-27.8439 Y10.7654 
G01 X-27.6555 Y10.7279 
G01 X-27.4780 Y10.6544 
G01 X-27.3182 Y10.5476 
G01 X-27.1824 Y10.4118 
G01 X-27.0756 Y10.2520 
G01 X-27.0021 Y10.0745 
G01 X-26.9646 Y9.8861 
G01 X-26.9646 Y7.8939 
G01 X-27.0021 Y7.7055 
G01 X-27.0756 Y7.5280 
G01 X-27.1824 Y7.3682 
G00 Z2.5400 
G00 X-29.7224 Y7.3682 
G01 Z-0.0800 F254.00 
G01 X-29.8582 Y7.2324 F254.00 
G01 X-30.0180 Y7.1256 
G01 X-30.1955 Y7.0521 
G01 X-30.3839 Y7.0146 
G01 X-30.5761 Y7.0146 
G01 X-30.7645 Y7.0521 
G01 X-30.9420 Y7.1256 
G01 X-31.1018 Y7.2324 
G01 X-31.2376 Y7.3682 
G01 X-31.3444 Y7.5280 
G01 X-31.4179 Y7.7055 
G01 X-31.4554 Y7.8939 
G01 X-31.4554 Y9.8861 
G01 X-31.4179 Y10.0745 
G01 X-31.3444 Y10.2520 
G01 X-31.2376 Y10.4118 
G01 X-31.1817 Y10.4677 
G01 X-31.9211 Y11.2071 
G01 X-31.9729 Y11.2589 
G01 X-32.0096 Y11.3225 
G01 X-32.0286 Y11.3933 
G01 X-32.0286 Y17.8167 
G01 X-32.0096 Y17.8875 
G01 X-31.9729 Y17.9511 
G01 X-30.0631 Y19.8609 
G01 X-30.1373 Y20.0387 
G01 X-30.1744 Y20.2250 
G01 X-30.1744 Y20.4150 
G01 X-30.1373 Y20.6013 
G01 X-30.0646 Y20.7768 
G01 X-29.9591 Y20.9348 
G01 X-29.8248 Y21.0691 
G01 X-29.6668 Y21.1746 
G01 X-29.4913 Y21.2473 
G01 X-29.3050 Y21.2844 
G01 X-29.1150 Y21.2844 
G01 X-28.9287 Y21.2473 
G01 X-28.7532 Y21.1746 
G01 X-28.5952 Y21.0691 
G01 X-28.4609 Y20.9348 
G01 X-28.3554 Y20.7768 
G01 X-28.2827 Y20.6013 
G01 X-28.2821 Y20.5986 
G01 X-16.6003 Y20.5986 
G01 X-16.5295 Y20.5796 
G01 X-16.4659 Y20.5429 
G01 X-16.4141 Y20.4911 
G01 X-16.3774 Y20.4275 
G01 X-16.3584 Y20.3567 
G01 X-16.3584 Y20.2833 
G01 X-16.3774 Y20.2125 
G01 X-16.4092 Y20.1574 
G01 X-16.4092 Y15.1978 
G01 X-14.0708 Y15.1978 
G01 X-14.0708 Y25.0643 
G01 X-14.0361 Y25.1480 
G01 X-13.9720 Y25.2121 
G01 X-13.8883 Y25.2468 
G01 X-13.4358 Y25.2468 
G01 X-13.4358 Y34.0622 
G01 X-16.5553 Y34.0622 
G01 X-16.6390 Y34.0969 
G01 X-16.7031 Y34.1610 
G01 X-16.7378 Y34.2447 
G01 X-16.7378 Y49.5753 
G01 X-16.7031 Y49.6590 
G01 X-16.6390 Y49.7231 
G01 X-16.5553 Y49.7578 
G01 X-13.6380 Y49.7578 
G01 X-13.6273 Y49.8113 
G01 X-13.5546 Y49.9868 
G01 X-13.4491 Y50.1448 
G01 X-13.3148 Y50.2791 
G01 X-13.1568 Y50.3846 
G01 X-12.9813 Y50.4573 
G01 X-12.7950 Y50.4944 
G01 X-12.6050 Y50.4944 
G01 X-12.4187 Y50.4573 
G01 X-12.2432 Y50.3846 
G01 X-12.0852 Y50.2791 
G01 X-11.9509 Y50.1448 
G01 X-11.8454 Y49.9868 
G01 X-11.7727 Y49.8113 
G01 X-11.7356 Y49.6250 
G01 X-11.7356 Y49.4350 
G01 X-11.7727 Y49.2487 
G01 X-11.8454 Y49.0732 
G01 X-11.9509 Y48.9152 
G01 X-12.0852 Y48.7809 
G01 X-12.2432 Y48.6754 
G01 X-12.4187 Y48.6027 
G01 X-12.6050 Y48.5656 
G01 X-12.7950 Y48.5656 
G01 X-12.9813 Y48.6027 
G01 X-13.1568 Y48.6754 
G01 X-13.3148 Y48.7809 
G01 X-13.4491 Y48.9152 
G01 X-13.5546 Y49.0732 
G01 X-13.6273 Y49.2487 
G01 X-13.6380 Y49.3022 
G01 X-16.2822 Y49.3022 
G01 X-16.2822 Y34.5178 
G01 X-13.1627 Y34.5178 
G01 X-13.0790 Y34.4831 
G01 X-13.0149 Y34.4190 
G01 X-12.9802 Y34.3353 
G01 X-12.9802 Y24.9737 
G01 X-13.0149 Y24.8900 
G01 X-13.0790 Y24.8259 
G01 X-13.1627 Y24.7912 
G01 X-13.6152 Y24.7912 
G01 X-13.6152 Y14.9247 
G01 X-13.6499 Y14.8410 
G01 X-13.7140 Y14.7769 
G01 X-13.7977 Y14.7422 
G01 X-16.6823 Y14.7422 
G01 X-16.7660 Y14.7769 
G01 X-16.8301 Y14.8410 
G01 X-16.8648 Y14.9247 
G01 X-16.8648 Y20.0414 
G01 X-28.2821 Y20.0414 
G01 X-28.2827 Y20.0387 
G01 X-28.3554 Y19.8632 
G01 X-28.4609 Y19.7052 
G01 X-28.5952 Y19.5709 
G01 X-28.7532 Y19.4654 
G01 X-28.9287 Y19.3927 
G01 X-29.1150 Y19.3556 
G01 X-29.3050 Y19.3556 
G01 X-29.4913 Y19.3927 
G01 X-29.6668 Y19.4654 
G01 X-31.4714 Y17.6646 
G01 X-31.4714 Y11.5454 
G01 X-30.6723 Y10.7463 
G01 X-30.5761 Y10.7654 
G01 X-30.3839 Y10.7654 
G01 X-30.1955 Y10.7279 
G01 X-30.0180 Y10.6544 
G01 X-29.8582 Y10.5476 
G01 X-29.7224 Y10.4118 
G01 X-29.6156 Y10.2520 
G01 X-29.5421 Y10.0745 
G01 X-29.5046 Y9.8861 
G01 X-29.5046 Y7.8939 
G01 X-29.5421 Y7.7055 
G01 X-29.6156 Y7.5280 
G01 X-29.7224 Y7.3682 
G00 Z2.5400 
G00 X-38.1897 Y8.3936 
G01 Z-0.0800 F254.00 
G01 X-37.6036 Y8.9797 F254.00 
G01 X-37.2864 Y9.7455 
G01 X-37.2864 Y10.5745 
G01 X-37.6036 Y11.3403 
G01 X-38.1897 Y11.9264 
G01 X-38.9555 Y12.2436 
G01 X-39.7845 Y12.2436 
G01 X-40.5503 Y11.9264 
G01 X-40.5973 Y11.8794 
G01 X-41.1364 Y11.3403 
G01 X-41.4536 Y10.5745 
G01 X-41.4536 Y9.7455 
G01 X-41.1364 Y8.9797 
G01 X-40.5973 Y8.4406 
G01 X-40.5761 Y8.4194 
G01 X-40.5503 Y8.3936 
G01 X-39.7845 Y8.0764 
G01 X-38.9555 Y8.0764 
G01 X-38.1897 Y8.3936 
G00 Z2.5400 
G00 X-38.2674 Y8.5098 
G01 Z-0.0800 F254.00 
G01 X-38.4922 Y8.3800 F254.00 
G01 X-38.7321 Y8.2807 
G01 X-38.9828 Y8.2135 
G01 X-39.2402 Y8.1796 
G01 X-39.4998 Y8.1796 
G01 X-39.7572 Y8.2135 
G01 X-40.0079 Y8.2807 
G01 X-40.2478 Y8.3800 
G01 X-40.4726 Y8.5098 
G01 X-40.6786 Y8.6679 
G01 X-40.8621 Y8.8514 
G01 X-41.0202 Y9.0574 
G01 X-41.1500 Y9.2822 
G01 X-41.2493 Y9.5221 
G01 X-41.3165 Y9.7728 
G01 X-41.3504 Y10.0302 
G01 X-41.3504 Y10.2898 
G01 X-41.3165 Y10.5472 
G01 X-41.2493 Y10.7979 
G01 X-41.1500 Y11.0378 
G01 X-41.0202 Y11.2626 
G01 X-40.8621 Y11.4686 
G01 X-40.6786 Y11.6521 
G01 X-40.4726 Y11.8102 
G01 X-40.2478 Y11.9400 
G01 X-40.0079 Y12.0393 
G01 X-39.7572 Y12.1065 
G01 X-39.4998 Y12.1404 
G01 X-39.2402 Y12.1404 
G01 X-38.9828 Y12.1065 
G01 X-38.7321 Y12.0393 
G01 X-38.4922 Y11.9400 
G01 X-38.2674 Y11.8102 
G01 X-38.0614 Y11.6521 
G01 X-37.8779 Y11.4686 
G01 X-37.7198 Y11.2626 
G01 X-37.5900 Y11.0378 
G01 X-37.4907 Y10.7979 
G01 X-37.4235 Y10.5472 
G01 X-37.3896 Y10.2898 
G01 X-37.3896 Y10.0302 
G01 X-37.4235 Y9.7728 
G01 X-37.4907 Y9.5221 
G01 X-37.5900 Y9.2822 
G01 X-37.7198 Y9.0574 
G01 X-37.8779 Y8.8514 
G01 X-38.0614 Y8.6679 
G01 X-38.2674 Y8.5098 
G00 Z2.5400 
G00 X-43.7728 Y14.4582 
G01 Z-0.0800 F254.00 
G01 X-43.6682 Y14.5628 F254.00 
G01 X-43.6682 Y15.9172 
G01 X-43.7728 Y16.0218 
G01 X-45.1272 Y16.0218 
G01 X-45.2318 Y15.9172 
G01 X-45.2318 Y15.8854 
G01 X-45.2433 Y15.8577 
G01 X-45.2645 Y15.8365 
G01 X-45.2922 Y15.8250 
G01 X-53.6689 Y15.8250 
G01 X-53.6967 Y15.8365 
G01 X-53.7179 Y15.8577 
G01 X-54.0052 Y16.1451 
G01 X-54.3976 Y16.3076 
G01 X-54.8224 Y16.3076 
G01 X-55.2148 Y16.1451 
G01 X-55.5233 Y15.8365 
G01 X-55.5511 Y15.8250 
G01 X-55.6214 Y15.8250 
G01 X-55.6492 Y15.8365 
G01 X-55.6704 Y15.8577 
G01 X-56.6540 Y16.8414 
G01 X-56.8186 Y17.0060 
G01 X-57.0336 Y17.0950 
G01 X-57.4789 Y17.0950 
G01 X-57.5067 Y17.1065 
G01 X-57.5279 Y17.1277 
G01 X-57.8152 Y17.4151 
G01 X-58.2076 Y17.5776 
G01 X-58.6324 Y17.5776 
G01 X-59.0248 Y17.4151 
G01 X-59.3251 Y17.1148 
G01 X-59.4876 Y16.7224 
G01 X-59.4876 Y16.2976 
G01 X-59.3251 Y15.9052 
G01 X-59.0248 Y15.6049 
G01 X-58.6324 Y15.4424 
G01 X-58.2076 Y15.4424 
G01 X-57.8152 Y15.6049 
G01 X-57.5279 Y15.8923 
G01 X-57.5117 Y15.9084 
G01 X-57.5067 Y15.9135 
G01 X-57.4789 Y15.9250 
G01 X-57.4086 Y15.9250 
G01 X-57.3808 Y15.9135 
G01 X-57.3596 Y15.8923 
G01 X-56.2114 Y14.7440 
G01 X-55.9964 Y14.6550 
G01 X-55.5511 Y14.6550 
G01 X-55.5233 Y14.6435 
G01 X-55.5021 Y14.6223 
G01 X-55.2148 Y14.3349 
G01 X-54.8224 Y14.1724 
G01 X-54.3976 Y14.1724 
G01 X-54.0052 Y14.3349 
G01 X-53.6967 Y14.6435 
G01 X-53.6689 Y14.6550 
G01 X-45.2922 Y14.6550 
G01 X-45.2645 Y14.6435 
G01 X-45.2433 Y14.6223 
G01 X-45.2318 Y14.5946 
G01 X-45.2318 Y14.5628 
G01 X-45.1272 Y14.4582 
G01 X-43.7728 Y14.4582 
G00 Z2.5400 
G00 X-43.7829 Y14.5941 
G01 Z-0.0800 F254.00 
G01 X-43.8041 Y14.5729 F254.00 
G01 X-43.8318 Y14.5614 
G01 X-45.0682 Y14.5614 
G01 X-45.0959 Y14.5729 
G01 X-45.1171 Y14.5941 
G01 X-45.1286 Y14.6218 
G01 X-45.1286 Y14.7582 
G01 X-53.7721 Y14.7582 
G01 X-53.8609 Y14.6252 
G01 X-53.9952 Y14.4909 
G01 X-54.1532 Y14.3854 
G01 X-54.3287 Y14.3127 
G01 X-54.5150 Y14.2756 
G01 X-54.7050 Y14.2756 
G01 X-54.8913 Y14.3127 
G01 X-55.0668 Y14.3854 
G01 X-55.2248 Y14.4909 
G01 X-55.3591 Y14.6252 
G01 X-55.4479 Y14.7582 
G01 X-55.9434 Y14.7582 
G01 X-56.0660 Y14.7910 
G01 X-56.1758 Y14.8545 
G01 X-57.3496 Y16.0282 
G01 X-57.5821 Y16.0282 
G01 X-57.6709 Y15.8952 
G01 X-57.8052 Y15.7609 
G01 X-57.9632 Y15.6554 
G01 X-58.1387 Y15.5827 
G01 X-58.3250 Y15.5456 
G01 X-58.5150 Y15.5456 
G01 X-58.7013 Y15.5827 
G01 X-58.8768 Y15.6554 
G01 X-59.0348 Y15.7609 
G01 X-59.1691 Y15.8952 
G01 X-59.2746 Y16.0532 
G01 X-59.3473 Y16.2287 
G01 X-59.3844 Y16.4150 
G01 X-59.3844 Y16.6050 
G01 X-59.3473 Y16.7913 
G01 X-59.2746 Y16.9668 
G01 X-59.1691 Y17.1248 
G01 X-59.0348 Y17.2591 
G01 X-58.8768 Y17.3646 
G01 X-58.7013 Y17.4373 
G01 X-58.5150 Y17.4744 
G01 X-58.3250 Y17.4744 
G01 X-58.1387 Y17.4373 
G01 X-57.9632 Y17.3646 
G01 X-57.8052 Y17.2591 
G01 X-57.6709 Y17.1248 
G01 X-57.5821 Y16.9918 
G01 X-57.0866 Y16.9918 
G01 X-56.9640 Y16.9590 
G01 X-56.8542 Y16.8955 
G01 X-56.7645 Y16.8058 
G01 X-55.6804 Y15.7218 
G01 X-55.4479 Y15.7218 
G01 X-55.3591 Y15.8548 
G01 X-55.2248 Y15.9891 
G01 X-55.0668 Y16.0946 
G01 X-54.8913 Y16.1673 
G01 X-54.7050 Y16.2044 
G01 X-54.5150 Y16.2044 
G01 X-54.3287 Y16.1673 
G01 X-54.1532 Y16.0946 
G01 X-53.9952 Y15.9891 
G01 X-53.8609 Y15.8548 
G01 X-53.7721 Y15.7218 
G01 X-45.1286 Y15.7218 
G01 X-45.1286 Y15.8582 
G01 X-45.1171 Y15.8859 
G01 X-45.0959 Y15.9071 
G01 X-45.0682 Y15.9186 
G01 X-43.8318 Y15.9186 
G01 X-43.8041 Y15.9071 
G01 X-43.7829 Y15.8859 
G01 X-43.7714 Y15.8582 
G01 X-43.7714 Y14.6218 
G01 X-43.7829 Y14.5941 
G00 Z2.5400 
G00 X-43.6886 Y18.1760 
G01 Z-0.0800 F254.00 
G01 X-43.5840 Y18.0714 F254.00 
G01 X-42.1360 Y18.0714 
G01 X-42.0314 Y18.1760 
G01 X-42.0314 Y19.9240 
G01 X-42.1360 Y20.0286 
G01 X-42.4678 Y20.0286 
G01 X-42.4955 Y20.0401 
G01 X-42.5167 Y20.0613 
G01 X-42.5282 Y20.0890 
G01 X-42.5282 Y20.5510 
G01 X-42.5167 Y20.5787 
G01 X-42.4955 Y20.5999 
G01 X-42.4678 Y20.6114 
G01 X-42.1860 Y20.6114 
G01 X-42.0814 Y20.7160 
G01 X-42.0814 Y22.4640 
G01 X-42.1860 Y22.5686 
G01 X-42.4178 Y22.5686 
G01 X-42.4455 Y22.5801 
G01 X-42.4667 Y22.6013 
G01 X-42.4782 Y22.6290 
G01 X-42.4782 Y23.0910 
G01 X-42.4667 Y23.1187 
G01 X-42.4455 Y23.1399 
G01 X-42.4178 Y23.1514 
G01 X-42.1360 Y23.1514 
G01 X-42.0314 Y23.2560 
G01 X-42.0314 Y25.0040 
G01 X-42.1360 Y25.1086 
G01 X-43.5840 Y25.1086 
G01 X-43.6886 Y25.0040 
G01 X-43.6886 Y24.5722 
G01 X-43.7001 Y24.5445 
G01 X-43.7213 Y24.5233 
G01 X-43.7490 Y24.5118 
G01 X-48.4181 Y24.5118 
G01 X-48.6418 Y24.2882 
G01 X-48.6418 Y19.4922 
G01 X-48.6533 Y19.4645 
G01 X-48.6745 Y19.4433 
G01 X-48.7022 Y19.4318 
G01 X-53.8213 Y19.4318 
G01 X-53.8490 Y19.4433 
G01 X-53.8702 Y19.4645 
G01 X-53.8817 Y19.4922 
G01 X-53.8817 Y19.5222 
G01 X-53.8702 Y19.5499 
G01 X-53.8490 Y19.5711 
G01 X-53.7049 Y19.7152 
G01 X-53.6051 Y19.9563 
G01 X-53.5839 Y19.9775 
G01 X-53.5561 Y19.9890 
G01 X-50.6629 Y19.9890 
G01 X-50.4690 Y20.1829 
G01 X-50.4690 Y35.6971 
G01 X-50.6629 Y35.8910 
G01 X-53.7106 Y35.8910 
G01 X-53.7383 Y35.9025 
G01 X-53.7595 Y35.9237 
G01 X-53.7710 Y35.9514 
G01 X-53.7710 Y44.4396 
G01 X-53.7595 Y44.4673 
G01 X-53.7383 Y44.4885 
G01 X-53.7106 Y44.5000 
G01 X-53.3299 Y44.5000 
G01 X-53.1360 Y44.6939 
G01 X-53.1360 Y54.4886 
G01 X-53.1245 Y54.5163 
G01 X-53.1033 Y54.5375 
G01 X-53.0756 Y54.5490 
G01 X-51.0644 Y54.5490 
G01 X-51.0367 Y54.5375 
G01 X-51.0155 Y54.5163 
G01 X-51.0040 Y54.4886 
G01 X-51.0040 Y49.7552 
G01 X-51.0155 Y49.7275 
G01 X-51.0367 Y49.7063 
G01 X-51.0548 Y49.6882 
G01 X-51.0548 Y49.3718 
G01 X-50.8312 Y49.1482 
G01 X-39.1328 Y49.1482 
G01 X-39.1051 Y49.1367 
G01 X-39.0839 Y49.1155 
G01 X-39.0051 Y48.9252 
G01 X-38.7048 Y48.6249 
G01 X-38.3124 Y48.4624 
G01 X-37.8876 Y48.4624 
G01 X-37.4952 Y48.6249 
G01 X-37.1949 Y48.9252 
G01 X-37.0324 Y49.3176 
G01 X-37.0324 Y49.7424 
G01 X-37.0997 Y49.9049 
G01 X-37.1107 Y49.9315 
G01 X-37.1112 Y49.9626 
G01 X-37.0997 Y49.9903 
G01 X-37.0785 Y50.0115 
G01 X-35.1782 Y51.9118 
G01 X-35.1782 Y58.5782 
G01 X-35.4214 Y58.8214 
G01 X-35.9184 Y59.3184 
G01 X-35.9315 Y59.3315 
G01 X-35.9396 Y59.3396 
G01 X-35.9511 Y59.3673 
G01 X-35.9511 Y59.3973 
G01 X-35.9396 Y59.4250 
G01 X-35.9184 Y59.4462 
G01 X-35.9156 Y59.4490 
G01 X-35.7514 Y59.8454 
G01 X-35.7514 Y62.0745 
G01 X-35.9156 Y62.4710 
G01 X-36.2190 Y62.7744 
G01 X-36.6154 Y62.9386 
G01 X-37.0445 Y62.9386 
G01 X-37.4410 Y62.7744 
G01 X-37.7444 Y62.4710 
G01 X-37.9086 Y62.0745 
G01 X-37.9086 Y59.8454 
G01 X-37.7444 Y59.4490 
G01 X-37.4410 Y59.1456 
G01 X-37.0445 Y58.9814 
G01 X-36.6776 Y58.9814 
G01 X-36.6499 Y58.9699 
G01 X-36.6287 Y58.9487 
G01 X-35.9533 Y58.2733 
G01 X-35.9418 Y58.2456 
G01 X-35.9418 Y52.2444 
G01 X-35.9533 Y52.2167 
G01 X-35.9745 Y52.1955 
G01 X-37.6397 Y50.5303 
G01 X-37.6674 Y50.5188 
G01 X-37.6974 Y50.5188 
G01 X-37.7251 Y50.5303 
G01 X-37.8876 Y50.5976 
G01 X-38.3124 Y50.5976 
G01 X-38.7048 Y50.4351 
G01 X-39.0051 Y50.1348 
G01 X-39.0839 Y49.9445 
G01 X-39.1051 Y49.9233 
G01 X-39.1328 Y49.9118 
G01 X-50.2816 Y49.9118 
G01 X-50.3093 Y49.9233 
G01 X-50.3305 Y49.9445 
G01 X-50.3420 Y49.9722 
G01 X-50.3420 Y51.6670 
G01 X-50.3325 Y51.6899 
G01 X-50.3305 Y51.6947 
G01 X-50.3191 Y51.7061 
G01 X-50.3093 Y51.7159 
G01 X-50.2816 Y51.7274 
G01 X-50.2516 Y51.7274 
G01 X-50.2287 Y51.7179 
G01 X-50.2239 Y51.7159 
G01 X-50.2076 Y51.6996 
G01 X-50.2027 Y51.6947 
G01 X-50.1962 Y51.6882 
G01 X-39.1328 Y51.6882 
G01 X-39.1051 Y51.6767 
G01 X-39.0839 Y51.6555 
G01 X-39.0051 Y51.4652 
G01 X-38.7048 Y51.1649 
G01 X-38.3124 Y51.0024 
G01 X-37.8876 Y51.0024 
G01 X-37.4952 Y51.1649 
G01 X-37.1949 Y51.4652 
G01 X-37.0324 Y51.8576 
G01 X-37.0324 Y52.2824 
G01 X-37.0997 Y52.4449 
G01 X-37.1107 Y52.4715 
G01 X-37.1112 Y52.5026 
G01 X-37.0997 Y52.5303 
G01 X-37.0785 Y52.5515 
G01 X-36.6833 Y52.9467 
G01 X-36.4482 Y53.1818 
G01 X-36.4482 Y57.3081 
G01 X-36.7045 Y57.5645 
G01 X-38.4796 Y59.3396 
G01 X-38.4862 Y59.3555 
G01 X-38.4911 Y59.3673 
G01 X-38.4911 Y59.3973 
G01 X-38.4845 Y59.4133 
G01 X-38.4796 Y59.4250 
G01 X-38.4584 Y59.4462 
G01 X-38.4556 Y59.4490 
G01 X-38.2914 Y59.8454 
G01 X-38.2914 Y62.0745 
G01 X-38.4556 Y62.4710 
G01 X-38.7590 Y62.7744 
G01 X-39.1554 Y62.9386 
G01 X-39.5845 Y62.9386 
G01 X-39.9810 Y62.7744 
G01 X-40.2844 Y62.4710 
G01 X-40.4486 Y62.0745 
G01 X-40.4486 Y59.8454 
G01 X-40.2844 Y59.4490 
G01 X-39.9810 Y59.1456 
G01 X-39.5845 Y58.9814 
G01 X-39.2176 Y58.9814 
G01 X-39.1899 Y58.9699 
G01 X-39.1687 Y58.9487 
G01 X-38.1298 Y57.9099 
G01 X-38.1183 Y57.8821 
G01 X-38.1183 Y57.8521 
G01 X-38.1298 Y57.8244 
G01 X-38.1510 Y57.8032 
G01 X-38.1787 Y57.7917 
G01 X-38.2087 Y57.7917 
G01 X-38.2365 Y57.8032 
G01 X-38.9303 Y58.0906 
G01 X-39.8097 Y58.0906 
G01 X-40.5973 Y57.7644 
G01 X-40.6222 Y57.7541 
G01 X-41.2441 Y57.1322 
G01 X-41.5806 Y56.3197 
G01 X-41.5806 Y55.4403 
G01 X-41.4964 Y55.2370 
G01 X-41.4854 Y55.2103 
G01 X-41.4849 Y55.1793 
G01 X-41.4964 Y55.1516 
G01 X-41.5176 Y55.1304 
G01 X-41.5453 Y55.1189 
G01 X-41.5753 Y55.1189 
G01 X-41.6031 Y55.1304 
G01 X-41.6243 Y55.1516 
G01 X-43.8535 Y57.3808 
G01 X-43.8650 Y57.4086 
G01 X-43.8650 Y59.1034 
G01 X-43.8535 Y59.1311 
G01 X-43.8323 Y59.1523 
G01 X-43.5356 Y59.4490 
G01 X-43.3714 Y59.8454 
G01 X-43.3714 Y62.0745 
G01 X-43.5356 Y62.4710 
G01 X-43.8390 Y62.7744 
G01 X-44.2354 Y62.9386 
G01 X-44.6645 Y62.9386 
G01 X-45.0610 Y62.7744 
G01 X-45.3644 Y62.4710 
G01 X-45.5286 Y62.0745 
G01 X-45.5286 Y59.8454 
G01 X-45.3644 Y59.4490 
G01 X-45.0465 Y59.1311 
G01 X-45.0350 Y59.1034 
G01 X-45.0350 Y57.0336 
G01 X-44.9460 Y56.8186 
G01 X-44.7602 Y56.6328 
G01 X-41.9885 Y53.8611 
G01 X-41.9673 Y53.8399 
G01 X-41.9558 Y53.8122 
G01 X-41.9558 Y53.7822 
G01 X-41.9673 Y53.7545 
G01 X-41.9885 Y53.7333 
G01 X-42.0162 Y53.7218 
G01 X-49.0116 Y53.7218 
G01 X-49.0393 Y53.7333 
G01 X-49.0605 Y53.7545 
G01 X-49.0720 Y53.7822 
G01 X-49.0720 Y56.0171 
G01 X-49.2659 Y56.2110 
G01 X-51.5391 Y56.2110 
G01 X-51.5668 Y56.2225 
G01 X-51.5880 Y56.2437 
G01 X-51.5995 Y56.2714 
G01 X-51.5995 Y56.5790 
G01 X-51.6078 Y56.5873 
G01 X-51.6096 Y56.5917 
G01 X-51.6193 Y56.6150 
G01 X-51.6193 Y56.6450 
G01 X-51.6126 Y56.6610 
G01 X-51.6078 Y56.6727 
G01 X-51.5995 Y56.6810 
G01 X-51.5995 Y57.0790 
G01 X-51.7063 Y57.1858 
G01 X-51.7250 Y57.2045 
G01 X-51.7390 Y57.2347 
G01 X-51.7390 Y58.9942 
G01 X-51.7275 Y59.0220 
G01 X-51.7063 Y59.0432 
G01 X-51.4590 Y59.1456 
G01 X-51.1556 Y59.4490 
G01 X-50.9914 Y59.8454 
G01 X-50.9914 Y62.0745 
G01 X-51.1556 Y62.4710 
G01 X-51.4590 Y62.7744 
G01 X-51.6555 Y62.8558 
G01 X-51.6767 Y62.8770 
G01 X-51.6882 Y62.9047 
G01 X-51.6882 Y63.1340 
G01 X-51.6767 Y63.1617 
G01 X-51.6555 Y63.1829 
G01 X-51.6278 Y63.1944 
G01 X-51.3456 Y63.1944 
G01 X-51.1294 Y63.4106 
G01 X-51.1294 Y64.8802 
G01 X-51.1294 Y64.8951 
G01 X-51.1294 Y64.9095 
G01 X-51.1279 Y64.9800 
G01 X-51.1772 Y65.0294 
G01 X-51.1878 Y65.0400 
G01 X-51.1980 Y65.0501 
G01 X-51.2468 Y65.1010 
G01 X-51.3166 Y65.1010 
G01 X-51.3315 Y65.1010 
G01 X-51.3459 Y65.1010 
G01 X-51.4164 Y65.1025 
G01 X-51.4658 Y65.0531 
G01 X-51.4764 Y65.0425 
G01 X-51.4865 Y65.0324 
G01 X-51.8658 Y64.6665 
G01 X-51.9845 Y64.5478 
G01 X-52.0129 Y64.5194 
G01 X-52.0215 Y64.5159 
G01 X-52.0262 Y64.5110 
G01 X-52.0411 Y64.5045 
G01 X-52.0537 Y64.4991 
G01 X-52.0563 Y64.4985 
G01 X-52.0700 Y64.4988 
G01 X-52.0837 Y64.4985 
G01 X-52.0863 Y64.4991 
G01 X-52.0989 Y64.5045 
G01 X-52.1116 Y64.5095 
G01 X-52.1185 Y64.5159 
G01 X-52.1271 Y64.5194 
G01 X-52.2743 Y64.6667 
G01 X-52.6529 Y65.0321 
G01 X-52.6636 Y65.0425 
G01 X-52.6739 Y65.0525 
G01 X-52.7236 Y65.1025 
G01 X-52.7935 Y65.1013 
G01 X-52.8085 Y65.1010 
G01 X-52.8228 Y65.1008 
G01 X-52.8932 Y65.1010 
G01 X-52.9418 Y65.0507 
G01 X-52.9521 Y65.0400 
G01 X-52.9621 Y65.0296 
G01 X-53.0121 Y64.9800 
G01 X-53.0109 Y64.9101 
G01 X-53.0106 Y64.8951 
G01 X-53.0104 Y64.8808 
G01 X-53.0106 Y63.4106 
G01 X-52.7944 Y63.1944 
G01 X-52.5122 Y63.1944 
G01 X-52.4845 Y63.1829 
G01 X-52.4633 Y63.1617 
G01 X-52.4518 Y63.1340 
G01 X-52.4518 Y62.9047 
G01 X-52.4633 Y62.8770 
G01 X-52.4845 Y62.8558 
G01 X-52.6810 Y62.7744 
G01 X-52.9844 Y62.4710 
G01 X-53.1486 Y62.0745 
G01 X-53.1486 Y59.8454 
G01 X-52.9844 Y59.4490 
G01 X-52.6810 Y59.1456 
G01 X-52.4337 Y59.0432 
G01 X-52.4125 Y59.0220 
G01 X-52.4010 Y58.9942 
G01 X-52.4010 Y57.2440 
G01 X-52.4125 Y57.2163 
G01 X-52.4337 Y57.1951 
G01 X-52.4614 Y57.1836 
G01 X-52.8521 Y57.1836 
G01 X-52.9567 Y57.0790 
G01 X-52.9567 Y56.7714 
G01 X-52.9682 Y56.7437 
G01 X-52.9894 Y56.7225 
G01 X-53.0171 Y56.7110 
G01 X-54.2186 Y56.7110 
G01 X-54.2463 Y56.7225 
G01 X-54.2675 Y56.7437 
G01 X-54.2790 Y56.7714 
G01 X-54.2790 Y58.9942 
G01 X-54.2675 Y59.0220 
G01 X-54.2463 Y59.0432 
G01 X-53.9990 Y59.1456 
G01 X-53.6956 Y59.4490 
G01 X-53.5314 Y59.8454 
G01 X-53.5314 Y62.0745 
G01 X-53.6956 Y62.4710 
G01 X-53.9990 Y62.7744 
G01 X-54.1955 Y62.8558 
G01 X-54.2167 Y62.8770 
G01 X-54.2282 Y62.9047 
G01 X-54.2282 Y63.1340 
G01 X-54.2167 Y63.1617 
G01 X-54.1955 Y63.1829 
G01 X-54.1678 Y63.1944 
G01 X-53.8856 Y63.1944 
G01 X-53.6694 Y63.4106 
G01 X-53.6694 Y64.8802 
G01 X-53.6694 Y64.8951 
G01 X-53.6694 Y64.9095 
G01 X-53.6679 Y64.9800 
G01 X-53.7172 Y65.0294 
G01 X-53.7278 Y65.0400 
G01 X-53.7380 Y65.0501 
G01 X-53.7868 Y65.1010 
G01 X-53.8566 Y65.1010 
G01 X-53.8715 Y65.1010 
G01 X-53.8859 Y65.1010 
G01 X-53.9564 Y65.1025 
G01 X-54.0058 Y65.0531 
G01 X-54.0164 Y65.0425 
G01 X-54.0265 Y65.0324 
G01 X-54.4058 Y64.6665 
G01 X-54.5245 Y64.5478 
G01 X-54.5529 Y64.5194 
G01 X-54.5615 Y64.5159 
G01 X-54.5662 Y64.5110 
G01 X-54.5811 Y64.5045 
G01 X-54.5937 Y64.4991 
G01 X-54.5963 Y64.4985 
G01 X-54.6100 Y64.4988 
G01 X-54.6237 Y64.4985 
G01 X-54.6263 Y64.4991 
G01 X-54.6389 Y64.5045 
G01 X-54.6516 Y64.5095 
G01 X-54.6585 Y64.5159 
G01 X-54.6671 Y64.5194 
G01 X-54.8143 Y64.6667 
G01 X-55.1928 Y65.0321 
G01 X-55.2036 Y65.0425 
G01 X-55.2139 Y65.0525 
G01 X-55.2636 Y65.1025 
G01 X-55.3335 Y65.1013 
G01 X-55.3485 Y65.1010 
G01 X-55.3628 Y65.1008 
G01 X-55.4332 Y65.1010 
G01 X-55.4818 Y65.0507 
G01 X-55.4921 Y65.0400 
G01 X-55.5021 Y65.0296 
G01 X-55.5521 Y64.9800 
G01 X-55.5509 Y64.9101 
G01 X-55.5506 Y64.8951 
G01 X-55.5504 Y64.8808 
G01 X-55.5506 Y63.4106 
G01 X-55.3344 Y63.1944 
G01 X-55.0522 Y63.1944 
G01 X-55.0245 Y63.1829 
G01 X-55.0033 Y63.1617 
G01 X-54.9918 Y63.1340 
G01 X-54.9918 Y62.9047 
G01 X-55.0033 Y62.8770 
G01 X-55.0245 Y62.8558 
G01 X-55.2210 Y62.7744 
G01 X-55.5244 Y62.4710 
G01 X-55.6886 Y62.0746 
G01 X-55.6886 Y59.8454 
G01 X-55.5244 Y59.4490 
G01 X-55.2210 Y59.1456 
G01 X-54.9737 Y59.0432 
G01 X-54.9525 Y59.0220 
G01 X-54.9410 Y58.9942 
G01 X-54.9410 Y56.6877 
G01 X-54.9525 Y56.6600 
G01 X-54.9737 Y56.6388 
G01 X-55.0014 Y56.6273 
G01 X-55.0314 Y56.6273 
G01 X-55.0591 Y56.6388 
G01 X-55.0803 Y56.6600 
G01 X-55.2759 Y57.1322 
G01 X-55.8978 Y57.7541 
G01 X-56.7103 Y58.0906 
G01 X-57.5897 Y58.0906 
G01 X-58.4022 Y57.7541 
G01 X-59.0241 Y57.1322 
G01 X-59.3606 Y56.3197 
G01 X-59.3606 Y55.4403 
G01 X-59.0241 Y54.6278 
G01 X-58.4022 Y54.0059 
G01 X-57.5897 Y53.6694 
G01 X-56.7103 Y53.6694 
G01 X-55.8978 Y54.0059 
G01 X-55.2759 Y54.6278 
G01 X-54.9533 Y55.4066 
G01 X-54.9321 Y55.4278 
G01 X-54.9044 Y55.4393 
G01 X-54.8744 Y55.4393 
G01 X-54.8467 Y55.4278 
G01 X-54.8255 Y55.4066 
G01 X-54.8140 Y55.3789 
G01 X-54.8140 Y52.9853 
G01 X-54.8255 Y52.9576 
G01 X-54.8467 Y52.9364 
G01 X-55.1430 Y52.6401 
G01 X-55.1707 Y52.6286 
G01 X-56.1190 Y52.6286 
G01 X-56.2236 Y52.5240 
G01 X-56.2236 Y51.0760 
G01 X-56.1190 Y50.9714 
G01 X-54.3664 Y50.9714 
G01 X-54.3387 Y50.9599 
G01 X-54.3175 Y50.9387 
G01 X-54.3060 Y50.9110 
G01 X-54.3060 Y45.7304 
G01 X-54.3175 Y45.7027 
G01 X-54.3387 Y45.6815 
G01 X-54.3664 Y45.6700 
G01 X-54.7471 Y45.6700 
G01 X-54.9410 Y45.4761 
G01 X-54.9410 Y34.9149 
G01 X-54.7471 Y34.7210 
G01 X-51.6994 Y34.7210 
G01 X-51.6717 Y34.7095 
G01 X-51.6505 Y34.6883 
G01 X-51.6390 Y34.6606 
G01 X-51.6390 Y23.2514 
G01 X-51.6505 Y23.2237 
G01 X-51.6717 Y23.2025 
G01 X-51.6994 Y23.1910 
G01 X-53.5561 Y23.1910 
G01 X-53.5839 Y23.2025 
G01 X-53.6051 Y23.2237 
G01 X-53.7049 Y23.4647 
G01 X-54.0052 Y23.7651 
G01 X-54.3976 Y23.9276 
G01 X-54.8224 Y23.9276 
G01 X-55.2148 Y23.7651 
G01 X-55.5151 Y23.4648 
G01 X-55.6776 Y23.0724 
G01 X-55.6776 Y22.6476 
G01 X-55.5151 Y22.2552 
G01 X-55.2148 Y21.9549 
G01 X-54.8224 Y21.7924 
G01 X-54.3976 Y21.7924 
G01 X-54.0052 Y21.9549 
G01 X-53.7049 Y22.2552 
G01 X-53.6051 Y22.4963 
G01 X-53.5839 Y22.5175 
G01 X-53.5561 Y22.5290 
G01 X-51.1914 Y22.5290 
G01 X-51.1637 Y22.5175 
G01 X-51.1425 Y22.4963 
G01 X-51.1310 Y22.4686 
G01 X-51.1310 Y20.7114 
G01 X-51.1425 Y20.6837 
G01 X-51.1637 Y20.6625 
G01 X-51.1914 Y20.6510 
G01 X-53.5561 Y20.6510 
G01 X-53.5839 Y20.6625 
G01 X-53.6051 Y20.6837 
G01 X-53.7049 Y20.9248 
G01 X-54.0052 Y21.2251 
G01 X-54.3976 Y21.3876 
G01 X-54.8224 Y21.3876 
G01 X-55.2148 Y21.2251 
G01 X-55.5151 Y20.9248 
G01 X-55.6776 Y20.5324 
G01 X-55.6776 Y20.1076 
G01 X-55.5151 Y19.7152 
G01 X-55.3710 Y19.5711 
G01 X-55.3526 Y19.5528 
G01 X-55.3498 Y19.5499 
G01 X-55.3383 Y19.5222 
G01 X-55.3383 Y19.4922 
G01 X-55.3498 Y19.4645 
G01 X-55.3710 Y19.4433 
G01 X-55.3987 Y19.4318 
G01 X-56.0728 Y19.4318 
G01 X-56.1005 Y19.4433 
G01 X-56.1217 Y19.4645 
G01 X-56.1332 Y19.4922 
G01 X-56.1332 Y22.3832 
G01 X-57.1927 Y23.4427 
G01 X-57.2139 Y23.4639 
G01 X-57.4197 Y23.6697 
G01 X-57.4312 Y23.6974 
G01 X-57.4312 Y23.7274 
G01 X-57.4197 Y23.7551 
G01 X-57.3524 Y23.9176 
G01 X-57.3524 Y24.3424 
G01 X-57.5149 Y24.7348 
G01 X-57.8152 Y25.0351 
G01 X-58.2076 Y25.1976 
G01 X-58.6324 Y25.1976 
G01 X-59.0248 Y25.0351 
G01 X-59.3251 Y24.7348 
G01 X-59.4876 Y24.3424 
G01 X-59.4876 Y23.9176 
G01 X-59.3251 Y23.5252 
G01 X-59.0248 Y23.2249 
G01 X-58.6324 Y23.0624 
G01 X-58.2076 Y23.0624 
G01 X-58.0451 Y23.1297 
G01 X-58.0185 Y23.1407 
G01 X-57.9874 Y23.1412 
G01 X-57.9597 Y23.1297 
G01 X-57.9385 Y23.1085 
G01 X-56.9083 Y22.0783 
G01 X-56.8968 Y22.0506 
G01 X-56.8968 Y18.8918 
G01 X-56.6731 Y18.6682 
G01 X-54.9858 Y18.6682 
G01 X-54.8913 Y18.7073 
G01 X-54.7050 Y18.7444 
G01 X-54.5150 Y18.7444 
G01 X-54.3287 Y18.7073 
G01 X-54.2342 Y18.6682 
G01 X-48.1018 Y18.6682 
G01 X-47.8782 Y18.8918 
G01 X-47.8782 Y23.6878 
G01 X-47.8667 Y23.7155 
G01 X-47.8455 Y23.7367 
G01 X-47.8178 Y23.7482 
G01 X-43.7490 Y23.7482 
G01 X-43.7213 Y23.7367 
G01 X-43.7001 Y23.7155 
G01 X-43.6886 Y23.6878 
G01 X-43.6886 Y23.2560 
G01 X-43.5840 Y23.1514 
G01 X-43.3022 Y23.1514 
G01 X-43.2745 Y23.1399 
G01 X-43.2533 Y23.1187 
G01 X-43.2418 Y23.0910 
G01 X-43.2418 Y22.6290 
G01 X-43.2533 Y22.6013 
G01 X-43.2745 Y22.5801 
G01 X-43.3022 Y22.5686 
G01 X-43.6340 Y22.5686 
G01 X-43.7386 Y22.4640 
G01 X-43.7386 Y20.7160 
G01 X-43.6340 Y20.6114 
G01 X-43.3522 Y20.6114 
G01 X-43.3245 Y20.5999 
G01 X-43.3033 Y20.5787 
G01 X-43.2918 Y20.5510 
G01 X-43.2918 Y20.0890 
G01 X-43.3033 Y20.0613 
G01 X-43.3245 Y20.0401 
G01 X-43.3522 Y20.0286 
G01 X-43.5840 Y20.0286 
G01 X-43.6886 Y19.9240 
G01 X-43.6886 Y18.1760 
G00 Z2.5400 
G00 X-43.5527 Y18.1861 
G01 Z-0.0800 F254.00 
G01 X-43.5739 Y18.2073 F254.00 
G01 X-43.5854 Y18.2350 
G01 X-43.5854 Y19.8650 
G01 X-43.5739 Y19.8927 
G01 X-43.5527 Y19.9139 
G01 X-43.5250 Y19.9254 
G01 X-43.1886 Y19.9254 
G01 X-43.1886 Y20.7146 
G01 X-43.5750 Y20.7146 
G01 X-43.6027 Y20.7261 
G01 X-43.6239 Y20.7473 
G01 X-43.6354 Y20.7750 
G01 X-43.6354 Y22.4050 
G01 X-43.6239 Y22.4327 
G01 X-43.6027 Y22.4539 
G01 X-43.5750 Y22.4654 
G01 X-43.1386 Y22.4654 
G01 X-43.1386 Y23.2546 
G01 X-43.5250 Y23.2546 
G01 X-43.5527 Y23.2661 
G01 X-43.5739 Y23.2873 
G01 X-43.5854 Y23.3150 
G01 X-43.5854 Y23.8514 
G01 X-47.9814 Y23.8514 
G01 X-47.9814 Y19.0133 
G01 X-48.0004 Y18.9425 
G01 X-48.0371 Y18.8789 
G01 X-48.0889 Y18.8271 
G01 X-48.1525 Y18.7904 
G01 X-48.2233 Y18.7714 
G01 X-56.5517 Y18.7714 
G01 X-56.6225 Y18.7904 
G01 X-56.6861 Y18.8271 
G01 X-56.7379 Y18.8789 
G01 X-56.7746 Y18.9425 
G01 X-56.7936 Y19.0133 
G01 X-56.7936 Y22.1096 
G01 X-57.9609 Y23.2769 
G01 X-58.1387 Y23.2027 
G01 X-58.3250 Y23.1656 
G01 X-58.5150 Y23.1656 
G01 X-58.7013 Y23.2027 
G01 X-58.8768 Y23.2754 
G01 X-59.0348 Y23.3809 
G01 X-59.1691 Y23.5152 
G01 X-59.2746 Y23.6732 
G01 X-59.3473 Y23.8487 
G01 X-59.3844 Y24.0350 
G01 X-59.3844 Y24.2250 
G01 X-59.3473 Y24.4113 
G01 X-59.2746 Y24.5868 
G01 X-59.1691 Y24.7448 
G01 X-59.0348 Y24.8791 
G01 X-58.8768 Y24.9846 
G01 X-58.7013 Y25.0573 
G01 X-58.5150 Y25.0944 
G01 X-58.3250 Y25.0944 
G01 X-58.1387 Y25.0573 
G01 X-57.9632 Y24.9846 
G01 X-57.8052 Y24.8791 
G01 X-57.6709 Y24.7448 
G01 X-57.5654 Y24.5868 
G01 X-57.4927 Y24.4113 
G01 X-57.4556 Y24.2250 
G01 X-57.4556 Y24.0350 
G01 X-57.4927 Y23.8487 
G01 X-57.5654 Y23.6732 
G01 X-56.2921 Y22.3961 
G01 X-56.2554 Y22.3325 
G01 X-56.2364 Y22.2617 
G01 X-56.2364 Y19.3286 
G01 X-48.5386 Y19.3286 
G01 X-48.5386 Y24.1667 
G01 X-48.5196 Y24.2375 
G01 X-48.4829 Y24.3011 
G01 X-48.4311 Y24.3529 
G01 X-48.3675 Y24.3896 
G01 X-48.2967 Y24.4086 
G01 X-43.5854 Y24.4086 
G01 X-43.5854 Y24.9450 
G01 X-43.5739 Y24.9727 
G01 X-43.5527 Y24.9939 
G01 X-43.5250 Y25.0054 
G01 X-42.1950 Y25.0054 
G01 X-42.1673 Y24.9939 
G01 X-42.1461 Y24.9727 
G01 X-42.1346 Y24.9450 
G01 X-42.1346 Y23.3150 
G01 X-42.1461 Y23.2873 
G01 X-42.1673 Y23.2661 
G01 X-42.1950 Y23.2546 
G01 X-42.5814 Y23.2546 
G01 X-42.5814 Y22.4654 
G01 X-42.2450 Y22.4654 
G01 X-42.2173 Y22.4539 
G01 X-42.1961 Y22.4327 
G01 X-42.1846 Y22.4050 
G01 X-42.1846 Y20.7750 
G01 X-42.1961 Y20.7473 
G01 X-42.2173 Y20.7261 
G01 X-42.2450 Y20.7146 
G01 X-42.6314 Y20.7146 
G01 X-42.6314 Y19.9254 
G01 X-42.1950 Y19.9254 
G01 X-42.1673 Y19.9139 
G01 X-42.1461 Y19.8927 
G01 X-42.1346 Y19.8650 
G01 X-42.1346 Y18.2350 
G01 X-42.1461 Y18.2073 
G01 X-42.1673 Y18.1861 
G01 X-42.1950 Y18.1746 
G01 X-43.5250 Y18.1746 
G01 X-43.5527 Y18.1861 
G00 Z2.5400 
G00 X-41.7886 Y23.2560 
G01 Z-0.0800 F254.00 
G01 X-41.6840 Y23.1514 F254.00 
G01 X-40.2360 Y23.1514 
G01 X-40.1314 Y23.2560 
G01 X-40.1314 Y23.6878 
G01 X-40.1199 Y23.7155 
G01 X-40.0987 Y23.7367 
G01 X-40.0710 Y23.7482 
G01 X-39.1328 Y23.7482 
G01 X-39.1051 Y23.7367 
G01 X-39.0839 Y23.7155 
G01 X-39.0051 Y23.5252 
G01 X-38.7048 Y23.2249 
G01 X-38.3124 Y23.0624 
G01 X-37.8876 Y23.0624 
G01 X-37.4952 Y23.2249 
G01 X-37.1949 Y23.5252 
G01 X-37.0324 Y23.9176 
G01 X-37.0324 Y24.3424 
G01 X-37.1949 Y24.7348 
G01 X-37.4952 Y25.0351 
G01 X-37.8876 Y25.1976 
G01 X-38.3124 Y25.1976 
G01 X-38.7048 Y25.0351 
G01 X-39.0051 Y24.7348 
G01 X-39.0839 Y24.5445 
G01 X-39.1051 Y24.5233 
G01 X-39.1328 Y24.5118 
G01 X-40.0710 Y24.5118 
G01 X-40.0987 Y24.5233 
G01 X-40.1199 Y24.5445 
G01 X-40.1314 Y24.5722 
G01 X-40.1314 Y25.0040 
G01 X-40.2360 Y25.1086 
G01 X-41.6840 Y25.1086 
G01 X-41.7886 Y25.0040 
G01 X-41.7886 Y23.2560 
G00 Z2.5400 
G00 X-41.6527 Y23.2661 
G01 Z-0.0800 F254.00 
G01 X-41.6739 Y23.2873 F254.00 
G01 X-41.6854 Y23.3150 
G01 X-41.6854 Y24.9450 
G01 X-41.6739 Y24.9727 
G01 X-41.6527 Y24.9939 
G01 X-41.6250 Y25.0054 
G01 X-40.2950 Y25.0054 
G01 X-40.2673 Y24.9939 
G01 X-40.2461 Y24.9727 
G01 X-40.2346 Y24.9450 
G01 X-40.2346 Y24.4086 
G01 X-39.0279 Y24.4086 
G01 X-39.0273 Y24.4113 
G01 X-38.9546 Y24.5868 
G01 X-38.8491 Y24.7448 
G01 X-38.7148 Y24.8791 
G01 X-38.5568 Y24.9846 
G01 X-38.3813 Y25.0573 
G01 X-38.1950 Y25.0944 
G01 X-38.0050 Y25.0944 
G01 X-37.8187 Y25.0573 
G01 X-37.6432 Y24.9846 
G01 X-37.4852 Y24.8791 
G01 X-37.3509 Y24.7448 
G01 X-37.2454 Y24.5868 
G01 X-37.1727 Y24.4113 
G01 X-37.1356 Y24.2250 
G01 X-37.1356 Y24.0350 
G01 X-37.1727 Y23.8487 
G01 X-37.2454 Y23.6732 
G01 X-37.3509 Y23.5152 
G01 X-37.4852 Y23.3809 
G01 X-37.6432 Y23.2754 
G01 X-37.8187 Y23.2027 
G01 X-38.0050 Y23.1656 
G01 X-38.1950 Y23.1656 
G01 X-38.3813 Y23.2027 
G01 X-38.5568 Y23.2754 
G01 X-38.7148 Y23.3809 
G01 X-38.8491 Y23.5152 
G01 X-38.9546 Y23.6732 
G01 X-39.0273 Y23.8487 
G01 X-39.0279 Y23.8514 
G01 X-40.2346 Y23.8514 
G01 X-40.2346 Y23.3150 
G01 X-40.2461 Y23.2873 
G01 X-40.2673 Y23.2661 
G01 X-40.2950 Y23.2546 
G01 X-41.6250 Y23.2546 
G01 X-41.6527 Y23.2661 
G00 Z2.5400 
G00 X-38.7048 Y25.7649 
G01 Z-0.0800 F254.00 
G01 X-38.3124 Y25.6024 F254.00 
G01 X-37.8876 Y25.6024 
G01 X-37.4952 Y25.7649 
G01 X-37.1949 Y26.0652 
G01 X-37.0324 Y26.4576 
G01 X-37.0324 Y26.8824 
G01 X-37.1949 Y27.2748 
G01 X-37.4952 Y27.5751 
G01 X-37.8876 Y27.7376 
G01 X-38.3124 Y27.7376 
G01 X-38.7048 Y27.5751 
G01 X-39.0051 Y27.2748 
G01 X-39.1676 Y26.8824 
G01 X-39.1676 Y26.4576 
G01 X-39.0051 Y26.0652 
G01 X-38.7048 Y25.7649 
G00 Z2.5400 
G00 X-38.7148 Y25.9209 
G01 Z-0.0800 F254.00 
G01 X-38.8491 Y26.0552 F254.00 
G01 X-38.9546 Y26.2132 
G01 X-39.0273 Y26.3887 
G01 X-39.0644 Y26.5750 
G01 X-39.0644 Y26.7650 
G01 X-39.0273 Y26.9513 
G01 X-38.9546 Y27.1268 
G01 X-38.8491 Y27.2848 
G01 X-38.7148 Y27.4191 
G01 X-38.5568 Y27.5246 
G01 X-38.3813 Y27.5973 
G01 X-38.1950 Y27.6344 
G01 X-38.0050 Y27.6344 
G01 X-37.8187 Y27.5973 
G01 X-37.6432 Y27.5246 
G01 X-37.4852 Y27.4191 
G01 X-37.3509 Y27.2848 
G01 X-37.2454 Y27.1268 
G01 X-37.1727 Y26.9513 
G01 X-37.1356 Y26.7650 
G01 X-37.1356 Y26.5750 
G01 X-37.1727 Y26.3887 
G01 X-37.2454 Y26.2132 
G01 X-37.3509 Y26.0552 
G01 X-37.4852 Y25.9209 
G01 X-37.6432 Y25.8154 
G01 X-37.8187 Y25.7427 
G01 X-38.0050 Y25.7056 
G01 X-38.1950 Y25.7056 
G01 X-38.3813 Y25.7427 
G01 X-38.5568 Y25.8154 
G01 X-38.7148 Y25.9209 
G00 Z2.5400 
G00 X-38.7048 Y28.3049 
G01 Z-0.0800 F254.00 
G01 X-38.3124 Y28.1424 F254.00 
G01 X-37.8876 Y28.1424 
G01 X-37.4952 Y28.3049 
G01 X-37.1949 Y28.6052 
G01 X-37.0324 Y28.9976 
G01 X-37.0324 Y29.4224 
G01 X-37.1949 Y29.8148 
G01 X-37.4952 Y30.1151 
G01 X-37.8876 Y30.2776 
G01 X-38.3124 Y30.2776 
G01 X-38.7048 Y30.1151 
G01 X-39.0051 Y29.8148 
G01 X-39.1676 Y29.4224 
G01 X-39.1676 Y28.9976 
G01 X-39.0051 Y28.6052 
G01 X-38.7048 Y28.3049 
G00 Z2.5400 
G00 X-38.7148 Y28.4609 
G01 Z-0.0800 F254.00 
G01 X-38.8491 Y28.5952 F254.00 
G01 X-38.9546 Y28.7532 
G01 X-39.0273 Y28.9287 
G01 X-39.0644 Y29.1150 
G01 X-39.0644 Y29.3050 
G01 X-39.0273 Y29.4913 
G01 X-38.9546 Y29.6668 
G01 X-38.8491 Y29.8248 
G01 X-38.7148 Y29.9591 
G01 X-38.5568 Y30.0646 
G01 X-38.3813 Y30.1373 
G01 X-38.1950 Y30.1744 
G01 X-38.0050 Y30.1744 
G01 X-37.8187 Y30.1373 
G01 X-37.6432 Y30.0646 
G01 X-37.4852 Y29.9591 
G01 X-37.3509 Y29.8248 
G01 X-37.2454 Y29.6668 
G01 X-37.1727 Y29.4913 
G01 X-37.1356 Y29.3050 
G01 X-37.1356 Y29.1150 
G01 X-37.1727 Y28.9287 
G01 X-37.2454 Y28.7532 
G01 X-37.3509 Y28.5952 
G01 X-37.4852 Y28.4609 
G01 X-37.6432 Y28.3554 
G01 X-37.8187 Y28.2827 
G01 X-38.0050 Y28.2456 
G01 X-38.1950 Y28.2456 
G01 X-38.3813 Y28.2827 
G01 X-38.5568 Y28.3554 
G01 X-38.7148 Y28.4609 
G00 Z2.5400 
G00 X-38.7048 Y30.8449 
G01 Z-0.0800 F254.00 
G01 X-38.3124 Y30.6824 F254.00 
G01 X-37.8876 Y30.6824 
G01 X-37.4952 Y30.8449 
G01 X-37.1949 Y31.1452 
G01 X-37.0324 Y31.5376 
G01 X-37.0324 Y31.9624 
G01 X-37.1949 Y32.3548 
G01 X-37.4952 Y32.6551 
G01 X-37.8876 Y32.8176 
G01 X-38.3124 Y32.8176 
G01 X-38.7048 Y32.6551 
G01 X-39.0051 Y32.3548 
G01 X-39.1676 Y31.9624 
G01 X-39.1676 Y31.5376 
G01 X-39.0051 Y31.1452 
G01 X-38.7048 Y30.8449 
G00 Z2.5400 
G00 X-38.7148 Y31.0009 
G01 Z-0.0800 F254.00 
G01 X-38.8491 Y31.1352 F254.00 
G01 X-38.9546 Y31.2932 
G01 X-39.0273 Y31.4687 
G01 X-39.0644 Y31.6550 
G01 X-39.0644 Y31.8450 
G01 X-39.0273 Y32.0313 
G01 X-38.9546 Y32.2068 
G01 X-38.8491 Y32.3648 
G01 X-38.7148 Y32.4991 
G01 X-38.5568 Y32.6046 
G01 X-38.3813 Y32.6773 
G01 X-38.1950 Y32.7144 
G01 X-38.0050 Y32.7144 
G01 X-37.8187 Y32.6773 
G01 X-37.6432 Y32.6046 
G01 X-37.4852 Y32.4991 
G01 X-37.3509 Y32.3648 
G01 X-37.2454 Y32.2068 
G01 X-37.1727 Y32.0313 
G01 X-37.1356 Y31.8450 
G01 X-37.1356 Y31.6550 
G01 X-37.1727 Y31.4687 
G01 X-37.2454 Y31.2932 
G01 X-37.3509 Y31.1352 
G01 X-37.4852 Y31.0009 
G01 X-37.6432 Y30.8954 
G01 X-37.8187 Y30.8227 
G01 X-38.0050 Y30.7856 
G01 X-38.1950 Y30.7856 
G01 X-38.3813 Y30.8227 
G01 X-38.5568 Y30.8954 
G01 X-38.7148 Y31.0009 
G00 Z2.5400 
G00 X-38.7048 Y33.3849 
G01 Z-0.0800 F254.00 
G01 X-38.3124 Y33.2224 F254.00 
G01 X-37.8876 Y33.2224 
G01 X-37.4952 Y33.3849 
G01 X-37.1949 Y33.6852 
G01 X-37.0324 Y34.0776 
G01 X-37.0324 Y34.5024 
G01 X-37.1949 Y34.8948 
G01 X-37.4952 Y35.1951 
G01 X-37.8876 Y35.3576 
G01 X-38.3124 Y35.3576 
G01 X-38.7048 Y35.1951 
G01 X-39.0051 Y34.8948 
G01 X-39.1676 Y34.5024 
G01 X-39.1676 Y34.0776 
G01 X-39.0051 Y33.6852 
G01 X-38.7048 Y33.3849 
G00 Z2.5400 
G00 X-38.7148 Y33.5409 
G01 Z-0.0800 F254.00 
G01 X-38.8491 Y33.6752 F254.00 
G01 X-38.9546 Y33.8332 
G01 X-39.0273 Y34.0087 
G01 X-39.0644 Y34.1950 
G01 X-39.0644 Y34.3850 
G01 X-39.0273 Y34.5713 
G01 X-38.9546 Y34.7468 
G01 X-38.8491 Y34.9048 
G01 X-38.7148 Y35.0391 
G01 X-38.5568 Y35.1446 
G01 X-38.3813 Y35.2173 
G01 X-38.1950 Y35.2544 
G01 X-38.0050 Y35.2544 
G01 X-37.8187 Y35.2173 
G01 X-37.6432 Y35.1446 
G01 X-37.4852 Y35.0391 
G01 X-37.3509 Y34.9048 
G01 X-37.2454 Y34.7468 
G01 X-37.1727 Y34.5713 
G01 X-37.1356 Y34.3850 
G01 X-37.1356 Y34.1950 
G01 X-37.1727 Y34.0087 
G01 X-37.2454 Y33.8332 
G01 X-37.3509 Y33.6752 
G01 X-37.4852 Y33.5409 
G01 X-37.6432 Y33.4354 
G01 X-37.8187 Y33.3627 
G01 X-38.0050 Y33.3256 
G01 X-38.1950 Y33.3256 
G01 X-38.3813 Y33.3627 
G01 X-38.5568 Y33.4354 
G01 X-38.7148 Y33.5409 
G00 Z2.5400 
G00 X-40.3614 Y32.9833 
G01 Z-0.0800 F254.00 
G01 X-40.3804 Y32.9125 F254.00 
G01 X-40.4171 Y32.8489 
G01 X-40.4689 Y32.7971 
G01 X-40.5325 Y32.7604 
G01 X-40.6033 Y32.7414 
G01 X-49.5667 Y32.7414 
G01 X-49.6375 Y32.7604 
G01 X-49.7011 Y32.7971 
G01 X-49.7529 Y32.8489 
G01 X-49.7896 Y32.9125 
G01 X-49.8086 Y32.9833 
G01 X-49.8086 Y36.5470 
G01 X-49.9267 Y36.5959 
G01 X-50.0638 Y36.6875 
G01 X-50.1805 Y36.8042 
G01 X-50.2721 Y36.9413 
G01 X-50.3352 Y37.0937 
G01 X-50.3674 Y37.2555 
G01 X-50.3674 Y38.9445 
G01 X-50.3352 Y39.1063 
G01 X-50.2721 Y39.2587 
G01 X-50.1805 Y39.3958 
G01 X-50.0638 Y39.5125 
G01 X-49.9267 Y39.6041 
G01 X-49.7743 Y39.6672 
G01 X-49.6125 Y39.6994 
G01 X-49.4475 Y39.6994 
G01 X-49.2857 Y39.6672 
G01 X-49.1333 Y39.6041 
G01 X-48.9962 Y39.5125 
G01 X-48.8795 Y39.3958 
G01 X-48.7879 Y39.2587 
G01 X-48.7248 Y39.1063 
G01 X-48.6926 Y38.9445 
G01 X-48.6926 Y37.2555 
G01 X-48.7248 Y37.0937 
G01 X-48.7879 Y36.9413 
G01 X-48.8795 Y36.8042 
G01 X-48.9962 Y36.6875 
G01 X-49.1333 Y36.5959 
G01 X-49.2514 Y36.5470 
G01 X-49.2514 Y33.2986 
G01 X-40.9186 Y33.2986 
G01 X-40.9186 Y36.8667 
G01 X-40.8996 Y36.9375 
G01 X-40.8629 Y37.0011 
G01 X-40.8111 Y37.0529 
G01 X-40.7475 Y37.0896 
G01 X-40.6767 Y37.1086 
G01 X-39.0279 Y37.1086 
G01 X-39.0273 Y37.1113 
G01 X-38.9546 Y37.2868 
G01 X-38.8491 Y37.4448 
G01 X-38.7148 Y37.5791 
G01 X-38.5568 Y37.6846 
G01 X-38.3813 Y37.7573 
G01 X-38.1950 Y37.7944 
G01 X-38.0050 Y37.7944 
G01 X-37.8187 Y37.7573 
G01 X-37.6432 Y37.6846 
G01 X-37.4852 Y37.5791 
G01 X-37.3509 Y37.4448 
G01 X-37.2454 Y37.2868 
G01 X-37.1727 Y37.1113 
G01 X-37.1356 Y36.9250 
G01 X-37.1356 Y36.7350 
G01 X-37.1727 Y36.5487 
G01 X-37.2454 Y36.3732 
G01 X-37.3509 Y36.2152 
G01 X-37.4852 Y36.0809 
G01 X-37.6432 Y35.9754 
G01 X-37.8187 Y35.9027 
G01 X-38.0050 Y35.8656 
G01 X-38.1950 Y35.8656 
G01 X-38.3813 Y35.9027 
G01 X-38.5568 Y35.9754 
G01 X-38.7148 Y36.0809 
G01 X-38.8491 Y36.2152 
G01 X-38.9546 Y36.3732 
G01 X-39.0273 Y36.5487 
G01 X-39.0279 Y36.5514 
G01 X-40.3614 Y36.5514 
G01 X-40.3614 Y32.9833 
G00 Z2.5400 
G00 X-40.2582 Y32.8618 
G01 Z-0.0800 F254.00 
G01 X-40.2582 Y36.3878 F254.00 
G01 X-40.2467 Y36.4155 
G01 X-40.2255 Y36.4367 
G01 X-40.1978 Y36.4482 
G01 X-39.1328 Y36.4482 
G01 X-39.1051 Y36.4367 
G01 X-39.0839 Y36.4155 
G01 X-39.0051 Y36.2252 
G01 X-38.7048 Y35.9249 
G01 X-38.3124 Y35.7624 
G01 X-37.8876 Y35.7624 
G01 X-37.4952 Y35.9249 
G01 X-37.1949 Y36.2252 
G01 X-37.0324 Y36.6176 
G01 X-37.0324 Y37.0424 
G01 X-37.1949 Y37.4348 
G01 X-37.4952 Y37.7351 
G01 X-37.8876 Y37.8976 
G01 X-38.3124 Y37.8976 
G01 X-38.7048 Y37.7351 
G01 X-39.0051 Y37.4348 
G01 X-39.0724 Y37.2722 
G01 X-39.0839 Y37.2445 
G01 X-39.1051 Y37.2233 
G01 X-39.1328 Y37.2118 
G01 X-40.7981 Y37.2118 
G01 X-41.0218 Y36.9881 
G01 X-41.0218 Y33.4622 
G01 X-41.0333 Y33.4345 
G01 X-41.0545 Y33.4133 
G01 X-41.0822 Y33.4018 
G01 X-49.0878 Y33.4018 
G01 X-49.1155 Y33.4133 
G01 X-49.1367 Y33.4345 
G01 X-49.1482 Y33.4622 
G01 X-49.1482 Y36.4427 
G01 X-49.1370 Y36.4696 
G01 X-49.1155 Y36.4916 
G01 X-49.0878 Y36.5031 
G01 X-48.9972 Y36.5406 
G01 X-48.7326 Y36.8052 
G01 X-48.5894 Y37.1509 
G01 X-48.5894 Y39.0491 
G01 X-48.7326 Y39.3948 
G01 X-48.9972 Y39.6594 
G01 X-49.3429 Y39.8026 
G01 X-49.7171 Y39.8026 
G01 X-50.0628 Y39.6594 
G01 X-50.3274 Y39.3948 
G01 X-50.4706 Y39.0491 
G01 X-50.4706 Y37.1509 
G01 X-50.3274 Y36.8052 
G01 X-50.0628 Y36.5406 
G01 X-49.9722 Y36.5031 
G01 X-49.9445 Y36.4916 
G01 X-49.9236 Y36.4707 
G01 X-49.9118 Y36.4427 
G01 X-49.9118 Y32.8618 
G01 X-49.6882 Y32.6382 
G01 X-40.4818 Y32.6382 
G01 X-40.2582 Y32.8618 
G00 Z2.5400 
G00 X-43.7728 Y34.7782 
G01 Z-0.0800 F254.00 
G01 X-43.6682 Y34.8828 F254.00 
G01 X-43.6682 Y36.2372 
G01 X-43.7728 Y36.3418 
G01 X-43.8046 Y36.3418 
G01 X-43.8323 Y36.3533 
G01 X-43.8535 Y36.3745 
G01 X-43.8650 Y36.4022 
G01 X-43.8650 Y36.5765 
G01 X-43.8535 Y36.6043 
G01 X-43.8323 Y36.6255 
G01 X-43.6526 Y36.8052 
G01 X-43.5094 Y37.1509 
G01 X-43.5094 Y38.1970 
G01 X-43.4979 Y38.2248 
G01 X-43.4767 Y38.2460 
G01 X-40.7039 Y41.0187 
G01 X-40.6827 Y41.0399 
G01 X-40.6510 Y41.0717 
G01 X-40.6272 Y41.0955 
G01 X-40.6060 Y41.1167 
G01 X-40.5790 Y41.1279 
G01 X-39.9628 Y41.1282 
G01 X-39.8582 Y41.2328 
G01 X-39.8582 Y42.5872 
G01 X-39.9628 Y42.6918 
G01 X-41.3172 Y42.6918 
G01 X-41.4218 Y42.5872 
G01 X-41.4218 Y41.9718 
G01 X-41.4333 Y41.9440 
G01 X-41.4545 Y41.9228 
G01 X-43.7748 Y39.6025 
G01 X-43.8025 Y39.5910 
G01 X-43.8325 Y39.5910 
G01 X-43.8595 Y39.6022 
G01 X-43.8815 Y39.6237 
G01 X-43.9172 Y39.6594 
G01 X-44.2629 Y39.8026 
G01 X-44.6371 Y39.8026 
G01 X-44.9828 Y39.6594 
G01 X-45.2474 Y39.3948 
G01 X-45.3906 Y39.0491 
G01 X-45.3906 Y37.1509 
G01 X-45.2474 Y36.8052 
G01 X-45.0465 Y36.6043 
G01 X-45.0350 Y36.5765 
G01 X-45.0350 Y36.4022 
G01 X-45.0465 Y36.3745 
G01 X-45.0677 Y36.3533 
G01 X-45.0954 Y36.3418 
G01 X-45.1272 Y36.3418 
G01 X-45.2318 Y36.2372 
G01 X-45.2318 Y34.8828 
G01 X-45.1272 Y34.7782 
G01 X-43.7728 Y34.7782 
G00 Z2.5400 
G00 X-43.7829 Y34.9141 
G01 Z-0.0800 F254.00 
G01 X-43.8041 Y34.8929 F254.00 
G01 X-43.8318 Y34.8814 
G01 X-45.0682 Y34.8814 
G01 X-45.0959 Y34.8929 
G01 X-45.1171 Y34.9141 
G01 X-45.1286 Y34.9418 
G01 X-45.1286 Y36.1782 
G01 X-45.1171 Y36.2059 
G01 X-45.0959 Y36.2271 
G01 X-45.0682 Y36.2386 
G01 X-44.9318 Y36.2386 
G01 X-44.9318 Y36.6528 
G01 X-44.9838 Y36.6875 
G01 X-45.1005 Y36.8042 
G01 X-45.1921 Y36.9413 
G01 X-45.2552 Y37.0937 
G01 X-45.2874 Y37.2555 
G01 X-45.2874 Y38.9445 
G01 X-45.2552 Y39.1063 
G01 X-45.1921 Y39.2587 
G01 X-45.1005 Y39.3958 
G01 X-44.9838 Y39.5125 
G01 X-44.8467 Y39.6041 
G01 X-44.6943 Y39.6672 
G01 X-44.5325 Y39.6994 
G01 X-44.3675 Y39.6994 
G01 X-44.2057 Y39.6672 
G01 X-44.0533 Y39.6041 
G01 X-43.9162 Y39.5125 
G01 X-43.8176 Y39.4138 
G01 X-41.3186 Y41.9128 
G01 X-41.3186 Y42.5282 
G01 X-41.3071 Y42.5559 
G01 X-41.2859 Y42.5771 
G01 X-41.2582 Y42.5886 
G01 X-40.0218 Y42.5886 
G01 X-39.9941 Y42.5771 
G01 X-39.9729 Y42.5559 
G01 X-39.9614 Y42.5282 
G01 X-39.9614 Y41.2918 
G01 X-39.9729 Y41.2641 
G01 X-39.9941 Y41.2429 
G01 X-40.0218 Y41.2314 
G01 X-40.6372 Y41.2314 
G01 X-43.6126 Y38.2560 
G01 X-43.6126 Y37.2555 
G01 X-43.6448 Y37.0937 
G01 X-43.7079 Y36.9413 
G01 X-43.7995 Y36.8042 
G01 X-43.9162 Y36.6875 
G01 X-43.9682 Y36.6528 
G01 X-43.9682 Y36.2386 
G01 X-43.8318 Y36.2386 
G01 X-43.8041 Y36.2271 
G01 X-43.7829 Y36.2059 
G01 X-43.7714 Y36.1782 
G01 X-43.7714 Y34.9418 
G01 X-43.7829 Y34.9141 
G00 Z2.5400 
G00 X-46.1926 Y36.8052 
G01 Z-0.0800 F254.00 
G01 X-46.0494 Y37.1509 F254.00 
G01 X-46.0494 Y39.0491 
G01 X-46.1926 Y39.3948 
G01 X-46.4572 Y39.6594 
G01 X-46.5478 Y39.6969 
G01 X-46.5755 Y39.7084 
G01 X-46.5964 Y39.7293 
G01 X-46.6082 Y39.7573 
G01 X-46.6082 Y44.0078 
G01 X-46.5967 Y44.0355 
G01 X-46.5755 Y44.0567 
G01 X-46.5478 Y44.0682 
G01 X-39.1328 Y44.0682 
G01 X-39.1051 Y44.0567 
G01 X-39.0839 Y44.0355 
G01 X-39.0051 Y43.8452 
G01 X-38.7048 Y43.5449 
G01 X-38.3124 Y43.3824 
G01 X-37.8876 Y43.3824 
G01 X-37.4952 Y43.5449 
G01 X-37.1949 Y43.8452 
G01 X-37.0324 Y44.2376 
G01 X-37.0324 Y44.6624 
G01 X-37.1949 Y45.0548 
G01 X-37.4952 Y45.3551 
G01 X-37.8876 Y45.5176 
G01 X-38.3124 Y45.5176 
G01 X-38.7048 Y45.3551 
G01 X-39.0051 Y45.0548 
G01 X-39.0839 Y44.8645 
G01 X-39.1051 Y44.8433 
G01 X-39.1328 Y44.8318 
G01 X-47.1482 Y44.8318 
G01 X-47.3718 Y44.6082 
G01 X-47.3718 Y39.7573 
G01 X-47.3830 Y39.7304 
G01 X-47.4045 Y39.7084 
G01 X-47.4322 Y39.6969 
G01 X-47.5228 Y39.6594 
G01 X-47.7874 Y39.3948 
G01 X-47.9306 Y39.0491 
G01 X-47.9306 Y37.1509 
G01 X-47.7874 Y36.8052 
G01 X-47.5228 Y36.5406 
G01 X-47.1771 Y36.3974 
G01 X-46.8029 Y36.3974 
G01 X-46.4572 Y36.5406 
G01 X-46.1926 Y36.8052 
G00 Z2.5400 
G00 X-46.3395 Y36.8042 
G01 Z-0.0800 F254.00 
G01 X-46.4562 Y36.6875 F254.00 
G01 X-46.5933 Y36.5959 
G01 X-46.7457 Y36.5328 
G01 X-46.9075 Y36.5006 
G01 X-47.0725 Y36.5006 
G01 X-47.2343 Y36.5328 
G01 X-47.3867 Y36.5959 
G01 X-47.5238 Y36.6875 
G01 X-47.6405 Y36.8042 
G01 X-47.7321 Y36.9413 
G01 X-47.7952 Y37.0937 
G01 X-47.8274 Y37.2555 
G01 X-47.8274 Y38.9445 
G01 X-47.7952 Y39.1063 
G01 X-47.7321 Y39.2587 
G01 X-47.6405 Y39.3958 
G01 X-47.5238 Y39.5125 
G01 X-47.3867 Y39.6041 
G01 X-47.2686 Y39.6530 
G01 X-47.2686 Y44.4867 
G01 X-47.2496 Y44.5575 
G01 X-47.2129 Y44.6211 
G01 X-47.1611 Y44.6729 
G01 X-47.0975 Y44.7096 
G01 X-47.0267 Y44.7286 
G01 X-39.0279 Y44.7286 
G01 X-39.0273 Y44.7313 
G01 X-38.9546 Y44.9068 
G01 X-38.8491 Y45.0648 
G01 X-38.7148 Y45.1991 
G01 X-38.5568 Y45.3046 
G01 X-38.3813 Y45.3773 
G01 X-38.1950 Y45.4144 
G01 X-38.0050 Y45.4144 
G01 X-37.8187 Y45.3773 
G01 X-37.6432 Y45.3046 
G01 X-37.4852 Y45.1991 
G01 X-37.3509 Y45.0648 
G01 X-37.2454 Y44.9068 
G01 X-37.1727 Y44.7313 
G01 X-37.1356 Y44.5450 
G01 X-37.1356 Y44.3550 
G01 X-37.1727 Y44.1687 
G01 X-37.2454 Y43.9932 
G01 X-37.3509 Y43.8352 
G01 X-37.4852 Y43.7009 
G01 X-37.6432 Y43.5954 
G01 X-37.8187 Y43.5227 
G01 X-38.0050 Y43.4856 
G01 X-38.1950 Y43.4856 
G01 X-38.3813 Y43.5227 
G01 X-38.5568 Y43.5954 
G01 X-38.7148 Y43.7009 
G01 X-38.8491 Y43.8352 
G01 X-38.9546 Y43.9932 
G01 X-39.0273 Y44.1687 
G01 X-39.0279 Y44.1714 
G01 X-46.7114 Y44.1714 
G01 X-46.7114 Y39.6530 
G01 X-46.5933 Y39.6041 
G01 X-46.4562 Y39.5125 
G01 X-46.3395 Y39.3958 
G01 X-46.2479 Y39.2587 
G01 X-46.1848 Y39.1063 
G01 X-46.1526 Y38.9445 
G01 X-46.1526 Y37.2555 
G01 X-46.1848 Y37.0937 
G01 X-46.2479 Y36.9413 
G01 X-46.3395 Y36.8042 
G00 Z2.5400 
G00 X-50.6710 Y35.7531 
G01 Z-0.0800 F254.00 
G01 X-50.6069 Y35.6890 F254.00 
G01 X-50.5722 Y35.6053 
G01 X-50.5722 Y20.2747 
G01 X-50.6069 Y20.1910 
G01 X-50.6710 Y20.1269 
G01 X-50.7547 Y20.0922 
G01 X-53.6720 Y20.0922 
G01 X-53.6827 Y20.0387 
G01 X-53.7554 Y19.8632 
G01 X-53.8609 Y19.7052 
G01 X-53.9952 Y19.5709 
G01 X-54.1532 Y19.4654 
G01 X-54.3287 Y19.3927 
G01 X-54.5150 Y19.3556 
G01 X-54.7050 Y19.3556 
G01 X-54.8913 Y19.3927 
G01 X-55.0668 Y19.4654 
G01 X-55.2248 Y19.5709 
G01 X-55.3591 Y19.7052 
G01 X-55.4646 Y19.8632 
G01 X-55.5373 Y20.0387 
G01 X-55.5744 Y20.2250 
G01 X-55.5744 Y20.4150 
G01 X-55.5373 Y20.6013 
G01 X-55.4646 Y20.7768 
G01 X-55.3591 Y20.9348 
G01 X-55.2248 Y21.0691 
G01 X-55.0668 Y21.1746 
G01 X-54.8913 Y21.2473 
G01 X-54.7050 Y21.2844 
G01 X-54.5150 Y21.2844 
G01 X-54.3287 Y21.2473 
G01 X-54.1532 Y21.1746 
G01 X-53.9952 Y21.0691 
G01 X-53.8609 Y20.9348 
G01 X-53.7554 Y20.7768 
G01 X-53.6827 Y20.6013 
G01 X-53.6720 Y20.5478 
G01 X-51.0278 Y20.5478 
G01 X-51.0278 Y35.3322 
G01 X-54.1473 Y35.3322 
G01 X-54.2310 Y35.3669 
G01 X-54.2951 Y35.4310 
G01 X-54.3298 Y35.5147 
G01 X-54.3298 Y44.8763 
G01 X-54.2951 Y44.9600 
G01 X-54.2310 Y45.0241 
G01 X-54.1473 Y45.0588 
G01 X-53.6948 Y45.0588 
G01 X-53.6948 Y54.9253 
G01 X-53.6601 Y55.0090 
G01 X-53.5960 Y55.0731 
G01 X-53.5123 Y55.1078 
G01 X-50.6277 Y55.1078 
G01 X-50.5440 Y55.0731 
G01 X-50.4799 Y55.0090 
G01 X-50.4452 Y54.9253 
G01 X-50.4452 Y49.8086 
G01 X-39.0279 Y49.8086 
G01 X-39.0273 Y49.8113 
G01 X-38.9546 Y49.9868 
G01 X-38.8491 Y50.1448 
G01 X-38.7148 Y50.2791 
G01 X-38.5568 Y50.3846 
G01 X-38.3813 Y50.4573 
G01 X-38.1950 Y50.4944 
G01 X-38.0050 Y50.4944 
G01 X-37.8187 Y50.4573 
G01 X-37.6432 Y50.3846 
G01 X-35.8386 Y52.1854 
G01 X-35.8386 Y58.3046 
G01 X-36.6377 Y59.1037 
G01 X-36.7339 Y59.0846 
G01 X-36.9261 Y59.0846 
G01 X-37.1145 Y59.1221 
G01 X-37.2920 Y59.1956 
G01 X-37.4518 Y59.3024 
G01 X-37.5876 Y59.4382 
G01 X-37.6944 Y59.5980 
G01 X-37.7679 Y59.7755 
G01 X-37.8054 Y59.9639 
G01 X-37.8054 Y61.9561 
G01 X-37.7679 Y62.1445 
G01 X-37.6944 Y62.3220 
G01 X-37.5876 Y62.4818 
G01 X-37.4518 Y62.6176 
G01 X-37.2920 Y62.7244 
G01 X-37.1145 Y62.7979 
G01 X-36.9261 Y62.8354 
G01 X-36.7339 Y62.8354 
G01 X-36.5455 Y62.7979 
G01 X-36.3680 Y62.7244 
G01 X-36.2082 Y62.6176 
G01 X-36.0724 Y62.4818 
G01 X-35.9656 Y62.3220 
G01 X-35.8921 Y62.1445 
G01 X-35.8546 Y61.9561 
G01 X-35.8546 Y59.9639 
G01 X-35.8921 Y59.7755 
G01 X-35.9656 Y59.5980 
G01 X-36.0724 Y59.4382 
G01 X-36.1283 Y59.3823 
G01 X-35.3889 Y58.6429 
G01 X-35.3371 Y58.5911 
G01 X-35.3004 Y58.5275 
G01 X-35.2814 Y58.4567 
G01 X-35.2814 Y52.0333 
G01 X-35.3004 Y51.9625 
G01 X-35.3371 Y51.8989 
G01 X-37.2469 Y49.9891 
G01 X-37.1727 Y49.8113 
G01 X-37.1356 Y49.6250 
G01 X-37.1356 Y49.4350 
G01 X-37.1727 Y49.2487 
G01 X-37.2454 Y49.0732 
G01 X-37.3509 Y48.9152 
G01 X-37.4852 Y48.7809 
G01 X-37.6432 Y48.6754 
G01 X-37.8187 Y48.6027 
G01 X-38.0050 Y48.5656 
G01 X-38.1950 Y48.5656 
G01 X-38.3813 Y48.6027 
G01 X-38.5568 Y48.6754 
G01 X-38.7148 Y48.7809 
G01 X-38.8491 Y48.9152 
G01 X-38.9546 Y49.0732 
G01 X-39.0273 Y49.2487 
G01 X-39.0279 Y49.2514 
G01 X-50.7097 Y49.2514 
G01 X-50.7805 Y49.2704 
G01 X-50.8441 Y49.3071 
G01 X-50.8959 Y49.3589 
G01 X-50.9326 Y49.4225 
G01 X-50.9516 Y49.4933 
G01 X-50.9516 Y49.5667 
G01 X-50.9326 Y49.6375 
G01 X-50.9008 Y49.6926 
G01 X-50.9008 Y54.6522 
G01 X-53.2392 Y54.6522 
G01 X-53.2392 Y44.7857 
G01 X-53.2739 Y44.7020 
G01 X-53.3380 Y44.6379 
G01 X-53.4217 Y44.6032 
G01 X-53.8742 Y44.6032 
G01 X-53.8742 Y35.7878 
G01 X-50.7547 Y35.7878 
G01 X-50.6710 Y35.7531 
G00 Z2.5400 
G00 X-51.1790 Y35.2451 
G01 Z-0.0800 F254.00 
G01 X-51.1149 Y35.1810 F254.00 
G01 X-51.0802 Y35.0973 
G01 X-51.0802 Y22.8147 
G01 X-51.1149 Y22.7310 
G01 X-51.1790 Y22.6669 
G01 X-51.2627 Y22.6322 
G01 X-53.6720 Y22.6322 
G01 X-53.6827 Y22.5787 
G01 X-53.7554 Y22.4032 
G01 X-53.8609 Y22.2452 
G01 X-53.9952 Y22.1109 
G01 X-54.1532 Y22.0054 
G01 X-54.3287 Y21.9327 
G01 X-54.5150 Y21.8956 
G01 X-54.7050 Y21.8956 
G01 X-54.8913 Y21.9327 
G01 X-55.0668 Y22.0054 
G01 X-55.2248 Y22.1109 
G01 X-55.3591 Y22.2452 
G01 X-55.4646 Y22.4032 
G01 X-55.5373 Y22.5787 
G01 X-55.5744 Y22.7650 
G01 X-55.5744 Y22.9550 
G01 X-55.5373 Y23.1413 
G01 X-55.4646 Y23.3168 
G01 X-55.3591 Y23.4748 
G01 X-55.2248 Y23.6091 
G01 X-55.0668 Y23.7146 
G01 X-54.8913 Y23.7873 
G01 X-54.7050 Y23.8244 
G01 X-54.5150 Y23.8244 
G01 X-54.3287 Y23.7873 
G01 X-54.1532 Y23.7146 
G01 X-53.9952 Y23.6091 
G01 X-53.8609 Y23.4748 
G01 X-53.7554 Y23.3168 
G01 X-53.6827 Y23.1413 
G01 X-53.6720 Y23.0878 
G01 X-51.5358 Y23.0878 
G01 X-51.5358 Y34.8242 
G01 X-54.6553 Y34.8242 
G01 X-54.7390 Y34.8589 
G01 X-54.8031 Y34.9230 
G01 X-54.8378 Y35.0067 
G01 X-54.8378 Y45.3843 
G01 X-54.8031 Y45.4680 
G01 X-54.7390 Y45.5321 
G01 X-54.6553 Y45.5668 
G01 X-54.2028 Y45.5668 
G01 X-54.2028 Y55.4253 
G01 X-54.1681 Y55.5090 
G01 X-54.1040 Y55.5731 
G01 X-54.0203 Y55.6078 
G01 X-49.9927 Y55.6078 
G01 X-49.9090 Y55.5731 
G01 X-49.8449 Y55.5090 
G01 X-49.8102 Y55.4253 
G01 X-49.8102 Y52.3486 
G01 X-39.0279 Y52.3486 
G01 X-39.0273 Y52.3513 
G01 X-38.9546 Y52.5268 
G01 X-38.8491 Y52.6848 
G01 X-38.7148 Y52.8191 
G01 X-38.5568 Y52.9246 
G01 X-38.3813 Y52.9973 
G01 X-38.1950 Y53.0344 
G01 X-38.0050 Y53.0344 
G01 X-37.8187 Y52.9973 
G01 X-37.6432 Y52.9246 
G01 X-37.1086 Y53.4554 
G01 X-37.1086 Y57.0346 
G01 X-39.1777 Y59.1037 
G01 X-39.2739 Y59.0846 
G01 X-39.4661 Y59.0846 
G01 X-39.6545 Y59.1221 
G01 X-39.8320 Y59.1956 
G01 X-39.9918 Y59.3024 
G01 X-40.1276 Y59.4382 
G01 X-40.2344 Y59.5980 
G01 X-40.3079 Y59.7755 
G01 X-40.3454 Y59.9639 
G01 X-40.3454 Y61.9561 
G01 X-40.3079 Y62.1445 
G01 X-40.2344 Y62.3220 
G01 X-40.1276 Y62.4818 
G01 X-39.9918 Y62.6176 
G01 X-39.8320 Y62.7244 
G01 X-39.6545 Y62.7979 
G01 X-39.4661 Y62.8354 
G01 X-39.2739 Y62.8354 
G01 X-39.0855 Y62.7979 
G01 X-38.9080 Y62.7244 
G01 X-38.7482 Y62.6176 
G01 X-38.6124 Y62.4818 
G01 X-38.5056 Y62.3220 
G01 X-38.4321 Y62.1445 
G01 X-38.3946 Y61.9561 
G01 X-38.3946 Y59.9639 
G01 X-38.4321 Y59.7755 
G01 X-38.5056 Y59.5980 
G01 X-38.6124 Y59.4382 
G01 X-38.6683 Y59.3823 
G01 X-36.6589 Y57.3729 
G01 X-36.6071 Y57.3211 
G01 X-36.5704 Y57.2575 
G01 X-36.5514 Y57.1867 
G01 X-36.5514 Y53.3033 
G01 X-36.5704 Y53.2325 
G01 X-36.6071 Y53.1689 
G01 X-36.6589 Y53.1171 
G01 X-37.2469 Y52.5291 
G01 X-37.1727 Y52.3513 
G01 X-37.1356 Y52.1650 
G01 X-37.1356 Y51.9750 
G01 X-37.1727 Y51.7887 
G01 X-37.2454 Y51.6132 
G01 X-37.3509 Y51.4552 
G01 X-37.4852 Y51.3209 
G01 X-37.6432 Y51.2154 
G01 X-37.8187 Y51.1427 
G01 X-38.0050 Y51.1056 
G01 X-38.1950 Y51.1056 
G01 X-38.3813 Y51.1427 
G01 X-38.5568 Y51.2154 
G01 X-38.7148 Y51.3209 
G01 X-38.8491 Y51.4552 
G01 X-38.9546 Y51.6132 
G01 X-39.0273 Y51.7887 
G01 X-39.0279 Y51.7914 
G01 X-50.0747 Y51.7914 
G01 X-50.1455 Y51.8104 
G01 X-50.2091 Y51.8471 
G01 X-50.2609 Y51.8989 
G01 X-50.2976 Y51.9625 
G01 X-50.3166 Y52.0333 
G01 X-50.3166 Y52.1067 
G01 X-50.2976 Y52.1775 
G01 X-50.2658 Y52.2326 
G01 X-50.2658 Y55.1522 
G01 X-53.7472 Y55.1522 
G01 X-53.7472 Y45.2937 
G01 X-53.7819 Y45.2100 
G01 X-53.8460 Y45.1459 
G01 X-53.9297 Y45.1112 
G01 X-54.3822 Y45.1112 
G01 X-54.3822 Y35.2798 
G01 X-51.2627 Y35.2798 
G01 X-51.1790 Y35.2451 
G00 Z2.5400 
G00 X-53.7049 Y33.6248 
G01 Z-0.0800 F254.00 
G01 X-54.0052 Y33.9251 F254.00 
G01 X-54.3976 Y34.0876 
G01 X-54.8224 Y34.0876 
G01 X-55.2148 Y33.9251 
G01 X-55.5151 Y33.6248 
G01 X-55.6776 Y33.2324 
G01 X-55.6776 Y32.8076 
G01 X-55.5151 Y32.4152 
G01 X-55.2148 Y32.1149 
G01 X-54.8224 Y31.9524 
G01 X-54.3976 Y31.9524 
G01 X-54.0052 Y32.1149 
G01 X-53.7049 Y32.4152 
G01 X-53.5424 Y32.8076 
G01 X-53.5424 Y33.2324 
G01 X-53.7049 Y33.6248 
G00 Z2.5400 
G00 X-53.8609 Y33.6348 
G01 Z-0.0800 F254.00 
G01 X-53.7554 Y33.4768 F254.00 
G01 X-53.6827 Y33.3013 
G01 X-53.6456 Y33.1150 
G01 X-53.6456 Y32.9250 
G01 X-53.6827 Y32.7387 
G01 X-53.7554 Y32.5632 
G01 X-53.8609 Y32.4052 
G01 X-53.9952 Y32.2709 
G01 X-54.1532 Y32.1654 
G01 X-54.3287 Y32.0927 
G01 X-54.5150 Y32.0556 
G01 X-54.7050 Y32.0556 
G01 X-54.8913 Y32.0927 
G01 X-55.0668 Y32.1654 
G01 X-55.2248 Y32.2709 
G01 X-55.3591 Y32.4052 
G01 X-55.4646 Y32.5632 
G01 X-55.5373 Y32.7387 
G01 X-55.5744 Y32.9250 
G01 X-55.5744 Y33.1150 
G01 X-55.5373 Y33.3013 
G01 X-55.4646 Y33.4768 
G01 X-55.3591 Y33.6348 
G01 X-55.2248 Y33.7691 
G01 X-55.0668 Y33.8746 
G01 X-54.8913 Y33.9473 
G01 X-54.7050 Y33.9844 
G01 X-54.5150 Y33.9844 
G01 X-54.3287 Y33.9473 
G01 X-54.1532 Y33.8746 
G01 X-53.9952 Y33.7691 
G01 X-53.8609 Y33.6348 
G00 Z2.5400 
G00 X-54.0052 Y31.3851 
G01 Z-0.0800 F254.00 
G01 X-54.3976 Y31.5476 F254.00 
G01 X-54.8224 Y31.5476 
G01 X-55.2148 Y31.3851 
G01 X-55.5151 Y31.0848 
G01 X-55.6776 Y30.6924 
G01 X-55.6776 Y30.2676 
G01 X-55.5151 Y29.8752 
G01 X-55.2148 Y29.5749 
G01 X-54.8224 Y29.4124 
G01 X-54.3976 Y29.4124 
G01 X-54.0052 Y29.5749 
G01 X-53.7049 Y29.8752 
G01 X-53.5424 Y30.2676 
G01 X-53.5424 Y30.6924 
G01 X-53.7049 Y31.0848 
G01 X-54.0052 Y31.3851 
G00 Z2.5400 
G00 X-53.9952 Y31.2291 
G01 Z-0.0800 F254.00 
G01 X-53.8609 Y31.0948 F254.00 
G01 X-53.7554 Y30.9368 
G01 X-53.6827 Y30.7613 
G01 X-53.6456 Y30.5750 
G01 X-53.6456 Y30.3850 
G01 X-53.6827 Y30.1987 
G01 X-53.7554 Y30.0232 
G01 X-53.8609 Y29.8652 
G01 X-53.9952 Y29.7309 
G01 X-54.1532 Y29.6254 
G01 X-54.3287 Y29.5527 
G01 X-54.5150 Y29.5156 
G01 X-54.7050 Y29.5156 
G01 X-54.8913 Y29.5527 
G01 X-55.0668 Y29.6254 
G01 X-55.2248 Y29.7309 
G01 X-55.3591 Y29.8652 
G01 X-55.4646 Y30.0232 
G01 X-55.5373 Y30.1987 
G01 X-55.5744 Y30.3850 
G01 X-55.5744 Y30.5750 
G01 X-55.5373 Y30.7613 
G01 X-55.4646 Y30.9368 
G01 X-55.3591 Y31.0948 
G01 X-55.2248 Y31.2291 
G01 X-55.0668 Y31.3346 
G01 X-54.8913 Y31.4073 
G01 X-54.7050 Y31.4444 
G01 X-54.5150 Y31.4444 
G01 X-54.3287 Y31.4073 
G01 X-54.1532 Y31.3346 
G01 X-53.9952 Y31.2291 
G00 Z2.5400 
G00 X-54.0052 Y28.8451 
G01 Z-0.0800 F254.00 
G01 X-54.3976 Y29.0076 F254.00 
G01 X-54.8224 Y29.0076 
G01 X-55.2148 Y28.8451 
G01 X-55.5151 Y28.5448 
G01 X-55.6776 Y28.1524 
G01 X-55.6776 Y27.7276 
G01 X-55.5151 Y27.3352 
G01 X-55.2148 Y27.0349 
G01 X-54.8224 Y26.8724 
G01 X-54.3976 Y26.8724 
G01 X-54.0052 Y27.0349 
G01 X-53.7049 Y27.3352 
G01 X-53.5424 Y27.7276 
G01 X-53.5424 Y28.1524 
G01 X-53.7049 Y28.5448 
G01 X-54.0052 Y28.8451 
G00 Z2.5400 
G00 X-53.9952 Y28.6891 
G01 Z-0.0800 F254.00 
G01 X-53.8609 Y28.5548 F254.00 
G01 X-53.7554 Y28.3968 
G01 X-53.6827 Y28.2213 
G01 X-53.6456 Y28.0350 
G01 X-53.6456 Y27.8450 
G01 X-53.6827 Y27.6587 
G01 X-53.7554 Y27.4832 
G01 X-53.8609 Y27.3252 
G01 X-53.9952 Y27.1909 
G01 X-54.1532 Y27.0854 
G01 X-54.3287 Y27.0127 
G01 X-54.5150 Y26.9756 
G01 X-54.7050 Y26.9756 
G01 X-54.8913 Y27.0127 
G01 X-55.0668 Y27.0854 
G01 X-55.2248 Y27.1909 
G01 X-55.3591 Y27.3252 
G01 X-55.4646 Y27.4832 
G01 X-55.5373 Y27.6587 
G01 X-55.5744 Y27.8450 
G01 X-55.5744 Y28.0350 
G01 X-55.5373 Y28.2213 
G01 X-55.4646 Y28.3968 
G01 X-55.3591 Y28.5548 
G01 X-55.2248 Y28.6891 
G01 X-55.0668 Y28.7946 
G01 X-54.8913 Y28.8673 
G01 X-54.7050 Y28.9044 
G01 X-54.5150 Y28.9044 
G01 X-54.3287 Y28.8673 
G01 X-54.1532 Y28.7946 
G01 X-53.9952 Y28.6891 
G00 Z2.5400 
G00 X-54.0052 Y26.3051 
G01 Z-0.0800 F254.00 
G01 X-54.3976 Y26.4676 F254.00 
G01 X-54.8224 Y26.4676 
G01 X-55.2148 Y26.3051 
G01 X-55.5151 Y26.0048 
G01 X-55.6776 Y25.6124 
G01 X-55.6776 Y25.1876 
G01 X-55.5151 Y24.7952 
G01 X-55.2148 Y24.4949 
G01 X-54.8224 Y24.3324 
G01 X-54.3976 Y24.3324 
G01 X-54.0052 Y24.4949 
G01 X-53.7049 Y24.7952 
G01 X-53.5424 Y25.1876 
G01 X-53.5424 Y25.6124 
G01 X-53.7049 Y26.0048 
G01 X-54.0052 Y26.3051 
G00 Z2.5400 
G00 X-53.9952 Y26.1491 
G01 Z-0.0800 F254.00 
G01 X-53.8609 Y26.0148 F254.00 
G01 X-53.7554 Y25.8568 
G01 X-53.6827 Y25.6813 
G01 X-53.6456 Y25.4950 
G01 X-53.6456 Y25.3050 
G01 X-53.6827 Y25.1187 
G01 X-53.7554 Y24.9432 
G01 X-53.8609 Y24.7852 
G01 X-53.9952 Y24.6509 
G01 X-54.1532 Y24.5454 
G01 X-54.3287 Y24.4727 
G01 X-54.5150 Y24.4356 
G01 X-54.7050 Y24.4356 
G01 X-54.8913 Y24.4727 
G01 X-55.0668 Y24.5454 
G01 X-55.2248 Y24.6509 
G01 X-55.3591 Y24.7852 
G01 X-55.4646 Y24.9432 
G01 X-55.5373 Y25.1187 
G01 X-55.5744 Y25.3050 
G01 X-55.5744 Y25.4950 
G01 X-55.5373 Y25.6813 
G01 X-55.4646 Y25.8568 
G01 X-55.3591 Y26.0148 
G01 X-55.2248 Y26.1491 
G01 X-55.0668 Y26.2546 
G01 X-54.8913 Y26.3273 
G01 X-54.7050 Y26.3644 
G01 X-54.5150 Y26.3644 
G01 X-54.3287 Y26.3273 
G01 X-54.1532 Y26.2546 
G01 X-53.9952 Y26.1491 
G00 Z2.5400 
G00 X-57.5149 Y26.0652 
G01 Z-0.0800 F254.00 
G01 X-57.3524 Y26.4576 F254.00 
G01 X-57.3524 Y26.8824 
G01 X-57.5149 Y27.2748 
G01 X-57.8152 Y27.5751 
G01 X-58.2076 Y27.7376 
G01 X-58.6324 Y27.7376 
G01 X-59.0248 Y27.5751 
G01 X-59.3251 Y27.2748 
G01 X-59.4876 Y26.8824 
G01 X-59.4876 Y26.4576 
G01 X-59.3251 Y26.0652 
G01 X-59.0248 Y25.7649 
G01 X-58.6324 Y25.6024 
G01 X-58.2076 Y25.6024 
G01 X-57.8152 Y25.7649 
G01 X-57.5149 Y26.0652 
G00 Z2.5400 
G00 X-57.6709 Y26.0552 
G01 Z-0.0800 F254.00 
G01 X-57.8052 Y25.9209 F254.00 
G01 X-57.9632 Y25.8154 
G01 X-58.1387 Y25.7427 
G01 X-58.3250 Y25.7056 
G01 X-58.5150 Y25.7056 
G01 X-58.7013 Y25.7427 
G01 X-58.8768 Y25.8154 
G01 X-59.0348 Y25.9209 
G01 X-59.1691 Y26.0552 
G01 X-59.2746 Y26.2132 
G01 X-59.3473 Y26.3887 
G01 X-59.3844 Y26.5750 
G01 X-59.3844 Y26.7650 
G01 X-59.3473 Y26.9513 
G01 X-59.2746 Y27.1268 
G01 X-59.1691 Y27.2848 
G01 X-59.0348 Y27.4191 
G01 X-58.8768 Y27.5246 
G01 X-58.7013 Y27.5973 
G01 X-58.5150 Y27.6344 
G01 X-58.3250 Y27.6344 
G01 X-58.1387 Y27.5973 
G01 X-57.9632 Y27.5246 
G01 X-57.8052 Y27.4191 
G01 X-57.6709 Y27.2848 
G01 X-57.5654 Y27.1268 
G01 X-57.4927 Y26.9513 
G01 X-57.4556 Y26.7650 
G01 X-57.4556 Y26.5750 
G01 X-57.4927 Y26.3887 
G01 X-57.5654 Y26.2132 
G01 X-57.6709 Y26.0552 
G00 Z2.5400 
G00 X-57.8152 Y28.3049 
G01 Z-0.0800 F254.00 
G01 X-57.5149 Y28.6052 F254.00 
G01 X-57.3524 Y28.9976 
G01 X-57.3524 Y29.4224 
G01 X-57.5149 Y29.8148 
G01 X-57.8152 Y30.1151 
G01 X-58.2076 Y30.2776 
G01 X-58.6324 Y30.2776 
G01 X-59.0248 Y30.1151 
G01 X-59.3251 Y29.8148 
G01 X-59.4876 Y29.4224 
G01 X-59.4876 Y28.9976 
G01 X-59.3251 Y28.6052 
G01 X-59.0248 Y28.3049 
G01 X-58.6324 Y28.1424 
G01 X-58.2076 Y28.1424 
G01 X-57.8152 Y28.3049 
G00 Z2.5400 
G00 X-57.8052 Y28.4609 
G01 Z-0.0800 F254.00 
G01 X-57.9632 Y28.3554 F254.00 
G01 X-58.1387 Y28.2827 
G01 X-58.3250 Y28.2456 
G01 X-58.5150 Y28.2456 
G01 X-58.7013 Y28.2827 
G01 X-58.8768 Y28.3554 
G01 X-59.0348 Y28.4609 
G01 X-59.1691 Y28.5952 
G01 X-59.2746 Y28.7532 
G01 X-59.3473 Y28.9287 
G01 X-59.3844 Y29.1150 
G01 X-59.3844 Y29.3050 
G01 X-59.3473 Y29.4913 
G01 X-59.2746 Y29.6668 
G01 X-59.1691 Y29.8248 
G01 X-59.0348 Y29.9591 
G01 X-58.8768 Y30.0646 
G01 X-58.7013 Y30.1373 
G01 X-58.5150 Y30.1744 
G01 X-58.3250 Y30.1744 
G01 X-58.1387 Y30.1373 
G01 X-57.9632 Y30.0646 
G01 X-57.8052 Y29.9591 
G01 X-57.6709 Y29.8248 
G01 X-57.5654 Y29.6668 
G01 X-57.4927 Y29.4913 
G01 X-57.4556 Y29.3050 
G01 X-57.4556 Y29.1150 
G01 X-57.4927 Y28.9287 
G01 X-57.5654 Y28.7532 
G01 X-57.6709 Y28.5952 
G01 X-57.8052 Y28.4609 
G00 Z2.5400 
G00 X-57.8152 Y30.8449 
G01 Z-0.0800 F254.00 
G01 X-57.5149 Y31.1452 F254.00 
G01 X-57.3524 Y31.5376 
G01 X-57.3524 Y31.9624 
G01 X-57.5149 Y32.3548 
G01 X-57.8152 Y32.6551 
G01 X-58.2076 Y32.8176 
G01 X-58.6324 Y32.8176 
G01 X-59.0248 Y32.6551 
G01 X-59.3251 Y32.3548 
G01 X-59.4876 Y31.9624 
G01 X-59.4876 Y31.5376 
G01 X-59.3251 Y31.1452 
G01 X-59.0248 Y30.8449 
G01 X-58.6324 Y30.6824 
G01 X-58.2076 Y30.6824 
G01 X-57.8152 Y30.8449 
G00 Z2.5400 
G00 X-57.8052 Y31.0009 
G01 Z-0.0800 F254.00 
G01 X-57.9632 Y30.8954 F254.00 
G01 X-58.1387 Y30.8227 
G01 X-58.3250 Y30.7856 
G01 X-58.5150 Y30.7856 
G01 X-58.7013 Y30.8227 
G01 X-58.8768 Y30.8954 
G01 X-59.0348 Y31.0009 
G01 X-59.1691 Y31.1352 
G01 X-59.2746 Y31.2932 
G01 X-59.3473 Y31.4687 
G01 X-59.3844 Y31.6550 
G01 X-59.3844 Y31.8450 
G01 X-59.3473 Y32.0313 
G01 X-59.2746 Y32.2068 
G01 X-59.1691 Y32.3648 
G01 X-59.0348 Y32.4991 
G01 X-58.8768 Y32.6046 
G01 X-58.7013 Y32.6773 
G01 X-58.5150 Y32.7144 
G01 X-58.3250 Y32.7144 
G01 X-58.1387 Y32.6773 
G01 X-57.9632 Y32.6046 
G01 X-57.8052 Y32.4991 
G01 X-57.6709 Y32.3648 
G01 X-57.5654 Y32.2068 
G01 X-57.4927 Y32.0313 
G01 X-57.4556 Y31.8450 
G01 X-57.4556 Y31.6550 
G01 X-57.4927 Y31.4687 
G01 X-57.5654 Y31.2932 
G01 X-57.6709 Y31.1352 
G01 X-57.8052 Y31.0009 
G00 Z2.5400 
G00 X-57.8152 Y33.3849 
G01 Z-0.0800 F254.00 
G01 X-57.5149 Y33.6852 F254.00 
G01 X-57.3524 Y34.0776 
G01 X-57.3524 Y34.5024 
G01 X-57.5149 Y34.8948 
G01 X-57.8152 Y35.1951 
G01 X-58.2076 Y35.3576 
G01 X-58.6324 Y35.3576 
G01 X-59.0248 Y35.1951 
G01 X-59.3251 Y34.8948 
G01 X-59.4876 Y34.5024 
G01 X-59.4876 Y34.0776 
G01 X-59.3251 Y33.6852 
G01 X-59.0248 Y33.3849 
G01 X-58.6324 Y33.2224 
G01 X-58.2076 Y33.2224 
G01 X-57.8152 Y33.3849 
G00 Z2.5400 
G00 X-57.8052 Y33.5409 
G01 Z-0.0800 F254.00 
G01 X-57.9632 Y33.4354 F254.00 
G01 X-58.1387 Y33.3627 
G01 X-58.3250 Y33.3256 
G01 X-58.5150 Y33.3256 
G01 X-58.7013 Y33.3627 
G01 X-58.8768 Y33.4354 
G01 X-59.0348 Y33.5409 
G01 X-59.1691 Y33.6752 
G01 X-59.2746 Y33.8332 
G01 X-59.3473 Y34.0087 
G01 X-59.3844 Y34.1950 
G01 X-59.3844 Y34.3850 
G01 X-59.3473 Y34.5713 
G01 X-59.2746 Y34.7468 
G01 X-59.1691 Y34.9048 
G01 X-59.0348 Y35.0391 
G01 X-58.8768 Y35.1446 
G01 X-58.7013 Y35.2173 
G01 X-58.5150 Y35.2544 
G01 X-58.3250 Y35.2544 
G01 X-58.1387 Y35.2173 
G01 X-57.9632 Y35.1446 
G01 X-57.8052 Y35.0391 
G01 X-57.6709 Y34.9048 
G01 X-57.5654 Y34.7468 
G01 X-57.4927 Y34.5713 
G01 X-57.4556 Y34.3850 
G01 X-57.4556 Y34.1950 
G01 X-57.4927 Y34.0087 
G01 X-57.5654 Y33.8332 
G01 X-57.6709 Y33.6752 
G01 X-57.8052 Y33.5409 
G00 Z2.5400 
G00 X-57.8152 Y35.9249 
G01 Z-0.0800 F254.00 
G01 X-57.5149 Y36.2252 F254.00 
G01 X-57.3524 Y36.6176 
G01 X-57.3524 Y37.0424 
G01 X-57.5149 Y37.4348 
G01 X-57.8152 Y37.7351 
G01 X-58.2076 Y37.8976 
G01 X-58.6324 Y37.8976 
G01 X-59.0248 Y37.7351 
G01 X-59.3251 Y37.4348 
G01 X-59.4876 Y37.0424 
G01 X-59.4876 Y36.6176 
G01 X-59.3251 Y36.2252 
G01 X-59.0248 Y35.9249 
G01 X-58.6324 Y35.7624 
G01 X-58.2076 Y35.7624 
G01 X-57.8152 Y35.9249 
G00 Z2.5400 
G00 X-57.8052 Y36.0809 
G01 Z-0.0800 F254.00 
G01 X-57.9632 Y35.9754 F254.00 
G01 X-58.1387 Y35.9027 
G01 X-58.3250 Y35.8656 
G01 X-58.5150 Y35.8656 
G01 X-58.7013 Y35.9027 
G01 X-58.8768 Y35.9754 
G01 X-59.0348 Y36.0809 
G01 X-59.1691 Y36.2152 
G01 X-59.2746 Y36.3732 
G01 X-59.3473 Y36.5487 
G01 X-59.3844 Y36.7350 
G01 X-59.3844 Y36.9250 
G01 X-59.3473 Y37.1113 
G01 X-59.2746 Y37.2868 
G01 X-59.1691 Y37.4448 
G01 X-59.0348 Y37.5791 
G01 X-58.8768 Y37.6846 
G01 X-58.7013 Y37.7573 
G01 X-58.5150 Y37.7944 
G01 X-58.3250 Y37.7944 
G01 X-58.1387 Y37.7573 
G01 X-57.9632 Y37.6846 
G01 X-57.8052 Y37.5791 
G01 X-57.6709 Y37.4448 
G01 X-57.5654 Y37.2868 
G01 X-57.4927 Y37.1113 
G01 X-57.4556 Y36.9250 
G01 X-57.4556 Y36.7350 
G01 X-57.4927 Y36.5487 
G01 X-57.5654 Y36.3732 
G01 X-57.6709 Y36.2152 
G01 X-57.8052 Y36.0809 
G00 Z2.5400 
G00 X-57.8152 Y38.4649 
G01 Z-0.0800 F254.00 
G01 X-57.5149 Y38.7652 F254.00 
G01 X-57.3524 Y39.1576 
G01 X-57.3524 Y39.5824 
G01 X-57.5149 Y39.9748 
G01 X-57.8152 Y40.2751 
G01 X-58.2076 Y40.4376 
G01 X-58.6324 Y40.4376 
G01 X-59.0248 Y40.2751 
G01 X-59.3251 Y39.9748 
G01 X-59.4876 Y39.5824 
G01 X-59.4876 Y39.1576 
G01 X-59.3251 Y38.7652 
G01 X-59.0248 Y38.4649 
G01 X-58.6324 Y38.3024 
G01 X-58.2076 Y38.3024 
G01 X-57.8152 Y38.4649 
G00 Z2.5400 
G00 X-57.8052 Y38.6209 
G01 Z-0.0800 F254.00 
G01 X-57.9632 Y38.5154 F254.00 
G01 X-58.1387 Y38.4427 
G01 X-58.3250 Y38.4056 
G01 X-58.5150 Y38.4056 
G01 X-58.7013 Y38.4427 
G01 X-58.8768 Y38.5154 
G01 X-59.0348 Y38.6209 
G01 X-59.1691 Y38.7552 
G01 X-59.2746 Y38.9132 
G01 X-59.3473 Y39.0887 
G01 X-59.3844 Y39.2750 
G01 X-59.3844 Y39.4650 
G01 X-59.3473 Y39.6513 
G01 X-59.2746 Y39.8268 
G01 X-59.1691 Y39.9848 
G01 X-59.0348 Y40.1191 
G01 X-58.8768 Y40.2246 
G01 X-58.7013 Y40.2973 
G01 X-58.5150 Y40.3344 
G01 X-58.3250 Y40.3344 
G01 X-58.1387 Y40.2973 
G01 X-57.9632 Y40.2246 
G01 X-57.8052 Y40.1191 
G01 X-57.6709 Y39.9848 
G01 X-57.5654 Y39.8268 
G01 X-57.4927 Y39.6513 
G01 X-57.4556 Y39.4650 
G01 X-57.4556 Y39.2750 
G01 X-57.4927 Y39.0887 
G01 X-57.5654 Y38.9132 
G01 X-57.6709 Y38.7552 
G01 X-57.8052 Y38.6209 
G00 Z2.5400 
G00 X-57.8152 Y41.0049 
G01 Z-0.0800 F254.00 
G01 X-57.5149 Y41.3052 F254.00 
G01 X-57.3524 Y41.6976 
G01 X-57.3524 Y42.1224 
G01 X-57.5149 Y42.5148 
G01 X-57.8152 Y42.8151 
G01 X-58.2076 Y42.9776 
G01 X-58.6324 Y42.9776 
G01 X-59.0248 Y42.8151 
G01 X-59.3251 Y42.5148 
G01 X-59.4876 Y42.1224 
G01 X-59.4876 Y41.6976 
G01 X-59.3251 Y41.3052 
G01 X-59.0248 Y41.0049 
G01 X-58.6324 Y40.8424 
G01 X-58.2076 Y40.8424 
G01 X-57.8152 Y41.0049 
G00 Z2.5400 
G00 X-57.8052 Y41.1609 
G01 Z-0.0800 F254.00 
G01 X-57.9632 Y41.0554 F254.00 
G01 X-58.1387 Y40.9827 
G01 X-58.3250 Y40.9456 
G01 X-58.5150 Y40.9456 
G01 X-58.7013 Y40.9827 
G01 X-58.8768 Y41.0554 
G01 X-59.0348 Y41.1609 
G01 X-59.1691 Y41.2952 
G01 X-59.2746 Y41.4532 
G01 X-59.3473 Y41.6287 
G01 X-59.3844 Y41.8150 
G01 X-59.3844 Y42.0050 
G01 X-59.3473 Y42.1913 
G01 X-59.2746 Y42.3668 
G01 X-59.1691 Y42.5248 
G01 X-59.0348 Y42.6591 
G01 X-58.8768 Y42.7646 
G01 X-58.7013 Y42.8373 
G01 X-58.5150 Y42.8744 
G01 X-58.3250 Y42.8744 
G01 X-58.1387 Y42.8373 
G01 X-57.9632 Y42.7646 
