(.../pcb-gcode-3.6.2.4/pcb-gcode.ulp)
(Copyright 2005 - 2012 by John Johnson)
(See readme.txt for licensing terms.)
(This file generated from the board:)
(/Volumes/S/new_object/3xobject_1.brd)
(Current profile is .../pcb-gcode-3.6.2.4/profiles/turbocnc.pp  )
(This file generated 11/12/2018 15:06)
(Settings from pcb-machine.h)
(spindle on time = 3.0000)
(spindle speed = 15000.0000)
(milling depth = -1.6000)
(tool change at 0.0000 0.0000 25.4000 )
(feed rate xy = F254.00 )
(feed rate z  = F127.00 )
(Z Axis Settings)
(  High     Up        Down     Drill)
(12.7000 	2.5400 	-0.0800 	-2.0000 )
(Settings from pcb-defaults.h)
(isolate min = 0.0254)
(isolate max = 0.3000)
(isolate step = 0.0300)
(Generated bottom outlines, bottom drill, )
(Unit of measure: mm)
(Metric Mode)
G21
(Absolute Coordinates)
G90
G97 S15000
G00 Z12.7000 
G00 X0.0000 Y0.0000 
M03
G04 P3.000000
G00 Z2.5400 
G00 X2.5400 Y2.9845 
G01 Z-1.6000 F127.00 
G01 X2.5400 Y3.0480 F254.00 
G01 X2.3495 Y3.2385 
G01 X2.3495 Y3.3020 
G01 X2.1590 Y3.4925 
G01 X2.1590 Y3.6195 
G01 X1.9685 Y3.8100 
G01 X1.9685 Y4.1275 
G01 X1.8415 Y4.2545 
G01 X1.8415 Y4.5085 
G01 X1.7780 Y4.5720 
G01 X1.7780 Y4.8260 
G01 X1.7145 Y4.8895 
G01 X1.7145 Y5.8420 
G01 X1.7780 Y5.9055 
G01 X1.7780 Y6.3500 
G01 X1.9050 Y6.4770 
G01 X1.9050 Y6.7945 
G01 X2.0955 Y6.9850 
G01 X2.0955 Y7.1755 
G01 X2.3495 Y7.4295 
G01 X2.3495 Y7.5565 
G01 X3.3020 Y8.5090 
G01 X3.3655 Y8.5090 
G01 X3.6195 Y8.7630 
G01 X3.8100 Y8.7630 
G01 X4.0640 Y9.0170 
G01 X4.3815 Y9.0170 
G01 X4.5085 Y9.1440 
G01 X4.6990 Y9.1440 
G01 X4.6990 Y11.8110 
G01 X5.9690 Y13.0810 
G01 X5.9690 Y30.4800 
G00 Z2.5400 
G00 X5.9690 Y32.8295 
G01 Z-1.6000 F127.00 
G01 X5.9690 Y48.5140 F254.00 
G01 X6.6040 Y49.1490 
G01 X6.6040 Y58.1660 
G01 X17.7800 Y58.1660 
G00 Z2.5400 
G00 X20.3200 Y58.1660 
G01 Z-1.6000 F127.00 
G01 X31.4325 Y58.1660 F254.00 
G01 X31.4325 Y49.2760 
G00 Z2.5400 
G00 X31.4960 Y49.2125 
G01 Z-1.6000 F127.00 
G01 X32.1310 Y48.5775 F254.00 
G01 X32.1310 Y34.0995 
G00 Z2.5400 
G00 X32.1310 Y31.7500 
G01 Z-1.6000 F127.00 
G01 X32.1310 Y19.4310 F254.00 
G01 X33.3375 Y18.2245 
G01 X33.3375 Y9.1440 
G01 X33.6550 Y9.1440 
G01 X33.7185 Y9.0805 
G01 X34.0360 Y9.0805 
G01 X34.2265 Y8.8900 
G01 X34.4805 Y8.8900 
G01 X34.7345 Y8.6360 
G01 X34.8615 Y8.6360 
G01 X35.9410 Y7.5565 
G01 X35.9410 Y7.4295 
G01 X36.1950 Y7.1755 
G01 X36.1950 Y6.9850 
G01 X36.3855 Y6.7945 
G01 X36.3855 Y6.4770 
G01 X36.5125 Y6.3500 
G01 X36.5125 Y4.4450 
G01 X36.4490 Y4.3815 
G01 X36.4490 Y4.1275 
G01 X36.2585 Y3.9370 
G01 X36.2585 Y3.6830 
G01 X35.9410 Y3.3655 
G01 X35.9410 Y3.1750 
G01 X35.1790 Y2.4130 
G01 X35.1155 Y2.4130 
G01 X34.8615 Y2.1590 
G01 X34.7980 Y2.1590 
G01 X34.6075 Y1.9685 
G01 X34.4170 Y1.9685 
G01 X34.2265 Y1.7780 
G01 X33.9725 Y1.7780 
G01 X33.8455 Y1.6510 
G01 X33.5915 Y1.6510 
G01 X33.5280 Y1.5875 
G01 X20.3200 Y1.5875 
G00 Z2.5400 
G00 X17.7800 Y1.5875 
G01 Z-1.6000 F127.00 
G01 X4.7625 Y1.5875 F254.00 
G01 X4.6990 Y1.6510 
G01 X4.3180 Y1.6510 
G01 X4.1275 Y1.8415 
G01 X3.8735 Y1.8415 
G01 X3.6195 Y2.0955 
G01 X3.4925 Y2.0955 
G01 X3.2385 Y2.3495 
G01 X3.1750 Y2.3495 
G01 X2.5400 Y2.9845 
G00 Z2.5400 
G00 X35.8775 Y11.6840 
G01 Z-1.6000 F127.00 
G01 X35.8775 Y20.5740 F254.00 
G00 Z2.5400 
G00 X35.8140 Y20.6375 
G01 Z-1.6000 F127.00 
G01 X35.1790 Y21.2725 F254.00 
G01 X35.1790 Y35.7505 
G00 Z2.5400 
G00 X35.1790 Y38.1000 
G01 Z-1.6000 F127.00 
G01 X35.1790 Y50.4190 F254.00 
G01 X33.9725 Y51.6255 
G01 X33.9725 Y60.7060 
G01 X33.6550 Y60.7060 
G01 X33.5915 Y60.7695 
G01 X33.2740 Y60.7695 
G01 X33.0835 Y60.9600 
G01 X32.8295 Y60.9600 
G01 X32.5755 Y61.2140 
G01 X32.4485 Y61.2140 
G01 X31.3690 Y62.2935 
G01 X31.3690 Y62.4205 
G01 X31.1150 Y62.6745 
G01 X31.1150 Y62.8650 
G01 X30.9245 Y63.0555 
G01 X30.9245 Y63.3730 
G01 X30.7975 Y63.5000 
G01 X30.7975 Y65.4050 
G01 X30.8610 Y65.4685 
G01 X30.8610 Y65.7225 
G01 X31.0515 Y65.9130 
G01 X31.0515 Y66.1670 
G01 X31.3690 Y66.4845 
G01 X31.3690 Y66.6750 
G01 X32.1310 Y67.4370 
G01 X32.1945 Y67.4370 
G01 X32.4485 Y67.6910 
G01 X32.5120 Y67.6910 
G01 X32.7025 Y67.8815 
G01 X32.8930 Y67.8815 
G01 X33.0835 Y68.0720 
G01 X33.3375 Y68.0720 
G01 X33.4645 Y68.1990 
G01 X33.7185 Y68.1990 
G01 X33.7820 Y68.2625 
G01 X46.9900 Y68.2625 
G00 Z2.5400 
G00 X49.5300 Y68.2625 
G01 Z-1.6000 F127.00 
G01 X62.5475 Y68.2625 F254.00 
G01 X62.6110 Y68.1990 
G01 X62.9920 Y68.1990 
G01 X63.1825 Y68.0085 
G01 X63.4365 Y68.0085 
G01 X63.6905 Y67.7545 
G01 X63.8175 Y67.7545 
G01 X64.0715 Y67.5005 
G01 X64.1350 Y67.5005 
G01 X64.7700 Y66.8655 
G01 X64.7700 Y66.8020 
G01 X64.9605 Y66.6115 
G01 X64.9605 Y66.5480 
G01 X65.1510 Y66.3575 
G01 X65.1510 Y66.2305 
G01 X65.3415 Y66.0400 
G01 X65.3415 Y65.7225 
G01 X65.4685 Y65.5955 
G01 X65.4685 Y65.3415 
G01 X65.5320 Y65.2780 
G01 X65.5320 Y65.0240 
G01 X65.5955 Y64.9605 
G01 X65.5955 Y64.0080 
G01 X65.5320 Y63.9445 
G01 X65.5320 Y63.5000 
G01 X65.4050 Y63.3730 
G01 X65.4050 Y63.0555 
G01 X65.2145 Y62.8650 
G01 X65.2145 Y62.6745 
G01 X64.9605 Y62.4205 
G01 X64.9605 Y62.2935 
G01 X64.0080 Y61.3410 
G01 X63.9445 Y61.3410 
G01 X63.6905 Y61.0870 
G01 X63.5000 Y61.0870 
G01 X63.2460 Y60.8330 
G01 X62.9285 Y60.8330 
G01 X62.8015 Y60.7060 
G01 X62.6110 Y60.7060 
G01 X62.6110 Y58.0390 
G01 X61.3410 Y56.7690 
G01 X61.3410 Y39.3700 
G00 Z2.5400 
G00 X61.3410 Y37.0205 
G01 Z-1.6000 F127.00 
G01 X61.3410 Y21.3360 F254.00 
G01 X60.7060 Y20.7010 
G01 X60.7060 Y11.6840 
G01 X49.5300 Y11.6840 
G00 Z2.5400 
G00 X46.9900 Y11.6840 
G01 Z-1.6000 F127.00 
G01 X35.8775 Y11.6840 F254.00 
G00 Z2.5400 
G00 X60.1980 Y6.3500 
G01 Z-1.6000 F127.00 
G01 X60.3250 Y6.4770 F254.00 
G01 X60.3250 Y6.7945 
G01 X60.5155 Y6.9850 
G01 X60.5155 Y7.1755 
G01 X60.7695 Y7.4295 
G01 X60.7695 Y7.5565 
G01 X61.7220 Y8.5090 
G01 X61.7855 Y8.5090 
G01 X62.0395 Y8.7630 
G01 X62.2300 Y8.7630 
G01 X62.4840 Y9.0170 
G01 X62.8015 Y9.0170 
G01 X62.9285 Y9.1440 
G01 X63.1190 Y9.1440 
G01 X63.1190 Y11.8110 
G01 X64.3890 Y13.0810 
G01 X64.3890 Y30.4800 
G00 Z2.5400 
G00 X64.3890 Y32.8295 
G01 Z-1.6000 F127.00 
G01 X64.3890 Y48.5140 F254.00 
G01 X65.0240 Y49.1490 
G01 X65.0240 Y58.1660 
G01 X76.2000 Y58.1660 
G00 Z2.5400 
G00 X78.7400 Y58.1660 
G01 Z-1.6000 F127.00 
G01 X89.8525 Y58.1660 F254.00 
G01 X89.8525 Y49.2760 
G00 Z2.5400 
G00 X89.9160 Y49.2125 
G01 Z-1.6000 F127.00 
G01 X90.5510 Y48.5775 F254.00 
G01 X90.5510 Y34.0995 
G00 Z2.5400 
G00 X90.5510 Y31.7500 
G01 Z-1.6000 F127.00 
G01 X90.5510 Y19.4310 F254.00 
G01 X91.7575 Y18.2245 
G01 X91.7575 Y9.1440 
G01 X92.0750 Y9.1440 
G01 X92.1385 Y9.0805 
G01 X92.4560 Y9.0805 
G01 X92.6465 Y8.8900 
G01 X92.9005 Y8.8900 
G01 X93.1545 Y8.6360 
G01 X93.2815 Y8.6360 
G01 X94.3610 Y7.5565 
G01 X94.3610 Y7.4295 
G01 X94.6150 Y7.1755 
G01 X94.6150 Y6.9850 
G01 X94.8055 Y6.7945 
G01 X94.8055 Y6.4770 
G01 X94.9325 Y6.3500 
G01 X94.9325 Y4.4450 
G01 X94.8690 Y4.3815 
G01 X94.8690 Y4.1275 
G01 X94.6785 Y3.9370 
G01 X94.6785 Y3.6830 
G01 X94.3610 Y3.3655 
G01 X94.3610 Y3.1750 
G01 X93.5990 Y2.4130 
G01 X93.5355 Y2.4130 
G01 X93.2815 Y2.1590 
G01 X93.2180 Y2.1590 
G01 X93.0275 Y1.9685 
G01 X92.8370 Y1.9685 
G01 X92.6465 Y1.7780 
G01 X92.3925 Y1.7780 
G01 X92.2655 Y1.6510 
G01 X92.0115 Y1.6510 
G01 X91.9480 Y1.5875 
G01 X78.7400 Y1.5875 
G00 Z2.5400 
G00 X76.2000 Y1.5875 
G01 Z-1.6000 F127.00 
G01 X63.1825 Y1.5875 F254.00 
G01 X63.1190 Y1.6510 
G01 X62.7380 Y1.6510 
G01 X62.5475 Y1.8415 
G01 X62.2935 Y1.8415 
G01 X62.0395 Y2.0955 
G01 X61.9125 Y2.0955 
G01 X61.6585 Y2.3495 
G01 X61.5950 Y2.3495 
G01 X60.9600 Y2.9845 
G01 X60.9600 Y3.0480 
G01 X60.7695 Y3.2385 
G01 X60.7695 Y3.3020 
G01 X60.5790 Y3.4925 
G01 X60.5790 Y3.6195 
G01 X60.3885 Y3.8100 
G01 X60.3885 Y4.1275 
G01 X60.2615 Y4.2545 
G01 X60.2615 Y4.5085 
G01 X60.1980 Y4.5720 
G01 X60.1980 Y4.8260 
G01 X60.1345 Y4.8895 
G01 X60.1345 Y5.8420 
G01 X60.1980 Y5.9055 
G01 X60.1980 Y6.3500 
G00 Z2.5400 
G00 X94.2975 Y11.6840 
G01 Z-1.6000 F127.00 
G01 X94.2975 Y20.5740 F254.00 
G00 Z2.5400 
G00 X94.2340 Y20.6375 
G01 Z-1.6000 F127.00 
G01 X93.5990 Y21.2725 F254.00 
G01 X93.5990 Y35.7505 
G00 Z2.5400 
G00 X93.5990 Y38.1000 
G01 Z-1.6000 F127.00 
G01 X93.5990 Y50.4190 F254.00 
G01 X92.3925 Y51.6255 
G01 X92.3925 Y60.7060 
G01 X92.0750 Y60.7060 
G01 X92.0115 Y60.7695 
G01 X91.6940 Y60.7695 
G01 X91.5035 Y60.9600 
G01 X91.2495 Y60.9600 
G01 X90.9955 Y61.2140 
G01 X90.8685 Y61.2140 
G01 X89.7890 Y62.2935 
G01 X89.7890 Y62.4205 
G01 X89.5350 Y62.6745 
G01 X89.5350 Y62.8650 
G01 X89.3445 Y63.0555 
G01 X89.3445 Y63.3730 
G01 X89.2175 Y63.5000 
G01 X89.2175 Y65.4050 
G01 X89.2810 Y65.4685 
G01 X89.2810 Y65.7225 
G01 X89.4715 Y65.9130 
G01 X89.4715 Y66.1670 
G01 X89.7890 Y66.4845 
G01 X89.7890 Y66.6750 
G01 X90.5510 Y67.4370 
G01 X90.6145 Y67.4370 
G01 X90.8685 Y67.6910 
G01 X90.9320 Y67.6910 
G01 X91.1225 Y67.8815 
G01 X91.3130 Y67.8815 
G01 X91.5035 Y68.0720 
G01 X91.7575 Y68.0720 
G01 X91.8845 Y68.1990 
G01 X92.1385 Y68.1990 
G01 X92.2020 Y68.2625 
G01 X105.4100 Y68.2625 
G00 Z2.5400 
G00 X107.9500 Y68.2625 
G01 Z-1.6000 F127.00 
G01 X120.9675 Y68.2625 F254.00 
G01 X121.0310 Y68.1990 
G01 X121.4120 Y68.1990 
G01 X121.6025 Y68.0085 
G01 X121.8565 Y68.0085 
G01 X122.1105 Y67.7545 
G01 X122.2375 Y67.7545 
G01 X122.4915 Y67.5005 
G01 X122.5550 Y67.5005 
G01 X123.1900 Y66.8655 
G01 X123.1900 Y66.8020 
G01 X123.3805 Y66.6115 
G01 X123.3805 Y66.5480 
G01 X123.5710 Y66.3575 
G01 X123.5710 Y66.2305 
G01 X123.7615 Y66.0400 
G01 X123.7615 Y65.7225 
G01 X123.8885 Y65.5955 
G01 X123.8885 Y65.3415 
G01 X123.9520 Y65.2780 
G01 X123.9520 Y65.0240 
G01 X124.0155 Y64.9605 
G01 X124.0155 Y64.0080 
G01 X123.9520 Y63.9445 
G01 X123.9520 Y63.5000 
G01 X123.8250 Y63.3730 
G01 X123.8250 Y63.0555 
G01 X123.6345 Y62.8650 
G01 X123.6345 Y62.6745 
G01 X123.3805 Y62.4205 
G01 X123.3805 Y62.2935 
G01 X122.4280 Y61.3410 
G01 X122.3645 Y61.3410 
G01 X122.1105 Y61.0870 
G01 X121.9200 Y61.0870 
G01 X121.6660 Y60.8330 
G01 X121.3485 Y60.8330 
G01 X121.2215 Y60.7060 
G01 X121.0310 Y60.7060 
G01 X121.0310 Y58.0390 
G01 X119.7610 Y56.7690 
G01 X119.7610 Y39.3700 
G00 Z2.5400 
G00 X119.7610 Y37.0205 
G01 Z-1.6000 F127.00 
G01 X119.7610 Y21.3360 F254.00 
G01 X119.1260 Y20.7010 
G01 X119.1260 Y11.6840 
G01 X107.9500 Y11.6840 
G00 Z2.5400 
G00 X105.4100 Y11.6840 
G01 Z-1.6000 F127.00 
G01 X94.2975 Y11.6840 F254.00 
G00 Z12.7000 
M05
M02
